/* XPM */
static char *rcp85843492135035697[] = {
/* columns rows colors chars-per-pixel */
"64 64 237 2 ",
"   c #2C2722",
".  c #342F29",
"X  c #322C27",
"o  c #39332C",
"O  c #3E3832",
"+  c #743A1E",
"@  c #433D36",
"#  c #6D3C2D",
"$  c #733B24",
"%  c #733C2C",
"&  c #7A3D2B",
"*  c #793B28",
"=  c #6E3D32",
"-  c #733D32",
";  c #763D38",
":  c #7A461F",
">  c #49433C",
",  c #47423A",
"<  c #5E443C",
"1  c #6E4026",
"2  c #7C4323",
"3  c #79452B",
"4  c #6D4234",
"5  c #6C493C",
"6  c #744135",
"7  c #74483C",
"8  c #75513E",
"9  c #4F4A43",
"0  c #544D44",
"q  c #534F49",
"w  c #575149",
"e  c #5B544C",
"r  c #5F584F",
"t  c #565047",
"y  c #5E5952",
"u  c #5B5751",
"i  c #644C43",
"p  c #6B4E44",
"a  c #724D43",
"s  c #6D544C",
"d  c #61584E",
"f  c #6B5046",
"g  c #74584C",
"h  c #635C53",
"j  c #6A5D54",
"k  c #635F58",
"l  c #755D53",
"z  c #7C5F55",
"x  c #676056",
"c  c #696057",
"v  c #65625B",
"b  c #6C655B",
"n  c #6F685E",
"m  c #71665D",
"M  c #7A665D",
"N  c #72695E",
"B  c #7A6B5E",
"V  c #766456",
"C  c #6D6960",
"Z  c #736B61",
"A  c #7A6C62",
"S  c #7C7165",
"D  c #7C7368",
"F  c #823E25",
"G  c #984F2B",
"H  c #9C572E",
"J  c #8A493A",
"K  c #9B4C35",
"L  c #954D3B",
"P  c #984D37",
"I  c #9C5C33",
"U  c #965637",
"Y  c #864D2C",
"T  c #A54D36",
"R  c #A15B32",
"E  c #A85636",
"W  c #B25F38",
"Q  c #976C3A",
"!  c #B86737",
"~  c #B1753A",
"^  c #AD6C37",
"/  c #CA652E",
"(  c #C5682C",
")  c #D67E2E",
"_  c #D87E2F",
"`  c #C36633",
"'  c #CD6432",
"]  c #CC6C33",
"[  c #C4693B",
"{  c #D16F36",
"}  c #D16A36",
"|  c #CC7134",
" . c #C77238",
".. c #D17136",
"X. c #D77F30",
"o. c #D2753A",
"O. c #D37A3D",
"+. c #DA7D38",
"@. c #C8702F",
"#. c #8C5748",
"$. c #975948",
"%. c #846756",
"&. c #89715B",
"*. c #9A7559",
"=. c #926B56",
"-. c #AA6A44",
";. c #B56B48",
":. c #AE7245",
">. c #B5794A",
",. c #B77549",
"<. c #B47052",
"1. c #B87D54",
"2. c #AB7356",
"3. c #816E62",
"4. c #837364",
"5. c #8E7463",
"6. c #877768",
"7. c #967B6A",
"8. c #947665",
"9. c #D97D42",
"0. c #C57547",
"q. c #D4822E",
"w. c #D6862E",
"e. c #CC853B",
"r. c #C7853E",
"t. c #D68131",
"y. c #DA8233",
"u. c #DB8539",
"i. c #DF8B3D",
"p. c #DE953A",
"a. c #E18B3E",
"s. c #E29A3D",
"d. c #AE874A",
"f. c #B18A56",
"g. c #9A816D",
"h. c #BB956A",
"j. c #B29372",
"k. c #AD906C",
"l. c #DB8345",
"z. c #DC9947",
"x. c #C78857",
"c. c #DC995B",
"v. c #CC8652",
"b. c #E38D44",
"n. c #E38C4A",
"m. c #E08748",
"M. c #E29345",
"N. c #E29E41",
"B. c #E49349",
"V. c #EA964A",
"C. c #E6994C",
"Z. c #EC9B4D",
"A. c #E99645",
"S. c #ED9554",
"D. c #EE9D53",
"F. c #E49D5C",
"G. c #EF9958",
"H. c #F29D52",
"J. c #F39A59",
"K. c #D8A85A",
"L. c #D7A64E",
"P. c #E2A243",
"I. c #EAAA46",
"U. c #E8A949",
"Y. c #EEA353",
"T. c #EDAB55",
"R. c #ECA55D",
"E. c #EEAA5B",
"W. c #E3A759",
"Q. c #F3A556",
"!. c #F2AA56",
"~. c #F3A65B",
"^. c #F8A45D",
"/. c #F4A95C",
"(. c #F8A456",
"). c #EDB254",
"_. c #E3B35B",
"`. c #EBB75A",
"'. c #F1B055",
"]. c #F4B35A",
"[. c #F5BB5C",
"{. c #F3BE56",
"}. c #F1A04F",
"|. c #CD9769",
" X c #DE9B62",
".X c #D09568",
"XX c #E39C62",
"oX c #D1AA72",
"OX c #EBA764",
"+X c #F2A562",
"@X c #F3A961",
"#X c #F3A76A",
"$X c #E4B963",
"%X c #E9B566",
"&X c #F8BE62",
"*X c #F6B860",
"=X c #EBB775",
"-X c #EEC35D",
";X c #F6C15B",
":X c #F9C35C",
">X c #FCCD5D",
",X c #F6C355",
"<X c #FED25E",
"1X c #FBD35B",
"2X c #F7D459",
"3X c #EDC367",
"4X c #F4C163",
"5X c #FCCC63",
"6X c #F6C767",
"7X c #FCD361",
"8X c #F5D165",
"9X c #F4D677",
"0X c #EECA76",
"qX c #BB9A88",
"wX c #BFABA1",
"eX c #B4A296",
"rX c #C8AA86",
"tX c #D5B789",
"yX c #E6B687",
"uX c #F2CA88",
"iX c #ECCE95",
"pX c #F4D697",
"aX c #EDCB8A",
"sX c #F3DBA5",
"dX c #EFD4B5",
"fX c #F3D7B9",
"gX c #E7CBAB",
"hX c #FBEBBA",
"jX c #FAF4B9",
"kX c #FEE7AA",
"lX c #F0DDCC",
"zX c #F9F4C3",
"xX c #EDE1DB",
"cX c #F6EDD2",
"vX c #F7EBC8",
"bX c #FAF6EA",
"nX c #F3FBFA",
/* pixels */
"h b b c h v k k k v v v k e w x c c b n n b O N N m N N A A A A j Z N b c m n b b m m b c r w x c c b n n b o Z b j c b m N N b ",
"j 0 h > v v v k v v v v k y h c c c c b n b o N 5.<.<.<.<.<.<.<.$.#.#.#.#.#.#.M b Z Z m c j h c c c c b n b o Z b b b j c b N N ",
"e b h > v v v v v v v v v v w c c c c c n h 0 j *.' / ' ' ' ] [ T K T K K K P %.N Z Z Z b b w c c c c c b h 0 j b b c b m b N b ",
"c N N w v v v v v v v C v v w c b c c N 6.4.4.A f.r.e.e.e.e.e.r.~ ~ ~ ~ ~ ~ ^ *.A S D D S b w c b c c c b c b h b b b N Z Z Z h ",
"N m Z w v v v v v v v C C k h b N b b =.[ ! P L K.>X<X<X<X1X2X2X1X<X<X<X1X<X1XK.% - - - f b h b N b b c r b h 0 w c b c h e w N ",
"b b m j v v v v v v v v v w Z b N Z N *.( ! G G K.>X<X>X>X<X<X<X<X>X<X<X<X<X5XK.+ % $ % a r Z b N b c h o e b Z Z Z Z Z b @ b b ",
"b b b r j k v v v v v v w q b c Z 2.2.K.-X4X`.`.`.].].].].].].].].].].].].].].E.c.c.F.c..Xf g Z c c j O d b b b b Z Z Z Z n h b ",
"n b h b N Z b q 9 u y 9 X O h b N ! ( U.1X2X2X2X{.~.~.~.~.~.~./.@X~.~.~.~.~.~./.~.Q.Q.T.F.% # m x h h q b b b b b Z Z Z Z Z r n ",
"b y 9 r h j m h @ m N S 7.7.5.M %.z.z._.;X:X:X:X].~.~.~.~.~.~././.~.~.~.~.~.~.~.~.~.~.~.R.>.<.%.0 j M A Z b b b b Z n C Z Z w b ",
"c Z Z Z Z b h o c B B 6.! ` E L ~ 8X5X`.E.~.~.~.~.~.~.~.~.~.~././.~.~.~.~.~.~.~.~.~.Q.~.Y./.+X-.- J L L M b b b b n n n N Z @ r ",
"b b b b m m Z h N S 4.g.0.0.! R ~ 5X>X].@X~.~.~.~.~.~.~.~.~.~.~./.~.~.~.~.~.~.~.~.~.~.~.~.~.+X:.Y J E U %.Z Z Z Z N n n n b h N ",
"b b b b m b 4.;.;.$.#.k.hXkXuX6X6XT.T.T.~.~.~.~.~.~.~.~.~.~.~./.~.~.~.~.~.~.~.~.~.~.~.~.~.~.~.+XOXOX+XOX1.7 6 #.#.M n n n t Z b ",
"b b N b b b 4.` ' T P j.zXjX9X1X>XT.~.Q.~.~.~.~./.~.~.~.~.~.~.~./.~.~.~.~.~.~./.~.~.~.~.~.~.~./.~.~.~.+X1.% * L U M b N h 0 Z N ",
"Z Z Z N 6.g.j.|.|.h.j.oXpXpX0X:X&X~.~.~.~././././.~.~.S.S.S.S.S.S.S.S.S.S.^.~./.~.~.~.~.~./././.+X~.~.+Xv.-.^ ;.,.8.m m b r S D ",
"D A Z D ;.! oXhXzXzXzXsXOXE.E.Q.~.Q.~.~.~./.~.~./.~.^.( / / / } ' ' ' / ' G.~.~.~.~.~.~.~.~.~./.~.^.~.~.~.~.Q.+X@X1.# 5 A Z w Z ",
"w c N S -.[ oXzXzXjXjXpXR.~.~.Q.Q.Q.~.~.Q./.~.~.~.~.J.] ] ] ] ] ] ] ] ] ] S.^.~.~.~.~.~.~.~.~./.~.~.~.~.~.~.Q.~.~.1.% 8 N r h N ",
"m c j n U E oXjXjXaX%X%X~.~./.~./.~.~.~.~.D.| ] | ] ..b.n.n.n.n.B.B.B.B.B.o.] } ] ] D./.~.~.~./.~./././.~.~.~.~./.x.% 8 Z q c Z ",
"b c c Z #.P rXzXjX=X~.~.~.Q./././.~.~.~.^.G./ ' ' / ( B.M.M.M.B.B.B.M.M.B.../ ' ' ' G.~.~.~.~./.~./.~./.~.~.Q.~.~.v.% 7 q x Z Z ",
"b Z 5.7.rXrXtXiXaX%X~.~.~.~.~.~.~.~.~.B.m.l.O.9.9.+.+.B.M.M.M.B.D.D.Z.Z.D.n.m.n.m.l.m.b.n.~.~./.~./.~.~.~.~.Q.~.~.c.1.1.3.b Z b ",
"b 5.` ,.hXjXiXE.~.~.~.~.~.~.~.~.~.~.~.l.' ..B.M.B.M.M.M.M.M.B.C.~.~.~.~.~.~.~.~.~.~.O./ | ~.~./.~./.~./.~.~.Q.~.!.@X~.XX2 # s b ",
"b &.` ,.kXjXiX~.~.~.~.Q.~.~.~.~.~.^.^.l.' | B.M.B.B.M.M.M.M.M.C.~.~.~.~.~.~.~./.~.~.O./ | ^.~.~.~./.~.~.~.~.~.~.!./.E.F.F & i c ",
"0 %.`  .9X9X6X/.~.~.~.~.~.~.~.~.J...o.l.m.b.B.B.B.B.B.Q.Q.Q.Q.Q.~.~.~.~.~.~.~.~.~.~.J.H.S.o.o.G.~././.~.~.~.~.~.!.[.:X[.G L z e ",
"c 5.` | >X2X;X~.~.~.~.~.~.~.~.^.G./ / l.B.B.B.M.M.M.B.~.~.~.~.~.~.~.~.~.~.~.~.~.~.~.~.~.J.( / S.~./.~.~.~.~.~.~.T.&X7X:XH P %.e ",
"N 5.[ | 5X1X:X~.~.!.!.~.~.~.S.n.n.O.O.b.B.B.B.B.B.M.B.~.~././././.~.~.~.~.~.~./.~.~./.^.~.z.z.C.V.Z./.~.~.~.~.~./.*X4X%XG J z h ",
"n 5.` | 5X2X;X~.~.~.~.~.~.~.O./ ] B.B.B.B.B.B.M.B.B.B.~.~./.~.~.~.~.~.~.~.~.~.~.~.~.~.~.T.7X1XP.X.i.Q.~.~.~.~.~.!./.~.F.2 % f b ",
"n 5.` @.5X1X;X!.~.Q.~.~.~.~.o.' { B.M.B.B.B.B.B.B.B.B.~./.~.~./.~.~.~.~.~.~.~.~.~.~.~.~.'.1X1XP._ a.~.~.~.~.~.~.~./.~.F.2 - i Z ",
"N 5.` | 5X1X;X~.~.Q.~.~.~.~.o.' { B.B.B.B.C.~.~.~.~.~.~.~.~.~.~.~.~.~.~.~.~.~.~.~.~.~.~.!.1X>XN.) a.~.~.~.~.~.~.~./.~.F.2 % f n ",
"N 5.` | 5X2X;X~.~.~.~.~.~.~.o.' { B.M.B.M.C.~.~.~.~.~.~.~.~.~.~.~.~.~.~.~.~.~.~.~.~.~.~.!.2X>XP._ a.~.~.~.~.~.~.~./.R.c.2 % s N ",
"N 5.` | 5X2X;X~.~.~.~.~.~.~.o.' ..B.M.M.M.C.~.~.~.~.~.~.~.~.~.~.~.~.~.~.~.~.~.~.~.~.~.~.!.2X1XP._ a.~.~.~.~.~.~.~.].&X%X2 - p m ",
"b 5.` | 5X1X;X~.~.~.~.~.~.~.o.' | B.M.B.M.C.~.~.~.~.~.~.~.~.~./.~.~.~.~.~.~.~.~.~.~.~.~.!.2X<XP.) a.~.~.~.~.~.~.~.&X5X4X2 - p b ",
"q &.` | 5X1X;X~.~.~.~.~.~.~.O.' | B.M.B.M.C.~.~./.~.~.~.~.~.~././.~.~.~.~.~.~./.~.~.~.~.'.1X1XP.t.i.~./.~.~.~.~.!.&X5X3X2 - s r ",
"h 5.` | 5X1X:X/.~./././.~./.O.' | B.M.M.M.C./.~././././.~./.~./././././././.~././.~.~./.'.1X2XP.t.i./././././.~.~././.W.2 - s b ",
"h 5.` @.5X1X;X/.~./.~./.~.~.o.' ] B.M.B.M.C.~.~.~.~.~.~.~.~.~./././.~././.~.~./.~.~.~.~.'.2X1XN.) a.~.~.~./.~.~.Q./.~.F.2 % s b ",
"j l W ! 5X1X;X~.~.~.~.~.~.~.o.' ] B.M.C.Z.Y./.~.~.~.~.~.~.~.~.~.~.~.~.~.~.~.~.~.~.~.~.~.!.1X1XN._ a.~.~.~.~.~.~.Q./.~.F.2 - s N ",
"w M K I 5X2X;X~.~.~.~.~.~.~.o.' | B.z.Y.~.~.~.~.~.~.~.~.~.~.~./.~.~.~.~.~.~.~.~.~.~.~.~.'.<X1XN._ a.~.~.~.~.~.~.Q./.~.F.2 % s b ",
"y M P I 5X2X;X~.~.~.~.~.~.~.o.' { B.M.D.~.~.~.~.~.~.~.~.~.~.~././.~.~.~.~.~.~.~.~.~.~.~.'.2X1XN.) a.~.~.~.~.~.~.!.]./.W.2 % s h ",
"v M P R 5X2X;X~.~.~.~.~.~.~.o.' { B.M.H.~.~.~.~.~.~.~.~.~.~.~././.~.~.~.~.~.~.~.~.~.~.~.'.1X1Xs.) a.~.~.~.~.~.~.E.4X5X4X2 % < b ",
"v M P I 5X2X;X~.~.~.~.~.~.~.o.' | B.M.D.Q.~.~.~.~.~.~.~.~.~.~././.~.~.~.~.~.~.~.~.~.~.~.).1X>XN.q.a.~.~.~.~.~.~.E.;X7X3X2 % f v ",
"v m 3 Y 5X1X:X/.~././.~./.~.O.' | B.M.D.~.~.~.~./.~./.~././.~././././././.~.~./.~.~.~.~.).1X1XP.t.a././.~././.~.~.;X2X;X2 - i v ",
"v b % 3 6X1X;X/.~.~.~.~.~.~.o.' ] B.M.D.~.~.~.~./.~./.~.~.~.~.~.~././././.~.~./.~.~.~.~.).1X1XP.X.i.~.~.~.~.~.~.E.;X1X-X2 - i v ",
"k h & Y 6X1X;X~.~.~.~.~.~.~.9.} ..B.M.D.~././././.~./.~.~.~.~./././.~.~.~.~.~./.~.~.T.).).,X>Xz.u.b.~.~.~.~.~.~.E.3X9X0X3 - i v ",
"c 3.P I 5X1X4X+X~.~./././.~.~.~.H.t.y.Z././.~.~.~.~.~././.~.~.~.~.~.~./.~.~.~./.~.E.:X7X:Xw.t.D.~.~.~.~.~./.!.~.E.pXbXvX7 & < e ",
"b M P R 5X1X;X!.Q.Q.~.~.~.~.~.~.Q.X._ Z.~.Q./.~.~.~.~.~.~.~.~.~.~.~.~.~.~.!.E./.~.T.>X<X;Xq.t.Z.~./.~.~.~.~.~.Q./.sXbXcX5 % p N ",
"b M P R 5X<X[.~.~.~.~.~.~.~.~.~.~.V.V.A.b.B.Q.~./.~.~.Q.Q.Q.~./.~.~.~.Q.T.{.,X;X;X;XU.P.N.Z.Z.Q.~./.~.~.~.~.~.~.Q.uXsXiX3 % g m ",
"b M P R 5X2X;X~.~.Q.Q.~.~.~.~.~.~.~.Q.b.X.i.Q.~.~.~.^.~.~.~.~.~./.~.~.~.T.>X1X2X1X1Xp.q.u./.~./.~./.~.~.~.Q.~.~.~.;X8X3X2 - s N ",
"Z Z %.=._._._.!.~.~.~.~.~.~./.~.~.~.~.B.a.b.}.D.Y.H.Z.].].].].].].].].].].{.,X,X,X;XM.i.M./././.~./.~./.~.!.^.!.@X%X_.K.g f V D ",
"D A Z Z 4 $ >.~.~.~.~.~.~.~./.~.~.~.~.~.Q.Q.t.t.t.q.q.:X2X<X7X<X1X<X<X<X>Xp.q.y.) q.D.~.~./././.~./.E.~.!.E.~.!.OX1.1 5 Z Z w Z ",
"w c n b 5 $ >.E.~.~.~.~.~.~./.~.~.~.~.~.~.Y.t.) _ _ q.>X2X<X>X<X<X<X<X<X>Xs.t._ _ X.D.Q.~.~.~./.~.~.~.^.+XOX+X~.OXf.# a m r h N ",
"B V c m 5 3 >.~.~.~.~.~.~.~./.~./.~.~.~.~.Q.C.V.V.V.C.U.I.I.U.I.I.I.I.U.U.A.V.V.V.V.Q.~.~.~././.~.~.~.E.aXdXfXdXdXqX% a S q m B ",
"N m m B 7 $ >.Q.~.Q.~.R.~.Q./.~.~.~.~.~.~.~.~.Q.~.Q.Q.t.t._ _ t.t.) X.) ) Z.~.~.~.~.~.~.~.~././.~./.~.OXdXbXnXnXbXwX= a q c S S ",
"N V N N s 5 *.c.XX X XXX~.Q.Q.~.~.~.~.~.~.~./.~./.~.Q.u.u.u.u.u.u.u.u.u.u.H.~./.~.~.~.~.~.~./.=XyX=X`.).gXxXxXxXxXeXi s S c B N ",
"N N N h N b j $ & * * ^ +XQ.~.~.!.T.~.~.~././.~./.~.~.~.~.Q.Q.~.~.Q.Q.Q.Q.^.~./.~.~.~.~.~.^.~.fXbXzX8X5Xf.4 4 6 4 m e j c q N N ",
"N N d q w , j - - = # -.#X~.+X+X+X~.~.~.~././././.~.~.~.~.~.~././.~.~.~.~.~.~./.~.~.~.~.!.Q.T.lXbXcX0X8Xf.- = - 4 m b N c r e V ",
"0 d N b b b w b m m d V U I I I :.@XQ.~.~.~.~.~./.~.~.~.~.~.~.~./.~.~.~.~.~.~./.~.~.~.(./.5X6Xh.7.7.Q Q &.N N j m b b b b b m r ",
"c N b b b b b w c b j . # % % $ U +XQ.~.~.~.~.~./.~.~.~.~.~.~.~./.~.~.~.~.~.~.~.~.~.~.~.E.1X5Xd.# - % # c N r N b b b b b b b e ",
"N b N N b b b b 0 y q j l l l l %..Xv.XX~.~.~.~./././././././././././././.~././.].].].].`.K.K.*.l l l s @ , h b b b b b b b n h ",
"n n Z Z Z m b b h , Z m m m m b N # + x.~.~.~.~.~.~.~.~.Q.~.~././.~.~.~.~.~.~.[.>X>X>X1X-X& + D n n n b q X b b b b b m m m j b ",
"n Z Z Z Z m m b j c N m m m m m m 5 # x.+X~.~.+XT./.~././././././././.~./.!.~.[.8X2X8X2X3X- 1 A n n n b k , c c c b b m m m w Z ",
"N Z Z Z Z m m b e Z b m b b N N m b b &.:.:.:.<.K.;X;X;X,X;X;X;X;X:X,X,X,X:X;X_.d.d.d.d.f.b b C n n n v r . c c b b b b m x j n ",
"N N Z Z N b b b q x b m b b N Z Z N N c % ; % % K.7X<X7X<X7X7X7X1X<X<X1X1X7X1XK.% $ - % 5 n n C C Z N b h b x c b b b c r o b N ",
"N N Z Z Z b b b r w b b b b b b N Z N h g g s p k.%X%X$X$X$X$X$X$X$X$X$X$X$X`.h.i i s s j b b b N Z n y Z b b h > e h h j > h N ",
"b m Z Z b b b c r q 9 q e h j c c h q r b b c e l $ $ $ $ $ $ 1 $ $ $ $ $ P K V e q q t e y x v c h q r b b c r N b b b b N r b ",
"q h q r c j e e y v v k q X   , d b N c h q . j j 4 - - - - 6 6 6 - - - - J L l k b b b r .   , r c N c h q . j b b b b b m b r ",
"h b m j @ u v k k k v k k e O c c b N n b c X j m N N N A B B N j m Z j @ j Z b c c b b c h O c c b N n b c X j b b b b m N m b "
};
