/* XPM */
static char *rcp99041800135050794[] = {
/* columns rows colors chars-per-pixel */
"64 64 238 2 ",
"   c #27231E",
".  c #292520",
"X  c #2F2B25",
"o  c #332E28",
"O  c #3A342D",
"+  c #36312B",
"@  c #3E3932",
"#  c #3B3631",
"$  c #753A1F",
"%  c #433C35",
"&  c #453F38",
"*  c #593A34",
"=  c #6F3D2A",
"-  c #6C3F27",
";  c #743C25",
":  c #7A3B25",
">  c #743B2B",
",  c #7A3C2C",
"<  c #793726",
"1  c #6D3D33",
"2  c #743B31",
"3  c #783C32",
"4  c #4A443C",
"5  c #47423A",
"6  c #5C453B",
"7  c #7A442B",
"8  c #72412D",
"9  c #6C4135",
"0  c #68493D",
"q  c #744237",
"w  c #754926",
"e  c #4F4A42",
"r  c #4E4740",
"t  c #544D44",
"y  c #534F49",
"u  c #575047",
"i  c #57514A",
"p  c #5B544C",
"a  c #5F584F",
"s  c #5E5952",
"d  c #5A5650",
"f  c #6C4D45",
"g  c #634F45",
"h  c #6D5146",
"j  c #6B544A",
"k  c #63584E",
"l  c #68574C",
"z  c #775849",
"x  c #635C53",
"c  c #6B5D53",
"v  c #635F58",
"b  c #6E5750",
"n  c #735D52",
"m  c #725F58",
"M  c #744F45",
"N  c #676056",
"B  c #6A6157",
"V  c #65615B",
"C  c #6D655B",
"Z  c #6F685E",
"A  c #726355",
"S  c #71665D",
"D  c #72695E",
"F  c #7A6D5E",
"G  c #7C6457",
"H  c #6D6860",
"J  c #736B61",
"K  c #7B6F64",
"L  c #7B7164",
"P  c #7A7367",
"I  c #8A4629",
"U  c #944B2C",
"Y  c #9C4F2C",
"T  c #8A5D2D",
"R  c #87582B",
"E  c #9B532D",
"W  c #94572B",
"Q  c #864733",
"!  c #974D33",
"~  c #8B5C35",
"^  c #9A5F3D",
"/  c #985735",
"(  c #A55936",
")  c #AE5B36",
"_  c #8B612F",
"`  c #9B633D",
"'  c #9C6739",
"]  c #936B35",
"[  c #A66239",
"{  c #BB643A",
"}  c #BB693B",
"|  c #B76336",
" . c #B77339",
".. c #B17735",
"X. c #C6662E",
"o. c #CB652E",
"O. c #C26A2C",
"+. c #CB6C2D",
"@. c #D0652F",
"#. c #CB792E",
"$. c #D77F2F",
"%. c #C56634",
"&. c #CC6532",
"*. c #C46A33",
"=. c #CB6A33",
"-. c #C46639",
";. c #C3683B",
":. c #CC6738",
">. c #D06D35",
",. c #D06637",
"<. c #C57B3C",
"1. c #C97637",
"2. c #D47435",
"3. c #D67D34",
"4. c #D97E33",
"5. c #D47A3C",
"6. c #DA7D3E",
"7. c #D3773B",
"8. c #965644",
"9. c #8C5F4A",
"0. c #9A6340",
"q. c #996849",
"w. c #9C7245",
"e. c #8E6B56",
"r. c #866453",
"t. c #956E58",
"y. c #8D745D",
"u. c #99745B",
"i. c #85634E",
"p. c #A46B4F",
"a. c #AC6543",
"s. c #A57646",
"d. c #B87943",
"f. c #A66C52",
"g. c #A86951",
"h. c #AC6C4A",
"j. c #847363",
"k. c #967661",
"l. c #D47941",
"z. c #DC7C41",
"x. c #C87241",
"c. c #D4812E",
"v. c #D4862C",
"b. c #CD853C",
"n. c #C6863C",
"m. c #D58133",
"M. c #DA8232",
"N. c #DB863C",
"B. c #DD913B",
"V. c #DE9136",
"C. c #CF852A",
"Z. c #E28D3B",
"A. c #E19138",
"S. c #B78148",
"D. c #B08A50",
"F. c #BC9B64",
"G. c #CB8B46",
"H. c #DC8344",
"J. c #D88A46",
"K. c #DA9747",
"L. c #C68753",
"P. c #D48E5A",
"I. c #C99E56",
"U. c #C99C57",
"Y. c #D29156",
"T. c #D3915A",
"R. c #DC965A",
"E. c #E38B4B",
"W. c #E48A48",
"Q. c #E39346",
"!. c #E49449",
"~. c #E99349",
"^. c #E99A4D",
"/. c #E79748",
"(. c #EB9D52",
"). c #E89954",
"_. c #F49E59",
"`. c #CDA557",
"'. c #D4A55A",
"]. c #D7A15B",
"[. c #DBA851",
"{. c #E3A34D",
"}. c #E8A74A",
"|. c #E9B24E",
" X c #E7B34B",
".X c #EEA556",
"XX c #EEAA54",
"oX c #EEAB5C",
"OX c #E7A757",
"+X c #F3A656",
"@X c #F2A956",
"#X c #F3A65B",
"$X c #F3A95B",
"%X c #F8A45B",
"&X c #EBB352",
"*X c #E8B75B",
"=X c #F3BC57",
"-X c #F2B25B",
";X c #F3BC5B",
":X c #F5B658",
">X c #DF9A61",
",X c #DA9663",
"<X c #E09B62",
"1X c #D8AA65",
"2X c #EFA961",
"3X c #ECA967",
"4X c #F3A563",
"5X c #F3A962",
"6X c #F6A667",
"7X c #EBBC64",
"8X c #E6BA66",
"9X c #F3BC60",
"0X c #E8B378",
"qX c #E6AF71",
"wX c #F5C25C",
"eX c #F9C55D",
"rX c #FCCC5D",
"tX c #F8CD59",
"yX c #FCD357",
"uX c #F7D35C",
"iX c #FBD35B",
"pX c #FAC463",
"aX c #FBCC63",
"sX c #F5CA67",
"dX c #FBD263",
"fX c #FAD169",
"gX c #F6D168",
"hX c #F1CB71",
"jX c #E5BE90",
"kX c #F5E59A",
"lX c #EBD0AE",
"zX c #E5C798",
"xX c #F2E7CD",
"cX c #FBF7D8",
"vX c #FAEFD6",
"bX c #FBFCEE",
"nX c #FBFBE3",
"mX c #FAFCF5",
/* pixels */
"x C C B x V v v v V V V v p i N N N C Z Z C O F S c S S D F F D x C C B N C C C C S S C B a i N N N C D D C # J C v B C S D D C ",
"v t x 4 V V V v V V V V v s x N N N B C Z C O F S S S c S D F F c i c t K J F C C J J S B v x N N N B C D C + J C B B v B S D D ",
"p C x 4 V V V V V V V V V V i N N B B B Z x t c S b 1 1 1 1 = 1 Q a.| | | { { } k.J J J C C i N N B B B C x t v C C B C S S D C ",
"N D D i V V V V V V V H V V i B C B B B C B C x S n > > > > < ; I } %.%.%.-.-.*.u.J J J J C i B B B B B C B C x C C C D J J J x ",
"D S J i V V V V H V V H V v x C D S B n G u.y.l l u.U.U.U.U.U.U.U.( / / E E ( / f.k.u.k.k.j.x C D C C B a C x t i N C B x p i D ",
"C S S v V V V V V V V H V i J C D C 9 > / %.{ > 8 U.iXiXiXiXiXuXhX7 ; 2 < , ; 2 ( -.%.&.%.0.J C D C B x + p C J J J J J C % C C ",
"C C C a v v V V V V V V i y C D L j.] ]  .l.<./ / '.rXrXrXrXrXeXpX/ W / / / / ! ) { | 5.b.s.j.K C B v @ k C C C C J J J J Z x C ",
"Z C x C D J C y e d s e X # x e.{  .gXuXfXdXtX2X6XoXXX$X$X$X$XoX5X6X4X4X2X2X6X4XL.; ; sXaX*X{ a.F x x y C C C C C J J J J J a Z ",
"C s r a x v S x % S D F F D C q.o.#.aXiXdXiXgXXX%X4X+X+X@X@X$X+X+X$X@X%X#X$X4X#XL.; $ sXiX*XO.| g a N v C C C C C J D D J J i C ",
"B J J J J C x O N F F F L u.p.1X;X=X:X-X:X:X-X$X@X$X@X@X@X@X$X#X%X$X#X@X@X%X$X.XOXR.,Xs.] D.;X7XD.p.q.f.t.C C C C Z Z Z D J & a ",
"C C C C C C S a A F F F j.} *.*XtXrXXX@X$X$X#X@X$X$X@X$X#X@X#X@X$X$X#X@X@X%X$X$X#X@X5XQ ; S.iXdXb.*.*.X.} F C C C C Z Z Z C x D ",
"C C C C C C C B c F F j.k.G.G.*XeX9X+X%X@X@X@X@X$X$X@X$X$X@X#X@X$X%X$X$X$X$X@X$X%X$X4XS.s.F.8X8XY.J.J.J.G.y.F F C C Z Z Z u J C ",
"C C D C C C C B t F t.;.<.aXtX;XXX@X@X%X@X#X@X#X@X%X@X@X@X@X@X@X$X$X@X$X$X$X@X@X%X$XXXeXfX[.E W 9XyXyXrXaXG.x.u.C C C D x t J D ",
"J J J D C C B B O S u.*.#.uXuX;X@X%X@X$X@X$X@X#X#X%X#X#X#X#X%X%X%X$X$X$X$X#X%X$X$X.XOXeXiX*X! ! 7XyXiXiXiXb.&.p.C N x v C a L P ",
"P K J D C C B a . % t.:.1.dXuX;X$X5X$X$X5X$X$X4X%X!.5.l.l.l.l.l.H.5X$X$X$X$X%X$X;XpXpXdXdX*XQ Q sXiXdXuXiXG.,.p.a i e a J J i J ",
"i B D C N x t p v v r.&.#.rXuX=X@X%X@X$X@X@X4X%X%XE.&.&.&.,.&.&.>.4X$X@X$X$X$X%X;XuXuXuXdX1X> ; 7XyXyXyXrXb.&.f.C S J L C a x D ",
"S N v v p % e v v v e.%.#.iXuX=X%X%X@X@X$X$X#XE.E.H.5.5.5.5.N.K.K.^.!.(.$X$XXX+XhXkXkXfXiX*XE E 7XyXiXiXiXb.@.g.C C J J J t B J ",
"C B B C C p # v v v e.%.#.rXuX=X$X$X@X@X$X@X_.o.&.6.Q.Q.!.Q.&XuXtXv.4.Q.+X@XoX$XlXbXcXhXdX&X=.=.wXuXiXuXiXb.o.f.C C D C t N J J ",
"C B B C v a 4 p v v e.;.<.rXuX;X$X$X@X$X$X%X_.=.=.6.Q.Q.!.Q.&XdXrXC.c.Q.+X@X3X3XlXbXnXhXdX*X-.*.;XiXaXaXaXG.o.f.B x u C K v D C ",
"C C C x Z C k c a i g : W fXiX;X$X$X%X$XH.o.=.~.Q.!.Q.Q.Q.Q.K.Q.{.rXrXXXM.n.xXnXmXmXbX0XoXY.: : R.XX@X$X@Xl.&.8.p a i v B y C C ",
"C C a t i 5 c S C C g = T fXiX;X+X$X#X%XJ.&.=.~./.!.Q.Q.Q.Q.Q.~.^.aXuX|.M.n.xXbXmXmXbX0X#XP.> < >X$X$X@X@X5.&.q.J C C D B a i B ",
"t a D C C C i C C C l > T fXiX;X@X%XE.~.H.7.N.~.!.!.!.Q.!././.!.^.;X=X|.}.[.zXlXxXmXbX0X$XT.> ; <X$X$X$X$Xl.:.q.C C C C C C S a ",
"B D C C C C C p S S b > T gXuX;X$X_.X.X.z.~.Q.!.Q.!.Q.Q.Q.Q.Q.Q.!.Q.K. XrXrXB.m.jXbXbX0X$XP.> < >X@X$X@X@X7.&.q.C C C C C C C p ",
"D C D D C C C B t k h 7 _ fXiX;X%X%Xo.&.z.Q././.!.!.!.!.!././.!.!.!.!.|.uXuXA.M.jXvXvX0X@XT.; : <X$X$X$X%X5.:.q.C C C C C C Z x ",
"Z Z J J J S C C x 4 u.} <.aXiX;X$X%X=.&.z.~.!.!.Q./.!.!.!././.!.Q.!.Q.|.yXyXV.M.).3XqX%X@XT.: : <X$X%X$X%X5.:.q.C C C Z Z S v C ",
"Z J J J J S S C v B t.&.1.rXiX;X@X%XX.&.6.~.!.Q.Q./.Q.Q.Q.Q.Q.Q.Q.!.Q.&XuXrXV.3.~.+X@X+X@XP.< < <X+X$X+X@Xl.%.q.C C Z Z Z S i J ",
"D J J J J S S C p J r.U [ -X=X-X@X%X%.&.6.!.!.Q.Q.Q.Q.Q.Q.Q.Q.Q.Q.!.Q.&XuXrXA.$.~.@X@X@X$XT.> < 3XeXeXeXpXd.Y z C C C Z Z N v Z ",
"D D J J D C C C t N n > U 2X+X$X@X%X&.&.6.!.!.Q.Q.Q.Q.Q.Q.Q.Q.Q.Q.!.Q.&XuXrXA.c.~.@X@X+X$XT.> ; 8XiXiXuXfXw.> f C C C B a O C Z ",
"D D J J J C C C s i A I E 4X@X$X$X%XX.o.6.!.Q.Q.Q.!.Q.Q.Q.Q.Q.Q./.!.Q.&XuXrXV.$.!.@X@X$X$XY.I I 7XuXiXyXdXw.> g 4 p x x v 4 x D ",
"C S J J C C C B a y i.;.1.4X@X$X@X%XX.o.6.Q.Q.Q.Q.Q.Q.Q.Q.Q.Q.Q.Q.!.Q.&XuXiXV.$.!.@X@X$X@X).-.*.;XuXiXiXdXw.2 0 D C C C C Z d B ",
"t x t a B v a a v C t.&.2.%X#X$X@X%X&.&.6.Q.!.Q.Q./.Q.Q.Q.Q.Q.Q.!./.Q.|.uXiXV.$.!.#X@X$X$X~.&.=.wXuXiXiXdXs.3 f C C C C C S C a ",
"x C S v % x Z C B B t.:.2.%X#X$X$X%X&.&.z.~.!.!.Q.!.Q.Q.Q.Q.Q.!.!.!./.|.uXiXA.M.~.%X$X$X5X).Y Y wXuXiXiXiXS.| 9.C C C C S D S C ",
"x C C B N C C C C Z t.%.>.%X@X$X@X#XX.&.6.Q.Q.Q.Q./.Q.Q.Q.Q.Q.Q.!./.Q.|.uXrXA.3.~.#X$X$X#XT.> ; 8XuXiXiXiXb.=.p.C v B C S D D C ",
"v t x 4 J S C C V J t.%.>.%X.X-X:X@X+.+.6.Q.!.Q.Q.!.Q.Q.Q.Q.Q.!.!.^./.&XuXiXA.$.~.#X@X$X%XY.> ; 7XyXiXiXdXd.| q.C B B v B C D D ",
"i V d e D S Z C J J t.%.>.%XXXpXdXrXc.4.Z.Q.!.Q.Q./.Q.Q.Q.Q.Q.!./.$X+X=XuXrXA.$.~.@X@X@X#XT.> ; 7XiXiXiXdXs., f C C B C S C D C ",
"s V V i D Z Z Z J J t.;.1.@XXXwXuXrXC.M.N.!.!.Q.Q.!.Q.Q.Q.Q.Q.!.!.$X$X=XuXrXZ.4.~.$X@X#X#XT.> ; 8XiXiXiXfXw.> f C C C D J J J x ",
"V V V y J J Z J J J G I / sXgXuXuXaXC.c.N.~.!.Q.Q.!.Q.Q.Q.Q.^.+X.X$X@X=XuXeX3.o.W.$X#X#X#XT.> ; ].XX&XXXoX' > 0 i N C B x p i C ",
"V V V x C J J J J J A > ~ hXiXuXuXrXv.M.N.~.!.!.Q.!.Q.Q.Q.Q.(.@X$X$X@X=XuXaX5.&.E.$X@X#X@XT.> > >X$X$X%XoX` 2 j J J J J C % V V ",
"V V v a v N J J J J m = T fXiXiXiXaX#.2.N.~.!.!.Q.!.Q.Q.^.^..X$X$X$X@X;XuXrXm.+.E.@X$X$X$XY.> < <X@X$X#X2X0.2 h C J J J J Z p V ",
"V V p C S J C i t x l - T gXiXiXiXaXO.o.6.~.!.Q.Q.!.Q.Q.@X$X@X$X$X%X@X=XyXrXZ.3.Q.@X#X@X$XT.> ; >X@X#XoX2X0.> h C J J J J J p V ",
"v p 4 a x v Z x % S n = T fXuXdXrXpXO.&.6.!.!./.Q.!.Q.Q.@X$X@X#X$X$X$X;XiXrXZ.4.~.$X@X@X@XT.> < >X@X%X#X2X0.2 h C J D D J J i V ",
"B J J J J C x O c F n ; T fXuX;X@X@XX.&.6.Q.!./.Q.!.Q.Q.+X$X@X@X$X%X#X=XuXrX3.o.E.#X@X$X#XT.> < >X@X%X@X2X0.2 h C Z Z Z D J & p ",
"S C C C C C S a B F n ; T dXuX;X@X_.%.&.6.!.!.Q.Q.!.Q.Q.@X$X$X+X$X%X@X=XyXrX5.&.E.@X@X@X#XT.> < >X@X%X#X2X0.2 h C C Z Z Z C x D ",
"C C C C C C C B k F n ; T fXiX;X@X%XJ.W.H.6.N.!.Q.^.(.(.+X$X$X%X@X;XwX&XK.K.E.W.(.@X@X@X#XT.> < >X@X#X#X2X0.2 h C C Z Z Z u J C ",
"C C D C C C C B t D n ; T dXiX;X@X%X@X$XW.&.=.!.K.(.@X@X+X@X@X%X@XiXiXOXo.O.(.+X$X@X@X@X#XT.> < >X@X#X#X2X0.> h C C C D x t D D ",
"J J J Z C C B B O S n = T fXiX;X$X%X#X$XW.,.1.E.!.(.@X@XXXXXXXXX&XpXpX{.=.*._.#X$X$X$X$X%XY.> ; R.$X$X$X#X^ 2 f C N x v C a L P ",
"P K J D C C B a . % b = _ fXiX;X@X#X#X#X#X%X_.=.=.{.dXdXrXrXrXiXpX .*.H.%X%X%X%X$X$X@X$X#XY.> ; <.M.M.$.m.U 2 f a i e a J J i J ",
"i B Z C v x t a B C l > T fXiX;X@X#X#X#X$X@X_.&.o.{.uXuXuXuXuXuXpXX.&.H.#X#X%X@X$X#X@X$X#XY.> $ <.4.M.4.3.U > f C S J L C a x D ",
"F A B B k & t B C C n 8 _ fXuX;X$X$X#X@X%X$X#XE.E.).{.{.{.{.{.{.^.E.E.).$X$X$X%X$X%X$X$X5XT.> : 1.2.2.2.7.U 2 M C S J J J t S F ",
"D S S D S k % B B C j > T fXiX;X$X$X@X@X$X%X#X@X%XE.&.&.&.&.&.&.>.%X@X@X$X$X$X@X%X@X@X@X#XT.> < { o.&.&.&.I > h C C D C t B L L ",
"D S D D B k 5 a C C j ; T fXiX;X$X%X@X@X@X#X#X%X%XE.=.>.>.>.>.=.5.%X@X$X$X@X@X$X%X#X#X#X#XT.> > { @.,.&.%.I > h B x u C K B F F ",
"D D D x S B k N a a 6 > T aXiX;X$X%X@X@X$X#X%X#X%X4X%X%X%X%X$X$X$X%X@X@X@X@X+X$X%X#X@X@X#XT.> > { o.&.o.&.I > 6 p a i v B t F D ",
"D D k t i 4 v C C C 6 8 ~ fXdX=X$X+X@X#X$X$X%X#X@X$X@X@X@X@X@X@X$X%X@X@X@X@X@X%X$XXX.X#X4XT.> < { :.,.&.-.Q 1 0 J C C D B a p A ",
"t k D C C C i B C C p k A w.s.1XpXpX@X%X%X%X$X$X@X$X$X$X$X$X%X$X%X$X%X%X%X%X%X$X-XeXpXs.[ [ | ) ! U U U U A S v C C C C C C S a ",
"B D C C C C C i B C v   O 9 > 1XgXaXXX@X@X#X#X#X@X$X$X$X%X$X@X@X#X#X#X#X#X@X$X+X9XaXfX~ ; U :.%.U > , > 1 N a D C C C C C C C p ",
"D C D D S C C B t x t v J j 0 F.8X*X-X-XoX$X$X$X%X$X%X$X$X$X#X#X#X5X#X%X#X#X-X-X;X*X*X' E E | | z f M 0 * % x C C B B C C C Z x ",
"Z Z J J J S C C x 4 J S S S S j > R fXiX=X$X@X%X@X$X%X%X$X%X%X#X5X#X@X$X$XXXaXuX`.; < <.4.1.< = F C C C y X C C C B C S S S v C ",
"Z J J J J S S C v B D S S S S l 2 w fXdXwX$X4X4X#X#XXXXXXXXXXXXX$X5X$X$X5XoXpXdXU.; < <.m. .= 9 J C C C v 5 B B B B C S S S i J ",
"D J J J J S S C p J C S C C C C C F w.w.0.^ ` ` ^ ].eXeXeXeXeXeX9X` 8.^ ^ ^ ' ' ^ > > U W z C C Z Z C V a o N B C C C C S N v Z ",
"D D J J D C C C t N C S C C D J J Z 9 > > > > > 2 U.iXiXiXiXuXuXtX7 > > ; > > > 7 > > > 2 j Z H H J D C x C N N C C C B a O C D ",
"D D J J J C C C a i C C C B C C D D m b A b b l 6 D.'.'.`.`.`.`.I.7 > > > > > > f g b n b c C C J J Z s J C C x 4 a x x v 4 x D ",
"C S J J C C C B a t e t a x v B N x t a C C B p F n ! ! < = ; ; 7 > > > > > > 3 l y y u p s N V B v t a C C B a D C C C C D a B ",
"t x t a B v p p s V V v y o . 4 k B D B x t o c S n 8.8.3 q q 9 9 q 9 9 q 9 1 1 c C C C a + . 5 a B D B x t o v C C C C C S C a ",
"x C S v % d V v v v V v v p @ B B C D Z C N o c S S S S D D D S k C C x % x C B B B C C B x @ B B C D Z C N X v C C C C S D S C "
};
