/* XPM */
static char *rcp22162116135057108[] = {
/* columns rows colors chars-per-pixel */
"64 64 241 2 ",
"   c #2C2722",
".  c #332D28",
"X  c #39332D",
"o  c #3D3831",
"O  c #7B3A1E",
"+  c #423B34",
"@  c #483D37",
"#  c #6E3D2C",
"$  c #6F3A22",
"%  c #753C24",
"&  c #7A3B25",
"*  c #743B2C",
"=  c #7A3B2B",
"-  c #783727",
";  c #6D3D34",
":  c #743D32",
">  c #783D32",
",  c #49433C",
"<  c #47433B",
"1  c #56433B",
"2  c #6F442B",
"3  c #784728",
"4  c #6C4A3D",
"5  c #68463A",
"6  c #74473A",
"7  c #7E5231",
"8  c #4F4A43",
"9  c #534C44",
"0  c #534F49",
"q  c #57514A",
"w  c #5B544C",
"e  c #5F584F",
"r  c #565047",
"t  c #5E5952",
"y  c #5B5751",
"u  c #644C44",
"i  c #6B4C42",
"p  c #734D42",
"a  c #65554B",
"s  c #6C544B",
"d  c #62594E",
"f  c #6A544A",
"g  c #73554C",
"h  c #785549",
"j  c #635C53",
"k  c #6C5D53",
"l  c #635F58",
"z  c #775F54",
"x  c #676056",
"c  c #6A6157",
"v  c #65615B",
"b  c #6C655B",
"n  c #6F685E",
"m  c #726357",
"M  c #71665D",
"N  c #72695E",
"B  c #7B6C5E",
"V  c #7B6458",
"C  c #7E705F",
"Z  c #6C6860",
"A  c #736B61",
"S  c #7A6E60",
"D  c #7C7164",
"F  c #7D7568",
"G  c #843D1F",
"H  c #853D2B",
"J  c #81481F",
"K  c #874829",
"L  c #9C4C2D",
"P  c #96492A",
"I  c #81512B",
"U  c #9C522B",
"Y  c #93552D",
"T  c #874932",
"R  c #9B4B34",
"E  c #974B38",
"W  c #885431",
"Q  c #965734",
"!  c #A04A2D",
"~  c #AC562E",
"^  c #AA5835",
"/  c #B45C36",
"(  c #B65D3A",
")  c #A84F30",
"_  c #966A3A",
"`  c #8F6039",
"'  c #A76438",
"]  c #B86838",
"[  c #B56C34",
"{  c #C5662D",
"}  c #CA652E",
"|  c #C4692C",
" . c #CA692E",
".. c #C06C26",
"X. c #D57E2D",
"o. c #D97D2E",
"O. c #C56533",
"+. c #CB6532",
"@. c #C46934",
"#. c #CA6A31",
"$. c #C3633A",
"%. c #CB6439",
"&. c #D06633",
"*. c #C87E34",
"=. c #CD793E",
"-. c #C97437",
";. c #D17637",
":. c #D67C32",
">. c #DA7E32",
",. c #D4743A",
"<. c #D57A3C",
"1. c #D9793D",
"2. c #CC712F",
"3. c #865A49",
"4. c #8D5D4B",
"5. c #9E6649",
"6. c #836E5D",
"7. c #896B5A",
"8. c #956E58",
"9. c #9B6E56",
"0. c #8D725D",
"q. c #8A7159",
"w. c #987459",
"e. c #876547",
"r. c #A26646",
"t. c #A76A48",
"y. c #B56A43",
"u. c #AC774B",
"i. c #B67449",
"p. c #A36D52",
"a. c #A57355",
"s. c #B37554",
"d. c #8A6F61",
"f. c #827263",
"g. c #8A7060",
"h. c #907D66",
"j. c #C2784C",
"k. c #D77D41",
"l. c #CE8329",
"z. c #D5822D",
"x. c #D9812D",
"c. c #CB8437",
"v. c #D48232",
"b. c #DA8435",
"n. c #D7893C",
"m. c #DC9239",
"M. c #9F895A",
"N. c #B6945C",
"B. c #B28651",
"V. c #9A856A",
"C. c #9E926F",
"Z. c #A88F69",
"A. c #C6844A",
"S. c #DC8344",
"D. c #DE8B46",
"F. c #DE8549",
"G. c #D68D46",
"H. c #DC994A",
"J. c #D99346",
"K. c #C88754",
"L. c #D68C56",
"P. c #C59856",
"I. c #D99555",
"U. c #C3994E",
"Y. c #E08643",
"T. c #E38C45",
"R. c #E48E4A",
"E. c #E6894B",
"W. c #E39346",
"Q. c #E49349",
"!. c #E4994B",
"~. c #EA9B4D",
"^. c #E99348",
"/. c #E48E51",
"(. c #EB9453",
"). c #EC9C52",
"_. c #E5995A",
"`. c #F39E5B",
"'. c #F09A56",
"]. c #F1994E",
"[. c #CDA657",
"{. c #DDAC5A",
"}. c #D7A75A",
"|. c #D0A34B",
" X c #E3A549",
".X c #E7B64D",
"XX c #F4BB4F",
"oX c #EDA254",
"OX c #E6AD53",
"+X c #EEAB54",
"@X c #EEA65C",
"#X c #EDAA5A",
"$X c #E3A75B",
"%X c #F3A556",
"&X c #F2A956",
"*X c #F3A65A",
"=X c #F9A55C",
"-X c #F3A95B",
";X c #F8A95C",
":X c #EDB254",
">X c #EDBA53",
",X c #EBB559",
"<X c #EDBB5B",
"1X c #E7BA5E",
"2X c #F3B356",
"3X c #F2BA55",
"4X c #F3B45A",
"5X c #F4BA5B",
"6X c #F9BE5D",
"7X c #C99664",
"8X c #DA9A63",
"9X c #E59962",
"0X c #EB9E63",
"qX c #E59760",
"wX c #CDA465",
"eX c #EBA362",
"rX c #E8A865",
"tX c #F3A662",
"yX c #F5AD61",
"uX c #E9B862",
"iX c #F5BC62",
"pX c #F4C556",
"aX c #F5C25B",
"sX c #F9C55D",
"dX c #F5CA5C",
"fX c #FACC5C",
"gX c #FCCD56",
"hX c #F6D557",
"jX c #FAD456",
"kX c #F6D45B",
"lX c #FBD25B",
"zX c #F8D85B",
"xX c #EDC667",
"cX c #F2C463",
"vX c #F3CB63",
"bX c #FCCC62",
"nX c #F7C768",
"mX c #F6D263",
"MX c #FCD161",
"NX c #F9D568",
"BX c #F2C474",
/* pixels */
"j b b c j v l l l v v v l q q x c c b n n b o N M k m M N N N N j b b c x b b b b M M b c e q x x x b N N b X A b l c b M N N b ",
"l 9 j , b v v l l b b v l t t v c c c b n b @ B V V V z V V 0.0.7.k V f d.6.6.6.6.g.f.N c l j x x x c b N b X A b b b l c M N N ",
"w b j , v v v v v b b b x x q c x c c c n j s E E E R E E R $.O.+.@.@.O.O.O.@.@.] @.a.A b b q x x c c c b j 9 l b b c b M b N b ",
"x N N q v v v v v b b Z b x q c b c c c b b B Q L L L L L L ] | | ..| +.%.+.+.+.{ | a.D A N w c b c c c b c b j b b b N A A A j ",
"N M A q b b v b b b b Z Z x j b N M g g s g N.<XaXcXcXcXcXiXaXaXdXpXiX] ) ( +.| #X5X$Xu.s.s.s.0.N b b c w b j 9 q x b c j w q N ",
"b b b l v b b b b b b b b q A b N m 2 = * * P.vXjXjXhXhXlXlXlXkXlXlXnX' R / %.| iXkX,X{ O.+.+.9.N b c j X w b A A A A A b + b b ",
"b b b w l l b b b b b b q 0 b A A h.P.P.U.U.{.iX6X6X6X6X6X6XaX6XaX5XiXG.K.F.E.E._.$X}. X X X XP.0.g.x o d b b b b A A A A n j b ",
"n b e b b A b 0 8 y t 8 . o l 4 * P.kXMXhXvX5X-X*X-X&X&X%X%X%X%X-X-X@X*X*X*X%X*X=.+.G.fXlXlXkX,X| ] m 0 b b b b b A A A A A w n ",
"b t 8 w j l M j + M B D B N N 3.Q P.dXfXgXfX5X-X*X*X*X*X*X*X*X%X*X-X*X*X*X*X*X-X<.&.G.cXdXaXdX,X*.*.6.M N N N b b A N N A A q b ",
"c A A A A b j X x C t.] Q 2 3 BXbX5X+X#X#X-X-X-X*X*X*X*X*X*X*X*X*X-X%X%X%X*X*X-X*X=XI.P U ] @.G.bXdXA.] y.] t.S b n N N N A @ w ",
"b b b b b b M w m f.y.] U = 3 BXMX5X-X*X*X*X*X*X*X*X*X*X*X*X*X*X*X*X*X*X%X-X*X-X*X-XI.L ! O.+.G.lXfXG.| O.O.$.f.b b N N n b j N ",
"b b b b b b b b s 0.{.OX{.[.[.<X3X2X-X*X*X*X*X*X*X*X*X*X*X*X*X*X-X*X*X*X*X*X*X-X*X*X_.L.L.Q.R.I.P.P.}.OXOXOX$XM.w.g.N N n r A b ",
"b b N b b b b m : ` vXzXmXzXbX+X*X*X*X*X*X*X-X*X*X*X*X*X*X*X*X*X*X-X-X-X*X*X*X-X-X-X*X-X-X@X-XI.L E uXhXlXgXbXc.{ p.n N j 9 A N ",
"A A A N b N N 6.W _ nXbXMXlXbXyX*X*X*X-X-X-X-X-X*X*X*X*X*X*X*X*X*X*X*X-X*X-X-X-X-X-X-X&X&X-X-XI./ ^ rXfXdXlXMXn.-.u.M b b e D F ",
"F D A N b s 5 wXNXnX:X-X-X&X&X-X-X*X-X-X*X*X-X*X*X;.+.+.+.#.+.| S.*X-X-X-X-X-X*X*X-X-X-X-X*X-X*XtXtXk.| c.bXlXlXfXuX] y.f.A q A ",
"q c N b b 6 % [.hXgX#X*X*X*X-X-X*X*X*X*X*X*X*X*X=X#.} } } +.+.+.S.*X*X*X*X-X*X*X*X*X*X*X*X*X*X-X%X=Xk.%.A.lXzXlXlX<X+.@.6.e j N ",
"M x l l l r.^ OXlXgX-X*X*X*X*X*X*X*X*X*X<.<.<.<.<.Y.Y.Y.Y.Y.Y.Y.S.<.<.<.<.R.*X*X*X*X*X*X*X*X*X*X%X-X] P [ MXzXjXlX1X~ ^ f.0 c A ",
"b c c b A y.| OXzXgX&X*X*X*X*X*X*X%X%X`.{ } &.+.} T.Q.W.Q.^.^.^.Y.} &.+.} E.=X*X*X*X*X*X*X*X*X*X%X@Xr.% _ NXlXlXlXuXL U a x A A ",
"b c c b N K.G.:XbXaX&X*X*X*X*X*X*X).(.(.,.,.,.,.;.D.W.W.Q.^.^.^.Y.,.,.,.,.S.(.(.*X*X*X*X*X*X*X*X*X@XK.B.B.uX,XfXlXcXA.B.V.V A b ",
"b b s ; 7 nXbX3X-X%X*X*X*X*X*X*X*XY.}  .^.Q.W.^.W.Q.W.W.Q.Q.Q.^.Q.Q.Q.^.Q.S.} } `.*X*X*X*X*X*X-X*X*XdXmXuX| | aXlXMXNXMXH.$.9.b ",
"b b i - I vXlX5X*X*X*X%X*X*X*X*X=XY.{ | ^.W.W.Q.W.W.W.W.Q.Q.Q.Q.Q.W.Q.Q.Q.S.} } `.*X*X&X*X*X%X*X*X#XdXkX<X| } iXMXMXMXfXH.} r.c ",
"9 w 8.( ] vXlX5X-X*X*X*X-X*X*XS.k.S.F.D.^.Q.Q.Q.Q.Q.Q.Q.Q.Q.Q.Q.~.oX%X%X%X'.(.'.S.k.D.*X*X*X*X-X-X*X4X3XoX} +.-X5X5X5X2XD.#.p.w ",
"c N 8.O.2.fXlX5X*X*X*X*X-X*X`.#.} 1.Q.Q.^.Q.Q.W.W.W.W.Q.W.Q.Q.Q.~.*X*X*X*X*X*X=X-.#.<.*X*X*X*X-X*X*X*X*X'.} +.'.-X*X=X%XF.+.p.w ",
"N b w.@.-.fXlX5X-X-X-X-X).(.(.1.1.D.Q.Q.Q.Q.Q.Q.Q.Q.Q.~.~.~.~.).oX*X*X*X*X-X*X-XH.J.J.(.(.*X*X-X-X*X-X-X'.+.+.`.;X=X=X&XD.#.p.j ",
"n n w.O.-.gXlX5X-X*X&X*XY.+. .R.W.W.Q.Q.^.W.W.Q.W.W.Q.).*X*X*X*X-X*X*X*X*X-X*X+XfXlX2X| } '.*X*X*X*X*X-X).} +.).*X*X*X&XF.+.p.b ",
"n A 8.+.2.gXlX5X*X*X*X*XY.+. .Q.W.W.Q.Q.W.W.W.Q.W.Q.Q.).*X*X*X*X*X*X*X*X*X*X*X&XcXlX4X| } `.*X*X*X*X*X*X).+.+.oX&X&X#X+XS.+.5.A ",
"N A 8.+.-.fXlX5X-X*X*X*XF.+. .R.W.Q.Q.Q.W.^.W.Q.Q.%X*X*X*X*X*X*X*X*X*X*X*X-X-X-X+X:X X:.:.%X*X*X*X*X*X*X).} { 5XbXbXbXbXQ.} 5.n ",
"N N 8.O.2.gXlX5X-X*X*X*XF.+. .Q.W.Q.Q.Q.W.W.W.Q.Q.*X*X*X*X*X*X*X*X*X*X*X*X-X=X*X*X%X~.>.X.oX*X-X*X*X*X*X).} { 5XlXlXlXlXH.} p.N ",
"N N 7.^ ' dXlX5X-X*X*X*XF.+. .Q.W.Q.Q.Q.Q.Q.!.).).*X*X*X*X*X*X*X-X*X*X*X*X*X*X*X*X*X].>.X.%X*X-X*X=X*X*X).+.} 5XlXlXlXlX!.+.5.N ",
"b M g = W vXjX5X-X*X*X*XF.}  .Q.W.Q.Q.Q.W.Q.).*X*X*X*X*X*X*X*X*X*X*X*X*X*X*X*X*X*X%X~.>.X.%X*X*X*X*X*X*X).+.{ 6XlXlXMXfXH.} 5.b ",
"0 j u > I vXlX5X-X*X-X*XF.+.#.Q.W.W.Q.Q.Q.Q.).*X*X*X-X-X*X*X*X*X-X*X-X-X*X-X*X-X#X+X~.b.>.%X*X-X-X;X&X+X).O.| 6XlXfXMXlXH.#.p.w ",
"j b s > I vXMX5X-X*X-X*XF.+. .Q.W.Q.Q.Q.*X*X*X*X*X*X-X-X*X*X*X*X-X*X-X-X-X-X-X-XcXgX2Xb.X.%X*X-X-X*XcXvX<X{ } 6XlXlXlXlX!.+.p.b ",
"j b s : I vXMX5X-X*X*X*XF.+.#.R.W.W.Q.Q.*X*X*X*X*X*X*X*X*X*X*X*X-X*X*X*X*X-X-X#XfXhX3Xz.X.%X*X%X-X&XaXlX>X] { iXlXMXlXgXH.O.p.b ",
"l 9 u * I vXMX5X-X*X*X*XF.+. .R.W.!.oX).*X*X*X*X*X*X*X*X*X*X*X*X-X*X*X*X*X*X*X&XsXlXXXz.>.%X*X-XaXaXgXhX<X~ ~ @X5X5X5X<XA.U 4.A ",
"q v u * I vXMX5X-X*X*X*XF.+. .R.^.).*X*X*X*X*X*X*X*X*X*X*X*X*X*X*X*X*X*X*X&X*X&XsXlXXXx.>.%X*X4XkXlXlXhX1XP ! _.*X*X-X#Xu.% g b ",
"t v s * I vXlX5X-X*X*X*XF.+. .Q.^.).*X*X*X*X*X*X*X*X*X*X*X*X*X*X*X*X*X*X*X&X&X&XfXhX3X:.:.&X2X5XlXjXsXsXuXT P qX*X*X*X@Xi.& h j ",
"v v s * I vXlX5X-X%X*X*XF.+. .Q.^.).*X*X*X*X*X*X*X*X*X*X*X*X*X*X*X*X*X*X*X-X%X+XfXhX:X} | 6XfXlXlXjX2X#XI.- O 8X-X-X&XoXj.R h b ",
"v v u * I vXlX5X-X*X*X*XF.+. .R.W.).*X*X*X*X*X*X*X*X*X*X*X*X*X*X*X*X*X*X*X*X*X#XfXhX:X} | aXlXlXlXlX4X*XI.- O 8X-X*X*X*Xj.R 4.v ",
"v v f * 7 xXlX5X-X*X-X*XF.+. .^.W.oX-X-X-X-X*X*X*X*X*X*X*X*X*X*X-X*X-X-X*X-X-X#XfXkX,X#.@.aXlXfX4X5X-X*X_.E K 9XtX-X*X-Xi.H p v ",
"v v u * I vXlX5X-X%X-X*XF.+. .R.Q.~.*X*X*X*X-X*X*X*X*X*X*X*X*X*X-X*X*X*X*X-X-X#XfXkX:X| | aXlXvX@X&X*X*X_.R L qX*X-X%X@Xi.= u v ",
"l q 1 * I vXlX5X-X%X*X*XD.;.;.T.T.~.%X*X*X*X-X*X*X*X*X*X*X*X*X*X-X*X*X*X*X&X:X:X5X3X+Xc.c.5XfXcX-X*X*X*X_.R L _.-X-X%X@Xi.H p v ",
"c A g * I vXlX3X-X*X*X*X*X=X=Xb.X.Q.%X*X*X*X*X*X*X*X*X*X*X*X*X-X-X*X-X*X-X5XlXbX*.| n.mXfX:X#X#X*X*X*X*X_.R L qX-X*X*X@Xj.R h w ",
"b b s * I cXfX3X-X*X*X*X*X*X*Xb.X.^.%X*X*X*X*X*X*X*X*X*X*X*X*X=X*X%X%X%X&X5XbXbX*.| n.bXfX+X*X-X*X*X*X*XI.R L 9X-X*X*X-Xj.E 3.N ",
"b b s * K #X&X&X%X*X*X*X*X*X*X%X%XW.b.n.*X*X*X*X*X*X*X*X*X*X*X-X4XfXfXfXfXOX*.*.4X5X5X2X2X-X*X-X*X%X6XsXrXR L 9X-X*X*X@Xi.= h M ",
"b b s # T eXtX-X%X*X*X*X*X*X*X*X*XW.x.v.%X*X*X*X*X*X*X*X*X*X*X&X3XlXlXlXlXOX{ | aXzXfX%X*X*X-X-X*X&XsXlXuXL ! 9X-X*X*XeXu.# g N ",
"A A M g z K.L._.*X-X-X*X-X*X-X-X*X~.W.W.~.!.!.~.~.4X5X5X5X5X5X5X>X>X.X.X>XOXH.H.5XdX6X;X-X*X*X*X*X@X{.}.P.~ ~ L.(./.L.K.q.u V F ",
"F S A N b 6 - K.*X*X-X*X*X*X*X*X*X%X%X%X:.:.:.>.z.dXkXkXlXlXlXlX>Xz.x.o.v. XlXlX:X#X*X*X*X*X*X*X*X@Xr.* P +.+.%.+.( = * M A q A ",
"q c n b x 6 - K.#X&X-X*X*X*X-X-X*X*X*X*Xv.X.X.X.l.sXlXgXgXlXlXlX>Xl.x.x.v. XlXlX2X*X*X*X*X*X-X-X*X-Xr.: K +.} +.+.( & > c e j N ",
"B m c c d 6 - [.sXaX&X*X*X-X-X-X*X*X*X*X).%X%X%X%Xm.m.m.m.m.m.m. XdXpXpXpX3X4X4X&X-X*X*X*X*X-XtX*X@Xr.> Q /.T.R.T.K.= : N 0 M B ",
"N M M N N 4 # [.kXfX+X%X-X-X*X*X*X*X*X*X*X*X*X*X*Xb.x.>.>.>.>.o. XlXlXlXlXaX*X*X-X-X*X*X*X-X-X*X*XeXr.* Y Q.W.Q.H.K.$ : 9 c D D ",
"N M N N c a 1 M.U.|.5X5X-X-X*X*X*X*X*X*X*X*X%X%X-XQ.W.W.W.J. X X.XlXlXpX5X4X%X&X%X*X*X*X-X-X-X_.A.K.r.R ~ n.b.-.i.a.u k S k B B ",
"N N N j M b d k : ` nXfX3X-X*X*X*X*X*X*X*X*X%X*X-X%X*X*X*X#XbXlXlXlXlX:X*X*X*X*X*X*X*X%X-XtX-XL.% = / %.%.+.%.P * u q l c 0 N N ",
"N N d 0 q < l M p e.BXcXuXeXeX&X#X-X-X*X#X-X*X-X-X%X=X-X&X&XgXhXlXfXbX2X*X*X=X*X-X*XeX@X0X0X0XL.3 K / $.$.O.$.T 4 s b N c w w m ",
"9 d N b b b q b b N 2 % % & J nXbX6X*X*X*X-X-X*X-X-X-X5XMXbXMXlXsX+X+X-XtXtX-X*X&X&XL.= & O % Q c.A.Q & & & = m b b b b b b M w ",
"c N b b b b b q c N 6 : * * 3 nXmX5X+X*XtX-X-X*X#XrXtX5XdXmXlXlXnX-X*X-X-XtX-X*X-X@XL.& - % % Q >.<.Q : : * : A b b b b b b b w ",
"N b N N b b b b 9 j w j c c m N.N.{.aX6X#X-X*X*X}.V.h.V.V.C.uX3X5X-X-X-X-X*X*XtXK.s.i.[ [ ] ] ' ' ' V a @ 1 a b b b b b b b n j ",
"n n A N A M b b j < A M M M A i * P.kXbX&X%X-X-XwXA b M M A 7X%X-X*X*X*X*X*X%XeXQ * U :.v.o.:.] = 2 c b 0 . b b b b b M M M l b ",
"n A A A A M M b l c N M M M A f 4 N.xXxXeXeX8X7XZ.M b b M A 7X-X-X-X-X$X9X0X0XrXQ G U k.=.=.=.y.5 4 b b l < c c c b b M M M q A ",
"N A A A A M M b w A b M b b N A A m 3 % - % k b b b b b M c 7X*X*X%X@XY % & & O ( j.^ O & & & g n n b b e . x c b b b b M x l n ",
"N N A A N b b b 0 x b M b b N A A m 2 : # # d x b b b c d o 7XtXtX-XrXW * * # % ] %./ * # ; ; k n A N b j b x x b b b c w X b N ",
"N N A A A b b b e q b b b b b b N A A k A M m f u g h g s u 4.' ' 5.5.3 - = * * K P 3.b b M N M N A n t A b b j , w j j l , j N ",
"b M A A b b b c w 0 8 0 w j l c c j 0 w b b a 6 % E R T * * * * > - = * * : * * - = i 0 w t x v c j 0 w b b c w N b b b b N w b ",
"0 j 0 w c l w q t v x l 0 .   < d c N c j 0 X i p 3.3.h p p i 5 5 5 5 5 i i 5 5 i i k b w .   < e c N c j 0 . l b b b b b M b w ",
"j b M l + e v l l l v l l w o c c b N n b x . k M m m M N N N N j b M l + j n b c c b b c j o c c b N n b x . l b b b b M N M b "
};
