/* XPM */
static char *rcp51644040135038784[] = {
/* columns rows colors chars-per-pixel */
"64 64 244 2 ",
"   c #2B2621",
".  c #332E29",
"X  c #312C27",
"o  c #39332D",
"O  c #3E3832",
"+  c #763A1C",
"@  c #433C35",
"#  c #553B34",
"$  c #6F3D29",
"%  c #743B25",
"&  c #7B3C25",
"*  c #743B2C",
"=  c #7B3B2A",
"-  c #7B3525",
";  c #6A3E35",
":  c #753D31",
">  c #7A3F33",
",  c #4A443C",
"<  c #47433B",
"1  c #5D483D",
"2  c #78422A",
"3  c #6C4235",
"4  c #6C453B",
"5  c #69473A",
"6  c #714435",
"7  c #71463A",
"8  c #784434",
"9  c #774D32",
"0  c #4F4A43",
"q  c #544D44",
"w  c #534F49",
"e  c #565149",
"r  c #5B544C",
"t  c #5F584F",
"y  c #575047",
"u  c #5E5952",
"i  c #5B5751",
"p  c #6E4D42",
"a  c #674641",
"s  c #60584E",
"d  c #68554B",
"f  c #745445",
"g  c #75564A",
"h  c #635C53",
"j  c #6C5B53",
"k  c #635F58",
"l  c #745D54",
"z  c #795F58",
"x  c #714741",
"c  c #676056",
"v  c #6A6156",
"b  c #65625B",
"n  c #6C655C",
"m  c #6F685E",
"M  c #726356",
"N  c #71665C",
"B  c #7B645A",
"V  c #72695E",
"C  c #796C5E",
"Z  c #7A6457",
"A  c #776C56",
"S  c #6C6860",
"D  c #746B61",
"F  c #7A6E62",
"G  c #7C7163",
"H  c #7D7568",
"J  c #833F25",
"K  c #81411C",
"L  c #834126",
"P  c #894B29",
"I  c #974C2A",
"U  c #94522C",
"Y  c #9C522B",
"T  c #854932",
"R  c #9B4C34",
"E  c #9D4C3A",
"W  c #954835",
"Q  c #88533A",
"!  c #9B5232",
"~  c #965936",
"^  c #87562B",
"/  c #A7572D",
"(  c #A34B36",
")  c #A55534",
"_  c #A3563A",
"`  c #A65A39",
"'  c #B75833",
"]  c #AE562D",
"[  c #986837",
"{  c #BD662D",
"}  c #A76939",
"|  c #B3693D",
" . c #BA6837",
".. c #BC7337",
"X. c #AE753A",
"o. c #C5652D",
"O. c #CA642E",
"+. c #C56B2E",
"@. c #CA6B2E",
"#. c #D67E2E",
"$. c #C66434",
"%. c #CB6532",
"&. c #C56B33",
"*. c #CB6B32",
"=. c #C76839",
"-. c #D16E33",
";. c #D16735",
":. c #CC7233",
">. c #C9783A",
",. c #D67E32",
"<. c #D47D3C",
"1. c #D87D3E",
"2. c #D47636",
"3. c #C8782C",
"4. c #8A5945",
"5. c #885A51",
"6. c #AA5A40",
"7. c #846859",
"8. c #9F6E5B",
"9. c #926B57",
"0. c #98745D",
"q. c #976A47",
"w. c #A96744",
"e. c #B36942",
"r. c #B56946",
"t. c #AE7345",
"y. c #A9764D",
"u. c #B17346",
"i. c #B27449",
"p. c #BC7B4A",
"a. c #A27459",
"s. c #B77652",
"d. c #827563",
"f. c #8C7A64",
"g. c #917E64",
"h. c #967664",
"j. c #A17161",
"k. c #C17D4B",
"l. c #C67B46",
"z. c #D77D42",
"x. c #AF803E",
"c. c #CE822D",
"v. c #D3812D",
"b. c #D9812E",
"n. c #CA863B",
"m. c #D48234",
"M. c #DA8334",
"N. c #D38A32",
"B. c #DB8C3A",
"V. c #D69035",
"C. c #D69238",
"Z. c #DC973A",
"A. c #B4884B",
"S. c #A98058",
"D. c #B58A5E",
"F. c #BC925C",
"G. c #AF8041",
"H. c #988468",
"J. c #8A8064",
"K. c #A98969",
"L. c #B4976C",
"P. c #A8956F",
"I. c #BAAB72",
"U. c #C4814F",
"Y. c #CD884E",
"T. c #DD8445",
"R. c #DC8C44",
"E. c #D88649",
"W. c #DE9345",
"Q. c #DB9947",
"!. c #CD8854",
"~. c #D28E5B",
"^. c #D48752",
"/. c #CC9756",
"(. c #D4915B",
"). c #D89859",
"_. c #CE9247",
"`. c #E28C45",
"'. c #E58C4A",
"]. c #E28746",
"[. c #E39346",
"{. c #E49449",
"}. c #EA934A",
"|. c #E6984C",
" X c #EB9D4D",
".X c #E99446",
"XX c #F19C4E",
"oX c #EB9652",
"OX c #EC9D52",
"+X c #E39958",
"@X c #F59E5A",
"#X c #F09D53",
"$X c #E1A44C",
"%X c #E7A94C",
"&X c #EDA254",
"*X c #EDAB55",
"=X c #EDA65C",
"-X c #EDA95B",
";X c #E4A756",
":X c #F3A556",
">X c #F2A956",
",X c #F3A65B",
"<X c #F8A45C",
"1X c #F3A95B",
"2X c #EBB756",
"3X c #F2B454",
"4X c #F2BC54",
"5X c #F4B55B",
"6X c #F6BD5D",
"7X c #F8BE5D",
"8X c #F9B55C",
"9X c #F0AE4D",
"0X c #D28C60",
"qX c #C89A69",
"wX c #D99866",
"eX c #EA9E60",
"rX c #DAA665",
"tX c #CCA16B",
"yX c #EDA463",
"uX c #ECA666",
"iX c #F3A562",
"pX c #F3AA62",
"aX c #F4A36E",
"sX c #E9B763",
"dX c #F5BD60",
"fX c #D6A455",
"gX c #EEC35B",
"hX c #F3C45C",
"jX c #FAC55C",
"kX c #F6CC5B",
"lX c #FBCC5C",
"zX c #F7C456",
"xX c #FCD457",
"cX c #F6D35A",
"vX c #FCD35B",
"bX c #F5D658",
"nX c #EEC763",
"mX c #F3C463",
"MX c #FAC561",
"NX c #FBCB62",
"BX c #F9CB68",
"VX c #FBD261",
"CX c #F4D261",
"ZX c #F2C172",
/* pixels */
"h n n v h b k k k b b b k e e c c c n m m n O C N k M N N C C N s n n c c n n n n N N n v t e c c c n m m n o D n k v n N V V n ",
"k q h , n b b k k n n b k u u c c c v n m n 1 8.j.8.a.8.8.a.a.a.8.9.9.f 7.7.7.7.7.7.B N v c h c c c v n m n o D n n n k v N V V ",
"r n h , b b b b b n n n b b y c c v v v n k q.&.;.%.%.=.=.%.=.;.;.%.=.) E E E E _ E 5.D m n r c c v v v n h q k n n v n N n V n ",
"c V V e b b b b b n n S n b e v n n n n D D y.{ @.%.%.=.$.o.+.&.&.+. ./ Y Y Y ) ) Y 4.F D m r n n v v v n v n h n n n V D D D h ",
"V N D e n n b n n n n S S k h n V h.r.r.r.i.sXhX3X@.%.' ( | mXhXhXhXhXhXhXhXhXhXhXhXrXf f p p M V n n v t n h q y c n v h r y V ",
"n n n k b n n n n n n n n e D n V a.=.%.$.+.dXbXMX*.=.' R } BXvXvXvXvXvXvXvXbXvXvXvXsX* % * $ d V n v h o r n D D D D D n @ n n ",
"n n n t k k n n n n n n e w D h.0./.$X$X$X$X$X$X$X$X$XQ./.fXmX7X7X7X7X7X7X7X7X7X7X7X-Xp.p.p.p.a.M M v O s n n n n D D D D m h n ",
"m n t n n D n w 0 i u 0 X O n  .o.2XcXbXcXkXn.$.3.kXcXvXVXNX*X,X1X1X1X,X,X1X1X1X1X1X:X,X,X,X>X0X$ ; c w n n n n n D D D D D t m ",
"n u 0 t h k V h @ N G d.G F g...3.2XmXhX4XhX_.:.m.jXkXkXkXjX>X,X,X,X,X,X,X>X>X>X>X,X,X,X,X,X,X(.P T C n D D D n n D V V D D y n ",
"v D D D D n h o c f.tXrXu.| n.BXBXn.+.{ Y Y sXkXMX*X*X*X*X>X,X,X,X,X,X,X,X,X,X,X,X,X,X:X,X,X,X1XyXaXQ ; 6 3 4 N n m m m V D @ t ",
"n n n n N n N t M H.rX+X=.=.n.CXcXn.@.{ R ! dXbXNX*X,X,X,X,X,X,X,X,X,X,X,X,X1X>X>X,X,X,X,X,X,X>X>XiX~ * = % : M n n m m m n h V ",
"n n n n n n V H.L.P.g.g.f.7.H.2X4X2X3X2X;X-X3X3X5X>X,X,X,X1X,X,X,X,X,X,X,X,X>X>X>X,X,X,X,X,X,X1X,X,X(.~.~.~.~.0.d v m m m y D n ",
"n n V n n n n qX-XK.C C C C d.=X>XjXcXbXxXxX3X,X,X,X,X,X,X,X1X,X,X,X,X,X,X,X,X,X,X,X,X,X,X,X,X,X,X:X,X,X,X,XiXs.* g V V h q D V ",
"D D D V n D D K.F.H.C C G d.H.-X>XjXNXNXlXlX5X,X>X,X,X,X,X1X1X,X,X,X,X,X,X<X,X,X,X,X,X,X,X,X,X,X,X,X,X,X,X,X1Xp.L g k k n t G H ",
"H F D V F i.i.n   @ v F qXrXsXlXlX3X>X>X>X>X>X,X,X,X,X,X,X1X,X,XT.*.*.*.*.;.*.:.<X,X,X,X,X,X,X,X,X,X,X,X,X,X1X=XOX0X7 p n D y D ",
"y v V n 7. .| h k k r s qX,X3XvXVX5X<X:X1X,X,X,X,X,X,X,X,X,X,X,Xz.o.%.%.O.%.%.*.<X,X,X,X,X,X,X,X,X,X,X:X,X,X,X>X:X).& : j s h V ",
"N c c c v 6.` L.I.I.I.L.q.t.A.6X5X>X1X,X>X,X,X,X>X>X1XoXT.T.T.T.T.T.T.T.T.T.T.T.].T.].T.T.,X1X1X,X,X,X,X,X,XiX1X>X+X2 > N w v D ",
"n v v n N R Y gXbXCXcXgX9 > ~ iX,X,X,X,X,X,X,X,X,X>X,XT.%.;.%.O.T.{.W.[.{.[.[.'.*.%.;.%.o.oX,X1X,X,X,X,X,X,X,X,X,X+X% ; q c D D ",
"n v D F 7.t.X.mXbXkXgX2X[ [ X.,X<X,X,X,X,X,X,X,X,XOXoXT.2.-.-.*.].[.[.[.[.[.[.{.2.-.-.-.@.}.XX:X,X,X,X,X,X,X,X,X,X+XU Q C n D n ",
"n V w.=./.BXVXvXvX%Xo.&.mXCXMX*X,X,X,X,X,X,X,X,X@X+.o.T.{.{.{.{.{.[.[.[.[.[.[.{.{.{.{.}.}.M.,.`.,X,X,X,X,X,X,X1X,X,XpXuXy.; 4 V ",
"n V w.%.Q.VXvXvXvX%X@.*.hXbXNX,X>X,X,X,X,X,X,X<X@X*.O.<.{.[.[.[.[.[.{.[.[.[.[.{.{.Q.W.[.[.M.#.`.,X,X>X,X,X,X>X1X,X>X>X-Xt.: ; n ",
"q h e.*.R.6X7X6X5X|.*.:.hXcXNX>X>X,X,X,X,X,X}.'.'.z.1.R.{.{.{.{.[.[.[.[.[.[.{.{.OXOXOXOXOX{.{..X.X}.:X,X,X1X1X1X,X1X,X=Xt.8 7 h ",
"v D e.=.T.,X,X,X,X'.%.:.hXcXNX,X,X,X,X,X,X,X:.O.*.'.{.[.[.[.[.[.[.[.[.[.[.[.[.[.,X,X,X,X,X,X,XXX#.#.:X,X,X,X1X1X,X1X,X=Xt.: 3 s ",
"V D e.%.T.1X1X1X>X{.*.:.hXbXNX,X,X,X,X,X,X@X<.*.2.{.[.[.[.{.{.[.{.[.{.{.[.{.{.|.,X,X,X,X,X,X,X&XV.V.&X:X:X,X1X1X1X1X,X1Xi.8 7 k ",
"m D | =.T.>X1X>X,X{.%.:.hXbXNX,X,X>X,XoX@.*.'.'.{.{.[.[.[.{.[.[.[.[.[.[.[. X,X,X1X,X,X,X,X,X,X5XlXlXC.M.M.:X,X1X,X,X,X=Xt.> 3 V ",
"m F | %.E.>X>X>X>X}.%.*.hXbXNX,X>X>X,XoXO.O.'.[.{.[.[.[.[.{.[.[.[.[.[.[.[. X:X,X,X,X,X,X,X,X,X5XcXvXV.#.M.:X,X1X,X,X,X=Xu.* 3 F ",
"V F e.%.W.MXjXMXjX$X%.@.mXbXlX-X>X,X,XoX%.O.'.[.{.[.[.[.[.{.[.[.OX:X:X:X:X:X,X,X,X,X,X,X,X,X,X5XlXvXV.b.M.:X,X1X,X>X,X,Xu.* 3 D ",
"V D e.*.Q.vXvXvXvX%X@.*.mXcXlX:X>X,X,XoX%.O.'.[.{.[.[.[.[.[.[.[.&X,X,X,X,X,X,X,X,X,X,X,X,X,X,X8XvXvXV.b.M.:X,X,X,X>X,X,Xu.* 7 D ",
"D F e.*.Q.vXxXvXvX%XO.-.mXvXlX:X>X,X,XoX%.O.'.[.{.[.[.[.[.[.|.|.&X,X,X,X,X,X,X,X,X,X,X,X,X,X,X8XvXvXC.b.M.:X,X,X,X1X,X,Xu.* 3 D ",
"n D e.*.Q.vXxXvXvX%X%.-.mXcXNX:X>X,X,XoX%.O.'.[.{.[.[.{.[.|.,X,X,X,X,X,X,X,X,X,X,X,X,X,X,X,X,X8XvXvXC.b.M.:X,X,X,X1X,X,Xu.* 3 n ",
"w c | *.Q.vXxXbXvX%X%.:.mXcXNX:X>X,X,XoX%.O.'.[.{.[.[.{.[.|.,X,X,X,X,X,X,X,X,X,X,X,X,X,X,X,X,X5XvXvXC.b.M.:X,X,X,X1X,X-Xt.* 3 h ",
"h D r.*.Q.vXvXbXbX%X*.:.hXVXNX>X>X,X,XoX%.*.'.{.{.{.{.{.[.|.1X,X1X1X1X1X1X1X1X1X1X1X>X>X>X1X1X5XbXbXC.M.M.>XiXiX>X3XhXhXA.8 x V ",
"h D r.%.Q.vXvXvXvX%X&.:.hXvXNX,X,X,X,XoX%.o.`.[.[.[.[.[.[.{.,X,X1X1X1X1X1X1X1X1X1X1X1X1X1X>X,X5XvXvXC.b.M.:X,X,X>X3XlXlXA.* 4 D ",
"k y w. ._.lXkXlXlX$X .&.hXcXlX,X,X,X,XoX%.%.'.[.[.[.[.[.|.|.,X,X,X,X,X,X,X,X,X,X,X,X,X,X,X,X,X5XvXvXC.b.M.:X,X1X3X4XvXvXA.* 4 D ",
"y n 3 = i.,X,X,X,X^.( ] nXcXlX,X,X,X,XoX%.%.'.[.[.[.[.&X,X>X1X,X,X,X,X,X,X,X,X,X,X,X,X,X,X,X,X8XvXvXC.b.M.:X*XjXVXvXcXcXA.* 4 V ",
"u S 6 = u.,X,X,X,XY.E ) nXcXlX,X,X,X,XoX%.%.'.[.[.[.[.#X,X,X,X,X,X,X,X,X,X,X,X,X,X,X,X,X,X,X,X8XvXvXV.M.M.:X*XhXvXxXvXlXA.* 7 k ",
"b n 4.W k.,X:X,X,XU.= P nXcXNX>X>X,X,XoX%.O.'.[.[.{.[.OX,X,X,X,X,X,X,X,X,X,X,X,X,X,X,X,X,X,X,X8XvXvXV.b.N.jXlXvXxXlX3X>Xt.* 3 n ",
"b n 4.( l.,X,X,X,XU.% P nXbXNX:X>X,X,XoX%.O.'.[.[.{.[.OX,X,X,X,X,X,X,X,X,X,X,X,X,X,X,X,X,X,X,X8XvXvXV.b.N.lXxXvXvXjX*X,Xi.: 3 n ",
"b n 4.W k.,X,X,X,X!.T U nXbXNX:X,X,X,XoX%.%.'.[.[.{.[.OX,X,X,X,X,X,X,X,X,X>X,X1X1X,X,X,X,X,X,X5XcXvXC.b.N.lXxXlXzX7X,X,Xi.> 3 n ",
"b n 3 * i.,X,X,X,XY.R _ mXbXNX*X,X,X,XoXO.O.'.[.{.[.[.OX,X,X1X,X,X,X,X,X,X,X,X,X,X,X,X,X,X,X>X5XcXvXC.b.N.lXvX6X>X>X,X,Xu.: 3 n ",
"k u 3 * i.,X>X1X,X^.R ) mXcXNX,X,X,X,XoXo.o.'.[.{.[.[.OX,X1X1X1X1X1X,X,X,X,X,X,X,X,X,X,X,X:X*X3XvXcXC.b.N.NXvX6X>X1X>X,Xt.: 3 n ",
"v F 4.E k.1X>X1X,X^.E ` mXbXNX,X,X,X,X:X|.}.<.2.<.{.[.&X1X1X1X1X1X1X1X1X,X,X,X,X1X,X>X,X:X6XlX4XZ.Z. X X&X5X5X1X>X1X1X,Xi.8 3 u ",
"n D 4.E l.,X,X,X,X^.R _ mXbXNX,X,X,X,X,X,X:X:.%.*.[.[. X,X>X,X,X,X,X,X,X,X,X,X1X1X,X,X,X*XlXcX4Xc.v.:X,X>X,X,X1X,X,X,X,Xi.: 3 D ",
"n N Q W p.,X,X,X,X^.R _ mXxXNX,X,X,X,X,X,X,XE.z.1.T.T.}.:X&X,X,X,X,X,X,X,X,X,X>X5X3X3X3X3X4X4X%XB.R.:X,X,X,X,X,X,XiX,X,Xi.* 3 D ",
"n V 3 * u.,X,XiX,X^.R ) mXcXNX,X,X,X,X,X,X,X,X,X@X*.o.1.{.|.,X,X,X,X,X,X,X,X,X*XNXvXcXcXlXZ.v.[.:X,X1X1X,X,X,X,X,XiX,X,Xt.6 3 D ",
"D D p 4 y.yXyXiX,XE.Y ) ZXBXBX,X,X,X,X,X,X,X>X,X:X*.*.1.[.|.,X:X:X:X>X>X>X>X>X*XNXvXvXxXlXZ.,.[.:X,X,X,X,X,X,X1X,XiXiXyXy.4 p H ",
"H F D D Z P P =.-.*.$.$.U ^ } 1X,X,X1X1X,X1X1X>X,X,X,X}.M.M.M.M.3XNXlXNXNXNXNXlXC.V.V.N.N. X:X,X>X,X1X1X1X1X,XpX>X+XP P Z D r D ",
"y v m n j * =  .%.%.%.$.J % ~ iXiX,X,X,X,X,X1X,X,X,X,X[.m.#.m.v.3XvXcXvXcXvXbXlXN.,.v.#.#.OX,X,X,X,X1X,X>X>X>XpX,X+X* * h t h V ",
"C M v v d : = &.2.2.2.=.L * ~ iX,X,X,X,X,X1X1X,X,X,X,X|.B.B.B.B.9XzX4X4XzXhX4X4XS.a.y.R.B.&X,X,X,X,X,X,X,X>X>XpX,X+X& : N w M C ",
"V N N V M * & E.'.[.[.E.L * ~ pX,X:X,X,X,X,X1X,X1X,X,X,X:X,X,X,XW.c.m.v.v.#.v.G.N N C ).,X,X:X,X,X,X,X,X,X,X:XpX,X+X& $ q v G G ",
"V N V V j 3 6 !.+XW.{.].L - ~ uXuXiX,X,X,X,X,X,X1X>X,X,X,X>X,X,X`.,.,.>.l.n.c.x.C N F ).,X,X:X1X,X,X,X,X,X,X,XpXyXwX6 5 V v C C ",
"V V V h V N h 4.U ] :.*.{ ' ` ~ ~ ).,X,X,X,X,X,X,X,X,X,X,X,X,X,X&XOX).Z F g.gXgXF.D.F.,X,X,X,X,X,X,X,X,X,X,XiXU.~ 4.s k c w C V ",
"V V s w y < c g * I =.=.%.=.e.- - ~.iX,X,X>X,X,X>X>X>X,X,X,X,X,X,X,X/.w e M CXvX*X:X,X,X,X,X,X,X,X,X,X,X,XiXaXs.$ g m V v t r M ",
"q s V n n n y n l 5.) / / / ` ` / s.U.p.k.U.eX,X,X1X>X,X,X,X,X=XS.7.G b b J.mX7X-X,X,X,X,X,X:X,X,XiXY.U.k.k.s.9.l M n n n n N t ",
"v V n n n n n y v v * * * = P <.m.U % % % + wXyX,X,X:X,X,X,XpXwXN b k b b d.yX>X1X,X,X,X,X,X:X,X,XiX~ % % % $ N n n n n n n n r ",
"V n V V n n n n q k 5 5 7 7 ^ >.l.Y = > = J wX=X=XiX,X,X>X=X).D.V b b b n f.yX>X,X<X>X>X,X,X,XiXyXuX4.5 ; ; a n n n n n n n m h ",
"m m D V D N n n h , G D D D D 2 J ..<.<.m.l.U J U yX>X1XpXL.k b b b n H.qXrX-X>X1X1X>X1X>X>X>X~.K 2 D n w X n n n n n N N N k n ",
"m D D D D N N n k v V N N N D 3 =  .#.#.,.<.P % P yX,X,X-XqXe n b n n qX>X,X,X>X>X,X:X,X,X,X-X~.% 3 D n k < v v v n n N N N y D ",
"V D D D D N N N r D n N n n D j f q.........Y I ! ~.~.(.(.K.u b n F d.qX,X,X,X>X1X-XyX(.(.~./.S.g j m n t . c v n n n n N c k m ",
"V V D D V n n n w c n N n n V D D l 2 % % -  .$. .& * = * 5 k b H.;X-X=X:X,X>X1X1X,XwX% % * % l D D V n h n c c n n n v t o n V ",
"V V D D D n n n t y n n n n n n V M 4 3 3 3 w.&.| & * * * a r b K.yXyXuXuXiXiXiXiXyXwX3 5 4 7 j V D m u D n n h , r h h k , h V ",
"n N D D n n n v t q 0 w r h k v v k e t n n f J T = * : * : 4 4 9 T T P T ! ` ` U T 9 r t h v b v h w r n n v t V n n n n V t n ",
"w h w t v k r e u b b k w X   < t v V v h w # * * * * * * * * * * * * * * T E E > * p n t .   < t v V v h w . k n n n n n N n t ",
"h n N k @ i b k k k b k k r O v v n V m n c @ l z z z z Z B B z j M M j 1 z 7.B M l N n v h O v v n m m n c X k n n n n N V N n "
};
