/* XPM */
static char *rcp27847248135041669[] = {
/* columns rows colors chars-per-pixel */
"64 64 240 2 ",
"   c #2C2722",
".  c #322D28",
"X  c #38332C",
"o  c #3E3832",
"O  c #783C1E",
"+  c #443D36",
"@  c #6D3D2E",
"#  c #743B25",
"$  c #7C3C24",
"%  c #743B2C",
"&  c #7A3C2A",
"*  c #77372B",
"=  c #6C3D33",
"-  c #6C3C38",
";  c #733D32",
":  c #773E35",
">  c #72411D",
",  c #4A443D",
"<  c #47423A",
"1  c #5C453D",
"2  c #6D4127",
"3  c #734224",
"4  c #72412D",
"5  c #7B4929",
"6  c #6D4134",
"7  c #6A473A",
"8  c #734132",
"9  c #7D4134",
"0  c #7E5034",
"q  c #4F4A42",
"w  c #4E4740",
"e  c #534C44",
"r  c #594C45",
"t  c #575047",
"y  c #565149",
"u  c #5B544C",
"i  c #5F584F",
"p  c #5E5952",
"a  c #5A5650",
"s  c #6C4D44",
"d  c #684C44",
"f  c #714E45",
"g  c #64544B",
"h  c #6C554B",
"j  c #61584E",
"k  c #6F584D",
"l  c #735346",
"z  c #725349",
"x  c #79574C",
"c  c #635C53",
"v  c #6B5D53",
"b  c #635F58",
"n  c #745D53",
"m  c #676056",
"M  c #696157",
"N  c #65615B",
"B  c #6D655C",
"V  c #6F685E",
"C  c #71665D",
"Z  c #71695E",
"A  c #7A6A5E",
"S  c #706456",
"D  c #6D6860",
"F  c #736B61",
"G  c #7A6D62",
"H  c #7A7164",
"J  c #7E7469",
"K  c #777065",
"L  c #843D2A",
"P  c #844B2E",
"I  c #86462A",
"U  c #964D29",
"Y  c #9A4E2D",
"T  c #924B27",
"R  c #83532D",
"E  c #99542A",
"W  c #864932",
"Q  c #974D35",
"!  c #845231",
"~  c #9A5635",
"^  c #A95632",
"/  c #B35C37",
"(  c #A5552F",
")  c #8E6335",
"_  c #936234",
"`  c #966C33",
"'  c #9B6B35",
"]  c #9E623C",
"[  c #986D3A",
"{  c #9E753F",
"}  c #976B2E",
"|  c #BA6539",
" . c #B7713B",
".. c #A5743D",
"X. c #C5652D",
"o. c #CA662F",
"O. c #C96A2D",
"+. c #D57F2D",
"@. c #DA7E2F",
"#. c #C56633",
"$. c #CC6432",
"%. c #CB6B32",
"&. c #CA6439",
"*. c #C56838",
"=. c #D16933",
"-. c #C87636",
";. c #D57E32",
":. c #DA7E32",
">. c #D3733A",
",. c #D67B3B",
"<. c #D97C3D",
"1. c #D17433",
"2. c #C9722F",
"3. c #885444",
"4. c #9E6840",
"5. c #9F7440",
"6. c #856A5B",
"7. c #936C53",
"8. c #AC7247",
"9. c #BB794B",
"0. c #B5754B",
"q. c #AD6E52",
"w. c #A57659",
"e. c #B87754",
"r. c #B56C49",
"t. c #887566",
"y. c #957A67",
"u. c #C26644",
"i. c #C07D52",
"p. c #CF832C",
"a. c #D3822D",
"s. c #D8802F",
"d. c #D48133",
"f. c #DA8334",
"g. c #DA843B",
"h. c #DE893B",
"j. c #D5803C",
"k. c #D89C3C",
"l. c #C7843A",
"z. c #E1883C",
"x. c #E0913E",
"c. c #B58848",
"v. c #B18253",
"b. c #AC8967",
"n. c #DF8E46",
"m. c #DE854A",
"M. c #DD8747",
"N. c #C89B4D",
"B. c #DE9345",
"V. c #D99647",
"C. c #C98A58",
"Z. c #D28E54",
"A. c #D38E5A",
"S. c #C99555",
"D. c #DB955B",
"F. c #D99559",
"G. c #CB864C",
"H. c #E28E44",
"J. c #E28E4A",
"K. c #E48949",
"L. c #E39346",
"P. c #E49449",
"I. c #E9954A",
"U. c #E49B4A",
"Y. c #EC9C4D",
"T. c #E59745",
"R. c #EC9C53",
"E. c #E39B5C",
"W. c #EB9753",
"Q. c #F89F5D",
"!. c #C8A456",
"~. c #D9A958",
"^. c #DEAD50",
"/. c #E5A14A",
"(. c #E8AB4B",
"). c #EEA355",
"_. c #EEAB55",
"`. c #EDA65B",
"'. c #EEAA5A",
"]. c #E1A757",
"[. c #F3A556",
"{. c #F3A956",
"}. c #F3A65B",
"|. c #F8A55C",
" X c #F3A95B",
".X c #F2B556",
"XX c #F3B559",
"oX c #F5BC5B",
"OX c #F6BB59",
"+X c #EAB351",
"@X c #C79561",
"#X c #DA9864",
"$X c #CB9576",
"%X c #D29270",
"&X c #E19B62",
"*X c #DFAD77",
"=X c #EDA562",
"-X c #ECA961",
";X c #EAA96A",
":X c #F3A561",
">X c #F1AA63",
",X c #F7A465",
"<X c #E8B766",
"1X c #F2B965",
"2X c #E1A976",
"3X c #F4C355",
"4X c #F7C45B",
"5X c #F9C45B",
"6X c #FBCC5C",
"7X c #F8CA59",
"8X c #FBD455",
"9X c #F4D45C",
"0X c #FCD35C",
"qX c #F7D75A",
"wX c #EBC164",
"eX c #E8C269",
"rX c #F3C163",
"tX c #FCCE64",
"yX c #F7CA66",
"uX c #F5D164",
"iX c #FBD262",
"pX c #FAD168",
"aX c #F2D175",
"sX c #BAA593",
"dX c #DAB599",
"fX c #E7B78B",
"gX c #C1B0AC",
"hX c #F1CD99",
"jX c #E9CB9D",
"kX c #DAC6AB",
"lX c #E6CAAA",
"zX c #F4DBB5",
"xX c #F3D3A7",
"cX c #F3E8A3",
"vX c #F4E5D3",
"bX c #FBF6DA",
"nX c #FAF0CE",
"mX c #FBF8EB",
"MX c #FCFCFB",
"NX c #F8FCF6",
/* pixels */
"c B B M c N b b b N N N b u y m M M B V V Z + G F C Z G G G G G b Z C B M C B B B Z C B M i y m M M B V V B X F B b M B C Z Z B ",
"b e c , N N N b N N N N b p c M M M M B V t.q.q.x z 7.e.e.3.x x f f f d z l l l l n F C M b c M M M M B V B . Z B B B b M C Z Z ",
"u B c , N N N N N N N N N N y M M M M M B 7.#.#.L % ( $.*.O % : % % % % % % % % ; s F F B B y M M M M M B c e b B B M B C B Z B ",
"M Z Z y N N N N N N N D N N y M K t.t.t.t.b.l.l.U T ( / | ] ' ' ` ' ' ` ` ` ` } ` 7.J J J G c M B M M M B M B c B B B Z F F F c ",
"Z C F y N N N N N N N D D N c V w.*.X.#.#.].0X5X2.&.Y * 3 yX0XiXiXiXiXiXiXiXiX0XiX<X4 @ @ = d B Z B B M i B c e y M B M c u y Z ",
"B C C b N N N N N N N N D y K Z w.#.X.#.X.].iXyX2.O.E # > yX0X0X0X0X0X0X0X0XiX0XtX<XO # # * f B Z B M v X u B F F F F F B + B B ",
"B B B i b b N N N N N N y j w.q.~.OX1X4X3XS.` [ 1X3XwX<X<XXXXXXXXXXXXXXXXX.XXXXXXX>XE.D.D.&X@Xx n B b o j B B B B F F F F V c B ",
"V B c B Z F B e q a p q . r u.X.+X9X0X9XuXS.% 4 yX8XqX8X6X_.}.|.|. X X|. X X|.|. X X}.}.:X}.E.% ; c c e B B B B B F F F F F i V ",
"B p w i c b Z c e y.y.y.y.b.V.V.N.!.N.N.N.C.c.c.oX4X5X3XOX_.{.{.}.[.[.[.}. X}.}.}. X X}. X XR.0.0.6.C C G G F B B F V Z F F y B ",
"M F F F F B c X t.u.&.&.#.-.6X9X..& 3 & 3 !.uXtX+X X[. X X X X X}. X X X}. X[.}.}. X X|. X X}. X|.e.% % ; ; Z B B V V B Z F + i ",
"B B B B B C F M y. .-.2.2.l.rXuXc.0 0 P 5 !.6X6X'. X}. X|.}.}.|.}. X X X}. X}.}.}. X X}. X}.}. X=Xe.W W W P 6.F F B V V V B v Z ",
"B B B B B Z w.r.Z.5XtX6X6X1XE E ~.uXuXyXyX1X(._. X}.}. X X X X|. X X'. X X X}.}.}.}. X X X X|.}. X=X=X`.`.=X0.7 7 F V V V t F B ",
"B B Z B B Z q.*.B.0X0X0X0XrXE Q ~.8X0X8X0XXX X|.}.}.}. X X X X X X X X X X}.}. X}.|. X X X X|.|.}. X}. X}.:X9.% 6 B B V c e F Z ",
"F F F Z B Z q.=.B.iXqX8X0XrXW W ~.5XrX5XoXXX X:X}. X}.|. X X X|.W.W.W.W.W.Y.Y.[.}.|.|.}.}.}.|. X}.}. X}.}.:X9.% 6 M c b B i K J ",
"J G F Z B Z q.o.V.0X0X0X0XwX# O Z. X X`. X`. X X X X}.}. X X|.W.o.o.o.X.1.@.+.Y.[. X X X}. X X X X X}.[.[. X9.# = i q i F F y F ",
"y M Z B m M q.&.V.0X0X0X8XwX3 # A.}. X:X X X X X}.}.}.}.|.|.|.W.%.$.$.O.1.:.d.Y.[.[.[. X|. X X}.[.}.}.}. X:X9.& 6 F F K B i v Z ",
"C M b b u , x I c.pX0X0X8XwX3 % A.[. X|.|.}. X X X XM.%.%.%.%.,.J.J.J.H.L.L.L.h.f.f.f.f.R.}. X}. X}.|.|. X X9.& 7 F F F F r M F ",
"B M M B B c z % c.pX9X0X0XeX3 # A. X X}.|.}.}. X X XM.o.$.$.$.>.L.L.L.L.L.P.L.g.;.:.s.+.Y.[. X X X}.}.}. X:X9.% 6 F Z B e M F F ",
"B M M C t.y.sXgXkXcXcX<X/.~.S.N.]. X{.}. X X X}.J.M.M.<.<.<.<.K.I.L.L.P.P.P.L.h.h.z.h.h.x.L.U. X X}.}.}. X}.F.i.v.n j C K b Z B ",
"B B B C u.r.vXMXNXmXmX$XX.-.tX0XXX X{.}. X X X}.%.o.j.P.P.P.P.P.L.L.P.P.P.P.L.L.L.L.L.L.f.;.g.}. X}.}. X}.[. X X;XP 6 g M e B B ",
"B B i S |  .vXMXMXMXMX$XX.-.0XqX.X|. X}. X}.}.Q.%.#.j.L.L.L.L.P.L.L.L.L.L.L.L.L.L.L.L.L.f.;.g.[.}.}. X X X X{. X>XP % k M i y M ",
"e i Z t.E.&XvXMXMXNXNXfXR._.0XqXXX X X|.|.J.>.>.K.M.L.L.L.L.L.P.L.L.L.L.P.L.L.P.L.L.L.L.L.H.H.h.z.Y. X X}. X{.|.-XP 4 k B B C i ",
"M Z B t.;X;XnXMXMXMXmXfX'.XX0XqXXX|.[.|.|.m.$.o.H.L.L.L.L.L.L.P.L.L.L.L.L.L.L.L.L.L.L.L.B.B.L.;.@.I. X X}.}.{. X-XP % h B B B u ",
"Z B Z t.C.v.jXzXzXzXxX$XC.S.iX9XXX:X}.|.|.K.$.$.P.P.P.P.P.P.P.P.L.P.P.L.P.P.P.P.L.I.Y./.(.+X(.s.:.I.}.}.}. XXXoX1X! 8 k B B V c ",
"V V F G 4 $ &X X X X:X] # _ iX0X.X|.}.|. XM.o.$.J.L.L.L.L.L.L.P.L.L.L.L.L.L.L.L.L.P.[.{.5XqX6Xp.+.I.}. X}. X4X0XpX! ; k V C b B ",
"V F F G % # E.|.}.{. X4.# ) pX0XXX|.[.}. Xm.$.$.J.L.L.L.L.L.L.P.L.L.L.L.L.L.L.P.P.U.}.[.5X6X4Xp.@.I.[.[.{.{.5X8XiXR ; k V Z y F ",
"Z F F F ; # E.}. X X:X] # _ tX0XXX|.[.}. Xm.$.o.J.L.L.L.L.L.L.P.L.L.L.L.L.L.L.[.}.}.[.[.{. X`.p.;.I.[.{.tXtX0X0XtXR % h V m b V ",
"Z Z F F ; # #X X X}. X] # _ tX0XXX|.[.}. Xm.$.o.J.L.L.L.L.L.L.P.L.L.L.L.L.L.L.[.}.}. X}. X[.[.d.:.I._._.6X0X0X0XtXR % h i X B Z ",
"Z Z F F ; # <X4X5X5XrX5.% _ pX0XXX|.[.}. Xm.$.o.J.L.L.L.L.L.L.P.L.L.L.L.I.R.R. X}. X}.[.XXoXXXa.s.fXzXxXpX0X3X.X1XP 4 g b , c Z ",
"B C F F ; 3 wX0XqXqXiX{ # _ iX0XXX|.[.}. Xm.$.o.J.L.L.L.L.L.L.P.L.L.P.P.R. X}.}.}. X}.[.5X7X4Xp.d.kXNXbXaXiXOX X=XP % h B V i B ",
"r c r c 8 3 eX9X0X0X0X{ % _ tX0XXX X{.}. Xm.$.$.J.L.L.P.P.P.P.P.L.L.P.P.R. X X}.}. X X'.4X8X7Xa.d.lXmXbXaXtXOX|.:XW 4 k B C B i ",
"c B B M 6 3 eXqXqXqX0X8.% _ pX0XXX|.{.|. Xm.$.$.P.P.P.P.P.P.P.P.P.P.). X X X X X X X X{.7XqX7Xa.j.lXNXbX<X X{. X>XW 4 h C Z C B ",
"c B B B 6 3 eXqX0X0XiX5.# _ pX0XXX|.{.}. Xm.$.o.n.L.L.L.L.L.L.P.P.P.[. X X X X X X X X[.5X0X5Xa.,.lXNXbX;X X X[.:XP 4 h C Z Z B ",
"b e c e 6 3 eXqX0X0X0X{ # _ tX0X.X|.[.}. Xm.$.o.B.L.L.L.L.L.L.P.P.P.[. X X X}.}.}. X X[.5X8X5Xa.;.*XxXhX:X X X[.:XP 4 g M B Z Z ",
"y N a t 8 > wX8X0X0X0X5.% _ tX0X.X|.[.}. Xm.$.o.n.L.L.L.L.L.L.L.L.L.). X}. X}.}.}. X X[.5X8X7Xa.d.P.[. X}. X X}.=XP % h C B V B ",
"p N N i ; # <X7X6X6X6X5.% _ tX0X.X|.[.}. Xm.$.o.n.L.L.L.L.L.L.P.P.P.). X}.}.}.}.}. X X[.5X0X3Xa.:.L. X`.[. X X}.=XP % k F F F c ",
"N N N y ; # E.{._.[._.] % _ tX0X.X|.[.}. Xm.$.o.H.L.L.P.L.L.L.Y. X X X[.}. X}.}. X X X[.5X0X7Xa.@.I. X X X X X X-XP % h c u y N ",
"N N N b 8 % E.}.[.}. X] % _ tX0X.X|.[.}. Xm.$.o.J.L.L.P.L.P.L.Y. X X X X}. X}.}. X X X[.5X0X7Xa.:.I. X X X X[. X-XP % k B + N N ",
"N N b j 8 & E.|.}.|. X] % _ tX0XXX|.{.|. Xm.$.$.P.L.P.P.P.P.P.R. X|. X X X X|.|. X X X{.5X0X7Xa.:.I. X|. X X X X-XP 8 k F V u N ",
"N N u C ; % E. X X X'.] # _ tX0X.X|.{.}. Xm.$.%.n.L.L.L.P.P.P.R. X X X X X X X|. X X X[.5X0X5Xa.@.I. X|. X|.[. X-XP ; k F F u N ",
"b u , j 8 & E. X X X'.] % _ tX0XXX|.[.}. Xm.$.%.B.L.L.L.L.P.P.R. X X X X X X X X X X X{.5X0X7Xa.@.I. X|. X X{. X-XP 8 k F F y N ",
"M F F F 8 & &X|. X X X] # _ tX0X.X}. X}.}.m.$.$.H.I.L.L.P. X X X}. X}. X X X X X}.|.|.{.5X8X7Xa.@.I.}.|. X X{. X-XP 4 h Z F + u ",
"B B B C 6 # &X X X`.'.] # ) pXiX.X}. X|. Xm.$.o.J.P.P.L.P. X|.|.|. X X X X}. X X{. X X_.5X0X4Xp.s.P.}. X X|.[.}.-XP % h V B v Z ",
"B B B C 8 # G.x.L.H.H.~ % _ iXiX.X X X}. XR.I.I.,.<.z.L.B. X X}.}. X X[. X X_.oX4X4X3X4X(./.U.U.U.). X X X X X X-XP ; h V t F B ",
"B B Z C ; $ -.;.;.+.d.E # ) uX0XXX}. X[. X X[.}.%.$.j.L.B.`. X}. X}.}.}.}. X_.5X0X0X8X7Xk.d.g.}. X X X X}.[. X:X=XW ; h c e Z Z ",
"F F F Z v l 8.-.-.;.;.( T ] <X^.'.:X X}.|. XXX>X#X%XA.n.J.W.W.).XXXXXXXXXXXX.XOX3X3X3XOXT.z.H.|.}. X X}.}.}.R.D.A.x h c B i H J ",
"J G F Z B B l $ U #.$.*.#.| $ # Z.:X:X|.|.OXtXaXnXmXdX#.X.o.o.V.iX9X0X0X0X0XiXk.a.a.a.+.Y.}.|. X X|.}.}. X:X9.# 6 y q i F F y F ",
"y M V B b c s % U &.$.&.$.| $ # Z.|.|.'.'.3X0XaXnXmXdX#.X.$.$.V.6X6X6X0X0X0X0Xk.d.s.s.s.Y. X X X X|.}.}. X|.9.# 6 C F K B i v Z ",
"A S M M j < s % Y &.$.$.$.| & & Z.}. XrX4X7X0XpXhXxX2XJ.J.J.K.U.U.U./.U./.(.(.U.P.P.I.I.).}. X X X|.}.[. X|.9.% 6 C F F F r C A ",
"Z C C Z C g 7 % U $.$.&.$.| $ # A. X_.iX0X0X0X6XXX:X X[.[.[.}.I.o.$.=.$.>.:.;.R.}. X[.}.}. X X X}.}.}.}. X|.9.% 6 C Z B e M H H ",
"Z C Z Z M j d % U O.O.O.O.| $ # S._..X0X0X6XyX5X{.}.}. X X X XI.1.>.>.>.,.g.g.R.|. X X X X X X X}.}.}.}.|.|.9.% - b t B K M A A ",
"Z Z Z v C B z % E ,.;.:.:.-.& # ~.6X6X0X0XOX X[. X:X}. X X X X}.[.}.}.}.[.[.[. X X[.}. X X X X X}.}.}.[. X:X9.# - i y b M r A Z ",
"Z Z j r y , h = ~ ,.,.d.:.-.$ O ~.uXuX0X0XoX}.[. X[.[.}. X X X X X X X X X X X X}. X}. X X X X X[.|.:X X|.,Xe.2 7 B B Z M i u S ",
"e j Z B B B j C A U U T T E  .*...[ [ ' ' Z.|.}. X X}. X X X X X X X X X X X X X}. X[. X X}. X X XG.~ ~ ~ ~ 6.b B B B B B B C i ",
"M Z B B B B B y C @ % # # T ,.:.E # # # # G.=X X X}. X X X X X X X X X X X X X}.}. X X X X}. X X}.e.% % ; ; v Z B B B B B B B u ",
"Z B Z Z C B B B y h d k n 6. . .~ Q Q Q Q 9.A.A.`.{.|. X X X X X X X X|. X X X}.}.|.|. X X X=XZ.A.w.n h 1 r v B B B B B B B V c ",
"V V F F F C B B c , F C C F 4 $ / &.&.&.&.~ & I `.[. X X X X X X X X|. X X X X X}.}.}. X X`.&XO % v V B e . B B B B B C C C b B ",
"V F F F F C C B b M Z C C F 7 & / &.$.$.&.~ & $ =X:X X X X X}. X X X X[. X}.{.|.}. X:X:X=X`.&X# 6 M V B c < M M M B B C C C y F ",
"Z F F F F C C B u F B C B B B C 3.Y Q Y Y ~ ^ ^ 8.8.8.8.r.=X[.,X}.}.}. X}.}. X|.{.E.8.8.8.8.w.C M V B N i . M M B B B B C m b V ",
"Z Z F F Z B B B r m B C B B V F n % @ # % ^ $.#.$ # % * & ;X X|.}.}.}. X}. X X|.[.#X% % ; % s D D F Z B c B m M B B B M i X B Z ",
"Z Z F F F B B B i y B B B B B B C z h s z ~ / / & % * * $ #XD.D.F.F.D.D.D.E.E.D.D.C.z h h h v B Z F V p F B B c , u v v b , p Z ",
"B C F F B B B M i e q r u c b M M c r i B k # & * % % % # % # & # # # $ W Q Y L & 7 y t u p b N M c r i B B M i Z B B B B Z i B ",
"r c r i M b u u p N N b y .   , c M Z M c 1 = ; ; ; ; : : : ; : ; ; ; ; W 3.Q 9 : f B B i .   < i M Z M c r . b B B B B B C B i ",
"c B C b + a N b b b N b b u o M M B Z V B M + C Z Z Z Z A A A Z c C C b + b F C B B B B M c o M M B Z V B M . b B B B B C Z C B "
};
