/* XPM */
static char *rcp100605080135044728[] = {
/* columns rows colors chars-per-pixel */
"64 64 240 2 ",
"   c #2C2722",
".  c #342F29",
"X  c #332D27",
"o  c #3A332D",
"O  c #36312B",
"+  c #3C3631",
"@  c #3E3932",
"#  c #6E3B1D",
"$  c #77391B",
"%  c #423C35",
"&  c #483E36",
"*  c #6D3C2C",
"=  c #6D3B24",
"-  c #743725",
";  c #733B25",
":  c #743A2B",
">  c #7A3C2B",
",  c #7A3925",
"<  c #6E3D34",
"1  c #6E3D38",
"2  c #723E32",
"3  c #793D30",
"4  c #733D36",
"5  c #79421F",
"6  c #47413A",
"7  c #4A443C",
"8  c #6D4128",
"9  c #794324",
"0  c #6B4539",
"q  c #734133",
"w  c #734139",
"e  c #784B35",
"r  c #7E5638",
"t  c #4F4A42",
"y  c #4E4740",
"u  c #544C44",
"i  c #534F49",
"p  c #575047",
"a  c #575149",
"s  c #5B544C",
"d  c #5F584F",
"f  c #5E5952",
"g  c #5A5650",
"h  c #654C46",
"j  c #744C42",
"k  c #784A41",
"l  c #6C544C",
"z  c #62584E",
"x  c #65564B",
"c  c #75564A",
"v  c #635C53",
"b  c #6A5D54",
"n  c #635F58",
"m  c #745D54",
"M  c #785D53",
"N  c #676056",
"B  c #696156",
"V  c #65615B",
"C  c #6C655B",
"Z  c #6F685E",
"A  c #716356",
"S  c #71675D",
"D  c #71695E",
"F  c #7A6C5D",
"G  c #786359",
"H  c #6D6860",
"J  c #736B61",
"K  c #7A6D63",
"L  c #7B7163",
"P  c #7A7367",
"I  c #813C27",
"U  c #88482A",
"Y  c #924729",
"T  c #85532A",
"R  c #89552B",
"E  c #835226",
"W  c #99512D",
"Q  c #884934",
"!  c #994A39",
"~  c #8B5A3C",
"^  c #965A34",
"/  c #9A5C35",
"(  c #955B37",
")  c #A55C3A",
"_  c #B35A34",
"`  c #BA5B39",
"'  c #A65125",
"]  c #996A38",
"[  c #966830",
"{  c #A5693B",
"}  c #BE643B",
"|  c #B96839",
" . c #B7773A",
".. c #B46D2F",
"X. c #C5652D",
"o. c #CA652D",
"O. c #C36A2D",
"+. c #CA6A2D",
"@. c #CB702D",
"#. c #D97E2E",
"$. c #C36535",
"%. c #CC6432",
"&. c #C76A31",
"*. c #CB6B32",
"=. c #C36439",
"-. c #C6673A",
";. c #D16535",
":. c #CB7332",
">. c #CE7934",
",. c #C77633",
"<. c #DA7D32",
"1. c #D47B3A",
"2. c #D47838",
"3. c #A15B42",
"4. c #986447",
"5. c #996C55",
"6. c #9D7459",
"7. c #8C6D56",
"8. c #B76B42",
"9. c #B97644",
"0. c #B77843",
"q. c #B97945",
"w. c #B67544",
"e. c #A47557",
"r. c #A6744E",
"t. c #8C746A",
"y. c #8A5544",
"u. c #C67945",
"i. c #D87E42",
"p. c #AC823F",
"a. c #D5822E",
"s. c #D48A2C",
"d. c #D68232",
"f. c #D6813D",
"g. c #D9813E",
"h. c #D98936",
"j. c #D58E33",
"k. c #B38649",
"l. c #AE825E",
"z. c #CB884A",
"x. c #DC8243",
"c. c #DE8B48",
"v. c #DE9846",
"b. c #C98652",
"n. c #CE8B54",
"m. c #C98A5C",
"M. c #D08C54",
"N. c #DC965B",
"B. c #CB9D51",
"V. c #E48C4B",
"C. c #E18A47",
"Z. c #E29346",
"A. c #E49449",
"S. c #E49C4B",
"D. c #E89A4B",
"F. c #E88F53",
"G. c #EA9552",
"H. c #EC9A53",
"J. c #EA9755",
"K. c #F39C59",
"L. c #F49E58",
"P. c #CEA456",
"I. c #D5A759",
"U. c #DAAC50",
"Y. c #E4A64B",
"T. c #E6AB4A",
"R. c #E8B34B",
"E. c #ECA553",
"W. c #EDAA55",
"Q. c #EEA65B",
"!. c #EDAA5B",
"~. c #E5A955",
"^. c #F4A656",
"/. c #F2AA56",
"(. c #F3A65B",
"). c #F9A45D",
"_. c #F3A95B",
"`. c #F8A85B",
"'. c #ECB454",
"]. c #E7B657",
"[. c #F1B455",
"{. c #F3BB55",
"}. c #F5BB5B",
"|. c #F6B75B",
" X c #DE9961",
".X c #DC9763",
"XX c #CE9476",
"oX c #E29D64",
"OX c #D6A56C",
"+X c #E9A566",
"@X c #F3A661",
"#X c #F4A961",
"$X c #E7B967",
"%X c #F5BA62",
"&X c #E8AF76",
"*X c #EDB67B",
"=X c #E9B777",
"-X c #F0B77B",
";X c #F9C754",
":X c #F6CB55",
">X c #F6C35A",
",X c #FAC25D",
"<X c #F6CC5A",
"1X c #FBCC5D",
"2X c #F6C556",
"3X c #FAD356",
"4X c #F5D35C",
"5X c #FBD35B",
"6X c #F8D756",
"7X c #EFCA5E",
"8X c #EEC96E",
"9X c #F2CA63",
"0X c #FCCC63",
"qX c #F5C867",
"wX c #F6D164",
"eX c #FCD163",
"rX c #F8D26C",
"tX c #ECC27B",
"yX c #F2D973",
"uX c #EDB986",
"iX c #EFBB90",
"pX c #D0A585",
"aX c #F1CF84",
"sX c #F3DBB8",
"dX c #F4D6A6",
"fX c #FDEEA6",
"gX c #FCE1BE",
"hX c #DBCBAF",
"jX c #EBD7C2",
"kX c #FEF3C4",
"lX c #FDF9DC",
"zX c #FDF3D9",
"xX c #FAECCE",
"cX c #FDF6E4",
"vX c #FBF7E9",
"bX c #F6FCFB",
"nX c #FCFCFB",
"mX c #F7F8F3",
"MX c #F7EDE2",
"NX c #D7CAC5",
/* pixels */
"v C C B v V n n n V V V n s a N N N C Z Z C o F S b A S D F F S v C C B N C C C C S S C B d a N N N C D D C o J C b B C S D D C ",
"b u v 7 V V V n V V V V n f v N N N B C C C o K 7.5.5.5.6.e.e.7.c h l 0 m m A C C J J S B N v N N N B C D C o J C C C b B C D D ",
"s C v 7 V V V V V V V V V V a N N B B B C v u F | %.&.&.%.%.$.W : : 2 : q 2 0 D D J J J Z C a N N B B B C v u b C C B C S C D C ",
"N D D a V V V V V V V H V V a B C B B S D D J F | $.$.$.=.=.=.W 5 9 9 9 9 5 e J J K K K K D a B C B B B C B C v C C C D J J J v ",
"D S J a V V V V V V V H H n v C D C D r.8.8.8.) I I > > I > > B.9X7X9X9X9XqX$Xr j e j j k j x C D C C B d C v u a N C B v s a D ",
"C C S b V V V V V V V H H a J C D C S 8.$.%.$.| , : : : : : : P.eX5X5XeX5X5X8XE : : : : : : m C D C B b o s C J J J J J C % C C ",
"C C C d b n V V V V V V a u C B t.6.e.~.~.q.) { P.P.P.P.P.z.b.~.}.}.}.|.|.|.%Xn.b.b.b.b.b.b.e.G m C b @ z C C C C J J J J Z v C ",
"Z C v C D J C i t g f t X + v C 5.$.,.4XwXk.: ] 0X3X5X5X0X/.@X(.(./.(.(._._.^._.(.(.(.(././.m.: < B v u C C C C C J J J J J d Z ",
"C f y d v b S v % S D L t.7.F B r.z.z.].].k.] k.9X;X1X;X,X/.@X(.(.(.(.(._.(._._.(.(.^.#X-XaXpXt.t.S D B C C C C C J D D J J a C ",
"B J J J J C v o N F F 6.| | -.| $XwXqX9 ; OXrX>X~.W.^.W.!._.(.(.(.(.(.(././.(._._.(.(.-XzXvXmXmXMXc : A C C C C C Z Z Z D J & d ",
"C C C C C C S d A F F 6.&.O.o...$XqXqX8 = P.eX1X(.(.(.(._.(.(.(.(.(.(.(._./._._.(.(.(.*XvXnXnXbXmXc : x C C C C C C Z Z Z C b D ",
"C C C C C C C B B 5.r.I.,X,X,X%X .{ r.sXsXtX'.'.(.(.(.(._.(.(.(.(.(.(./././.(.(.(.(.(.-XvXnXbXmXcXOXoXr.h h B C C C Z Z Z p J C ",
"C C D C C C C B x $.X.R.6X3X6XeX .! 5.kXkXaX/./.(.).(.(./.(.(.(.(.(.(.(._._.(./.(.(.!.*XcXbXbXnXvX=X^.9.: 2 b C C C C D v u J D ",
"J J J D C C B B & -.&.].5X1X5XwX{ ! 4.fXfXtX(.(./.(.(._._./.(.L.K.K.K.K.L.^.E.].'.[.'.tXcXbXcXxXgX$X(.9.: q a N C N v b C d L P ",
"P K J D C C B d o =.O.'.5X5X3X<X] : R wXrX%X(.(.^.(.(.(._._.(.c.X.o.o.o.@.<.j.1X5X1X5XaXcXmXsX+XQ.W.(.w.: 2 z v d a t d J J a J ",
"a B D C N v u s C =.O.'.6X5X5X<X] : R eX5X}._.(.(.(.(.(._.(.(.c.&.%.%.+.:.d.s.<X4X5X6XyXlXvXdX!.(.^.(.9.: 3 b C C S J L C d b D ",
"C N b b s % t n C =.O.'.3X3X3X5Xz.}  .5X3X}._.(._.(./.(.(.2.2.x.V.V.V.Z.W.<X2Xj.j.R.5X1X=XuX&X_.(./.(.q.3 q B C C C J J J u B J ",
"C B B C C s + n B =...'.5X5X5X5Xf.o.,.0X5X|._.(.(.(.(.(.L.&.%.g.A.A.Z.Z.'.4X:Xh.<.R.6X1X/.^./._.(.^.(.w.: 3 S C C C D C u N J J ",
"C B B C b d 6 s C =.O.E.}.}.}.}. .' ..eX5X}._.(.(.^.G.V.V.i.1.C.A.A.Z.Z.S.'.R.T.T.R.R.W.W.(.(.(.(.^.(.w.: 3 S S B v p C P b D C ",
"C C C v Z C z b v =.X.G.Q._.(.Q./ : T 0X5X|.(.(.(.(.V.o.*.V.A.Z.A.Z.Z.Z.Z.Z.Z.<X4XY.a.h.^.!.(./.(./.(.w.: 2 u + s d a b B u C C ",
"C C d u a 6 b S D =.X.F.(.(.(.Q./ : E eX3X|._.(.).).V.O.*.A.Z.Z.Z.Z.Z.Z.A.Z.v.1X1XY.a.h.(.W.(.(.(.^.(.q.: 2 C a J C C D B d a B ",
"u d D C C C a C F =.o.A.(.(.(.Q./ : T eX5X}._.H.2.2.x.c.V.A.Z.Z.Z.Z.Z.Z.A.A.Z.Y.Y.'.2X{.h.h.D.(.(.^.(.0.: q C b C C C C C C S d ",
"B D C C C C C s G } o.G.(.(.(.Q.^ : E eX5X|.(.J.o.%.g.Z.A.A.Z.Z.Z.Z.Z.Z.A.A.Z.Z.v.'.5X;Xa.a.Z.(.(.^.(.0.: q d D C C C C C C C s ",
"D C D D C C C C x } %.G._._.(.@X/ : T eX5X|.`.K.%.%.g.A.S.A.A.A.A.A.A.A.A.Z.Z.A.Z.{.5X:Xd.d.Z.(._._._.q.3 2 z C C C C C C C Z v ",
"Z Z J J J S C C B } %.G.(.(.(.Q.^ : T eXeX|.(.H.o.o.g.A.A.A.Z.Z.Z.Z.Z.Z.A.Z.v.A.Z.'.5X;Xa.#.Z.(.(.^.(.q.: * C C C C C Z Z S b C ",
"Z J J J J S S C B -.*.+X*X-X*X&X{ Q [ eXeX|.^.H.o.o.g.Z.A.A.Z.Z.Z.Z.Z.Z.Z.Z.v.A.Z.[.5X;Xa.#.Z.(.(.^.(.0.: * N B C C Z Z Z S a J ",
"D J J J J S S C b oX+XsXcXcXcXzXuX+X!.5XeX|.^.J.o.%.1.Z.Z.A.Z.Z.Z.Z.Z.Z.Z.A.Z.Z.A.[.5X;Xa.a.Z.(./.^.(.0.: * b B C C C Z Z N b Z ",
"D D J J D C C C z OX+XjXmXnXnXvXiX^./.5XeX|.^.H.o.%.g.Z.Z.A.Z.Z.Z.Z.Z.Z.Z.A.A.Z.A.[.5X;Xa.a.Z.(.(.^.(.0.: 3 b N C C C B d o C Z ",
"D D J J J C C C v ~ ( NXmXnXnXvXXX1.f.'.'./.^.H.o.%.g.Z.Z.A.Z.Z.Z.Z.Z.Z.Z.A.A.Z.A.[.5X;Xa.a.Z.(.(.^.(.0.: 3 N v 7 s b v b 7 v D ",
"C C J J C C C B d * = NXnXnXnXmXXX%.*./.(._.(.J.o.%.g.Z.Z.A.Z.Z.Z.Z.Z.Z.Z.A.A.Z.A.[.3X;Xa.a.Z.(.(.^.(.0.: 3 b d D C C C C Z g C ",
"u v u d B b d d b e 9 hXlXlXlXzXXX$.*.(.@X_.(.H.+.;.x.A.A.A.A.A.A.A.A.A.A.A.A.S.A.{.5X;Xd.<.Z.(./.(.(.q.3 2 o b C C C C C S C d ",
"v C S b % b Z C S | ..].wXrXrX8X] I Q @X^./.(.H.o.%.x.A.A.A.A.Z.Z.A.Z.Z.A.A.A.Q.(.}.5X>XO.o.x.(.(.(.(.0.: < X b C C C C S D S C ",
"v C C B N C C C S | | R.3X3X3X4X] 2 Q +X(./.(.H.o.%.x.A.A.A.Z.Z.Z.Z.Z.Z.Z.A.Z.(.(.{.5X>XO.o.x.(./.(.(.0.: 2 + J C b B C S D D C ",
"b u v 7 J S C C C Q Y U.5X5X5X4X[ : U (._././.H.o.%.g.Z.Z.A.Z.Z.Z.Z.Z.Z.Z.A.Z.(.(.>X5X>X>.<.C.(.(.^.(.0.: 2 o D C C C b B C D D ",
"a V g t D S Z C Z 2 ; I.3X5X3X1X[ : U (.(./.^.G.o.%.g.Z.Z.Z.Z.Z.Z.Z.Z.Z.Z.A.Z.(.(.>X5X;Xa.#.Z.(.(.^.(.0.: 2 u b C C B C S C D C ",
"f V V a D Z Z Z C < = P.>X>X>XqX] : U Q.!.|.[.E.o.%.g.Z.Z.A.Z.Z.Z.Z.Z.Z.A.A.A./.(.}.3X;Xa.#.Z.(.(.^.(.0.: 2 G b C C C D J J J v ",
"V V V u J J Z J C 2 - n./././.Q.( : U Q.Q.,X1X}.o.%.f.Z.Z.A.Z.Z.Z.Z.Z.Z.Z.A.A.^.(.}.3X;Xa.#.Z.(.(.^.(.0.: q b u a N C B v s a V ",
"V V V v C J J J S 2 - n.(.(.(.(./ : U !.W.>X5X}.+.%.f.Z.Z.A.Z.Z.Z.Z.Z.Z.Z.A.A.^.(.}.3X;Xd.<.A.(.(.^.(.0.: 2 N J J J J J C % V V ",
"V V n d b N J J S 4 : n.(.(.(.Q.( : R rX5X5X5X}.o.%.g.Z.Z.A.A.Z.Z.Z.Z.Z.D.(._./.(.>X5X>X@.+.c.(.(.^.(.q.: q B C C J J J J Z s V ",
"V V s C S J C a u 4 - M.(.).(.Q.( ; T eX5X3X3X}.o.%.g.Z.Z.A.A.Z.Z.Z.Z.Z.D.(././.(.>X5X>XO.o.x.(.(.^.(.q.: 2 B C C J J J J J s V ",
"n s 7 d v b Z v % w > n.(.@X_.Q./ : R rX5X3X5X}.+.%.x.A.A.A.A.A.A.A.A.A.E._._._./.>X3X>X+.%.x._.(.^.(.q.3 q C C C J D Z J J a V ",
"B J J J J C v o b 2 - n.(.(.(.Q.^ : T eX3X5X5X{.o.%.g.A.Z.Z.Z.Z.Z.Z.Z.Z.H.(./.(.(.}.5X>X+.%.x.(.(.^.(.w.: 3 C C C Z Z Z D J & s ",
"S C C C C C S d b 2 - n.(.(.(.Q.^ : T eX5X5XeX}.+.*.1.V.A.A.Z.A.Z.Z.Z.Z.H.^././.W.}.1X}.+.&.c.(.(.(.(.w.: 3 C C C C Z Z Z C b D ",
"C C C C C C C B x 2 - n.).).(.Q./ : T 0X5X{././.L.L.C.*.:.A.Z.A.A.A.A.A.H.(.!.1X1XY.,.1.L.L.(.(.(.^.(.w.: 3 C C C C Z Z Z p J C ",
"C C D C C C C B u 2 - M.(.).(.Q./ : E eX5X|.(.^.).^.C.%.*.A.A.Z.Z.Z.Z.Z.D.^.W.1X1Xv.%.2.(.(.(.(.(.(.(.9.: 3 N C C C C D v u D D ",
"J J J Z C C B B o w > u.Z.A.Z.c.^ : R eX5X}.#X_.).).H.F.F.1.1.S.}.{.}.}.}.,X}.v.v.A.F.G._._._._._._.(.q.3 q a N C N v b C d L P ",
"P K J D C C B d   < - | <.d.<.2.Y : R eXeX|._.(.(.(.(._.(.*.X.Y.5X6X5X5X5X5X0X:.%.V.(.(.(.(._./.(.^.(.q.: < z v d a t d J J a J ",
"a B Z C b v u d b 4 : $.<.1.<.1.Y : R eXeX|._.(.(.(.(.(.(.*.+.E.1X;X1X0X1X1XqX:.*.V.(.(._.(._./.(.^.(.0.: q N C C S J L C d b D ",
"F A B B x & u B N 4 : _ o.*.o.%.Y : R eXeX|.(.(.(.(.(.(.(.Q.H.c.>.>.>.>.>.>.>.H.(.(.(.(.(.(._.(.(.^.(.q.: q N C C C J J J u S F ",
"D S S D S x % B b 2 : _ %.;.%.%.Y ; T eXeX|.(.(.(.(.(.(././.(.x.%.;.%.%.;.%.*.(.!.(.(.(.(.(.(.(.(.^.(.0.: 2 C C C C D C u B L L ",
"D S D D B z 6 d b < : _ %.;.;.%.Y : T eXeX}.(.(.(.(.(.(._./.).G.V.V.V.V.V.V.V.(.(.(.(.(.(.(.(.(.(.^.(.0.: 2 C S B b p C P B F F ",
"D D D b S C z N s < ; _ %.;.;.X.Y ; E rXeX|.(.(.^.(.(.(./.(.(.(.(.(.(.(.(.(.(.(.(.(.(.(.(.(.(.(.(._.^.w.; 2 u + s d a b B u F D ",
"D D z u a 6 b C B l 0 3.` ` ` _ Y U R $X].].[././.(.(.(._.(.(.(.(.(.(.(.(.(.(.(.(.(.(.(.(.(.(.(.(.N.N.r.c c C a J C C D B d s A ",
"u z D C C C a B C C d l , I , , ` %.} $ # I.5X;X/.^.(._._.(._.(./.(.(.(.(.(.(._.(.(.(.(.(.(.(.^.@XU ; G D D D b C C C C C C S d ",
"B D C C C C C a B C b & * 2 2 : ` ;.} $ # I.wX0X!.Q././._.(._./.(.(.(.(.(.(.(._.(.(.(.(.(.(.@X@X+Xe < A C Z d D C C C C C C C s ",
"D C D D C C C C u v u b J J S C c U Y u.u.{ ] p.qX0X%X/._._._._._._.(.(.(.(.(._._._._._.(.@XM.^ ~ K J v + 6 v C C C C C C C Z v ",
"Z Z J J J S C C v 6 J S S S S C c : U 1.f.) 3 ] wX5X|.W.(.(.(.(.(.(.(.(.^.(.(.(.(.(.(.(./.(.m.> 0 K C V u X C C C C C S S S b C ",
"Z J J J J S S C b B D S S S S S m j k  . .^ 2 4.$X$X+X.X X XN.Q.|.[.[.[.[.[.[.N. XN. X XN..Xl.l l J C C n 6 B B B C C S S S a J ",
"D J J J J S S C s J C S C C D D S S C 0 : : : : > ; ; - > > , B.0X3X3X5X5X5X9XE > , > > > : l Z Z Z C V d . N B C C C C S N b Z ",
"D D J J D C C C p N C S C C D J J J C 0 < w 8 * : : : : 3 : 9 P.rXeXeXeX0X0X8Xr < < < 2 < 1 b H H J D C v C N N C C C B d o C D ",
"D D J J J C C C f a C C C C C C J J Z v S C N v * : : : 3 : : ~ ] ] ] ] { w.5.B s s C C C C Z C D J Z f J C C v 7 s b b b 7 f D ",
"C S J J C C C B d u t u s v b B B v u d C C B s w : : : : : : : : : : : Q ! y.V s u u p s f N V B v u d C C B d D C C C C D d C ",
"u v u d B b s s f V V n i X   6 z B D B v u . b A m m m m M m l h l h h m m b d b C C C d O   6 d B D B v u . b C C C C C S C d ",
"v C S b % g V n n n V n n s @ B B C D Z C N X b S S A S D F D S v C S b % b Z C B B C C B v @ B B C D Z C N X b C C C C S D S C "
};
