/* XPM */
static char *rcp85367892135047754[] = {
/* columns rows colors chars-per-pixel */
"64 64 184 2 ",
"   c #27231E",
".  c #29231E",
"X  c #2A2520",
"o  c #2F2B25",
"O  c #322C26",
"+  c #342F29",
"@  c #36312A",
"#  c #3B342D",
"$  c #3C3630",
"%  c #3E3932",
"&  c #433D35",
"*  c #453F38",
"=  c #6F3D2C",
"-  c #653C2F",
";  c #743B2C",
":  c #793B2B",
">  c #7E3C22",
",  c #633D33",
"<  c #6C3E33",
"1  c #733C31",
"2  c #783D31",
"3  c #494037",
"4  c #46413A",
"5  c #4A443C",
"6  c #51483E",
"7  c #75412C",
"8  c #7B422D",
"9  c #654135",
"0  c #6A4235",
"q  c #67443A",
"w  c #6A443A",
"e  c #69493F",
"r  c #7E4035",
"t  c #70473C",
"y  c #724033",
"u  c #4D4741",
"i  c #4F4A43",
"p  c #544D45",
"a  c #594E44",
"s  c #534F49",
"d  c #565047",
"f  c #5B5147",
"g  c #565149",
"h  c #5B544C",
"j  c #5F584F",
"k  c #5A5650",
"l  c #5E5A52",
"z  c #634E44",
"x  c #6A5147",
"c  c #62564D",
"v  c #6C554B",
"b  c #63594E",
"n  c #6B584F",
"m  c #745A4F",
"M  c #7A5B4E",
"N  c #775446",
"B  c #635C53",
"V  c #6A5E53",
"C  c #635F58",
"Z  c #6D5F58",
"A  c #755B51",
"S  c #7A5C54",
"D  c #7A5F58",
"F  c #676056",
"G  c #6B6157",
"H  c #65615B",
"J  c #6C655B",
"K  c #6E685E",
"L  c #716456",
"P  c #75655A",
"I  c #70675E",
"U  c #72655C",
"Y  c #74665C",
"T  c #71665B",
"R  c #71685F",
"E  c #726A5F",
"W  c #76685E",
"Q  c #72695D",
"!  c #786C5D",
"~  c #79615B",
"^  c #6B6660",
"/  c #6F6D61",
"(  c #6F6B60",
")  c #716A60",
"_  c #736A61",
"`  c #726960",
"'  c #716C62",
"]  c #756D62",
"[  c #756D62",
"{  c #736B61",
"}  c #796B61",
"|  c #777065",
" . c #7B7163",
".. c #7D7568",
"X. c #8E492C",
"o. c #8E442F",
"O. c #934D2B",
"+. c #9B4B2B",
"@. c #8F502E",
"#. c #975627",
"$. c #9C5525",
"%. c #93512C",
"&. c #9C532A",
"*. c #914C30",
"=. c #925030",
"-. c #955838",
";. c #9A5534",
":. c #A05D34",
">. c #9E623F",
",. c #A5653E",
"<. c #A9673E",
"1. c #A7683E",
"2. c #B7673E",
"3. c #B9693F",
"4. c #CD642E",
"5. c #D06C2D",
"6. c #DB7E2E",
"7. c #C66633",
"8. c #CC6433",
"9. c #CC6B35",
"0. c #C6663A",
"q. c #D06731",
"w. c #D16C32",
"e. c #CF7435",
"r. c #D57333",
"t. c #D57E34",
"y. c #DA7E34",
"u. c #D37E39",
"i. c #D57239",
"p. c #E07F35",
"a. c #9E5F41",
"s. c #9E6242",
"d. c #836C5C",
"f. c #8A6C5A",
"g. c #8A6558",
"h. c #9E6E51",
"j. c #98774A",
"k. c #A46541",
"l. c #AB6B40",
"z. c #A46C49",
"x. c #B16544",
"c. c #A47644",
"v. c #AB7C44",
"b. c #A97843",
"n. c #B57A45",
"m. c #A2735B",
"M. c #AB785D",
"N. c #A6795C",
"B. c #A97A61",
"V. c #A87862",
"C. c #D37941",
"Z. c #A8813E",
"A. c #D4812D",
"S. c #D9812E",
"D. c #D78033",
"F. c #DA8132",
"G. c #D4853D",
"H. c #AB8142",
"J. c #CF8844",
"K. c #CA8447",
"L. c #D58641",
"P. c #E39346",
"I. c #E49249",
"U. c #EEAA56",
"Y. c #EFA758",
"T. c #EEAA59",
"R. c #F0AC56",
"E. c #F3A65B",
"W. c #FBA25B",
"Q. c #F2A95A",
"!. c #C8B36C",
"~. c #CEBB74",
"^. c #D1BA73",
"/. c #F1A562",
"(. c #F9BF61",
"). c #F6C25B",
"_. c #F9C45B",
"`. c #FCCE5D",
"'. c #FBD456",
"]. c #F7D55A",
"[. c #FCD35B",
"{. c #FDCE64",
"}. c #F6C465",
"|. c #FCD163",
/* pixels */
"B J J G B H C C C H H H C h g F F F J K K J # W I V T T Y Y Y Y B J J G F J J J J I I J G j g F F F J R R J $ ` J V G J I ` R J ",
"V p B 5 H H H C H H H H C l B F F F G J K J # W T T T V G T P P L p c 5 ` I J J J ` ` I G V B F F F G J R J @ ` J G J V G J R R ",
"h J B 5 H H H H H H H H H H g F F G G G K B p G I I T Y P w ; ;.2.x.: - } I R J R ` ` ` J J g F F G G G J B p V J J G J I J R J ",
"F R R g H H H H H H H ^ H H g G J G G G J G J B I Y T W P < ; ;.3.x.1 , } K K K ` ` ` [ ` J g G G G G G J G J B J I J R [ [ [ B ",
"R I ` g H H H H ^ H H ^ H C b J R J J G j J B i h G T V n z c d.f.d.V a ! L G ` [ ` ` [ [ J B J R J J G j J B p g F J G B h g R ",
"J J I V H H H H ^ H H H H g [ J R J G B @ h J / [ [ ~ 1 e & J J J J K l v < q [ / [ [ [ ` g [ J R J G B @ h J ` [ [ ` ` J & J J ",
"J J J j V C H H H H H H g p J G G G V % j H J J J ` g.o.N K B J J J K h x y e / / [ [ [ h p J G G G V % b J J J J ` ` ` ` K B J ",
"K J B J R [ J s i k l i O $ B J F B B p J J J J J ` V.0.h.` j K K J j J v 1 q g d B V p O $ B J F B B p J J J J J ` ] ` ` ` j K ",
"J l u j B V I B & T Q ! Q P G c & j F V J J J J J ` M.8.z.` h J J l i j x = q l & P Q ! W P G c & j F V J J J J J ` R R ` ` g J ",
"G [ ] ` [ J B # F ! ! W Q Q T T Q V 5 J J J J J J K N.8.K.^.!.!.~.~.~.~.j.= 9 # G ! ! Q Q Q T T Q V 5 J J J J J J K K K R ` * j ",
"J J J J J J I j L ! ! W Q Q T T T P V g J J J J J J B.8.G.[.].'.'.[.[.].Z.; 0 j L ! ! W Q P T T T Q V g J J J J J J K K K J B R ",
"J J J J J J J G V ! ! ! ! Q T T T T P & F J J J J J V.0.L.`.[.'.'.'.'.[.H.; 0 G V ! ! ! ! Q T T T T T & F J J J J J K K K d ` J ",
"J J R J J J J G a ! ! ! ! ! T T J J J B j G G J J J M.0.L.`.[.[.[.[.[.[.H.; 0 G a ! ! ! ! ! T L G T T B j G G J J J J R B p ` R ",
"[ ` [ R J J G G # P ! ! ! ! T T G J G g G j g F J F m.0.J.[.[.[.[.[.[.[.v.; 0 G # Q ! ! ! ! T L G G L g G j g F J F B V J j  ...",
"..] [ R J J G j X & G W W T T J G G V # g B B B j g M *.n.|.[.[.[.[.[.|.H.r t j . & G Q W T T T G G V # g B B B j g i j ` [ g [ ",
"g G R J F B p h C C h g b V V B V c 5 j J G G J J I P ; c.|.[.[.'.'.[.'.H.; , j F J b h b V V V V c 5 c J G G J J I [  .J j B R ",
"J F V V h & i C C C H C 5 F j 5 V R B J J J J G J J g.+.n.(.).).).).).).b.; , G J J J G 6 G b 6 V W B J J J J G J J ` [ [ p G ] ",
"J G G J J h $ C C C C l J J F B J ] [ F ` R R J J J B.8.C.W.T.Y.E.E.E.U.<.; , G G J J G T T L V P } } F ` R R J J J R J p F [ [ ",
"J G G J V j 5 h C C C g K F F B G ] ] g I R R I G B m.7.C.W.E.E.E.E.E.Q.<.; , j J J J b W L G V T } } h R R R I G B d J | V R J ",
"J J J B K J b V h g p V G F F B J ` ` 5 V G a % h c m > ,./.E.Q.E.E.E.Q.<.; q F j j g G L L G V T ! W 5 B F p $ h j g V G p J J ",
"J J j p g 4 V T J J p J F F F j G ` c ! ! ! ! f W Y D ; s./.E.E.E.E.E.Q.<.: q J J J p T L J G b G ! c ` R R R g ` J J R G j g G ",
"p j R J J J g J J J j B F F B & j G G ! ! ! ! V I I S ; k./.E.E.Q.E.E.Q.l.: q G J J j V J J G 3 c G F R K R K V J J J J J J I j ",
"G R J J J J J h T T V . @ 5 p j g p f Q Q ! b Y T T S ; s./.E.E.E.E.E.Q.l.; q g G J V . @ 4 p g p p p J J R j R J J J J J J J h ",
"R J R R J J J G p b a V ` [ J J J J ` B # 5 b T T T S ; z.Q.T.U.U.R.U.U.l.; w G p B p l J H H C H H H h $ 4 B J J J J J J J K B ",
"K K ` [ [ I J J B 5 [ I R R I J I J J J p O T T T T S ; c.{.|.`.[.[.{.`.H.; w J B 4 ^ H H H H H H H H H u O J J J J J K K I V J ",
"K ` ` [ ` I I J V G R I I I I I I J J J V 5 T G T T S ; c.|.[.'.'.'.[.'.H.; q J V C H H H H H H H H H H l 5 G G J J K K K I g ` ",
"R ` ` [ ` I I J h ` J I J J R R I I J J B + G T T I S ; c.|.[.'.'.'.[.[.H.; q J h H H H H H H H H H H H h + F G J J J K K F V K ",
"R R ` ` R J J J p F J I J J R ` ` ` R J h C V G T T S ; c.|.[.[.[.[.[.[.H.; q J p l H H H H H H H H H H j J F F J J J G j # J R ",
"R R ` ` ` J J J j g J J J G J J R ` R l H H C h 5 j m 2 c.|.[.[.[.[.[.[.H.; q J c g C H C C H H H H H h ` J J B 5 h B B V 5 B R ",
"J I ` ` J J J G j p p p j B V G G B p g H C l g R J A ; c.|.[.[.[.[.[.[.H.; w G c p p p g h l l C k i h J J G j R J J J J K j G ",
"p B p j G V j j V K J J h @ X 5 b T ! L j i + V J J A ; c.{.[.[.[.[.[.[.H.; 9 j V J J J h @ X 4 j G R G B p + V J J J J J I J j ",
"B J I V & B K J G G J J G B & P L W ! ! W L O V J J A 7 b.|.[.'.[.[.[.[.H.8 e J G G J J G B % J G J R K J F O V J J J J I R I J ",
"B J J G F J J J J K K J G j h G J J Q ! ! W # ` J V m ; c.|.[.'.'.[.[.[.H.; q J J I I J G j g F F F J K K J # ` J V G J I R R J ",
"V p B 5 ` I J J H ` [ R G F B L L L T ! ! Q # R J G A ; c.}._._._._._.).b.; q J J ` ` K G F l F F F G J K J @ R J G G V G J R R ",
"g H k i R I K J ` [ ` ` J J c L L L L P Q V p V J J m ; >.T.Q.U.U.R.U.U.1.; q J ` [ [ ` J J g F F G G G J B a V J J G J I J R J ",
"l H H g R K K K ` ` ` [ ` J h L T L L L Q J J B J J m ; s./.E.E.E.E.E.E.<.; q K ` [ ` [ ` J g G G G G G J T ! B J J J ` [ [ [ B ",
"H H H p ` ` K ` [ ` ` [ [ J b Q ! Q Q L b J B i h F A ; s./.Q.E.E.E.E.Q.<.; q ` [ ` ` [ [ J B J R J J G j R F p g G J G B h g J ",
"H H H B J [ [ [ ` ` ` [ [ h  .T ! Q T F # h J ` [ [ A ; s./.Q.E.Q.E.E.Q.<.; q [ [ ` ` ] ] g [ J R J G B @ h J ` ] [ ` ] J & H H ",
"H H C j V F ` ` ` ` ` ] j a W T L T G & b K J J K [ A ; s./.Q.E.Q.Q.E.Q.1.; q [ ` ` ` ] j p J G G G V % b J J J J ` ` ` ` K h H ",
"H H h J I [ J g p B V p O % V P J B B p K J J J K ` A ; a.Y.E.E.E.Q.E.T.,.; q g p B V p O # B J F B B p J J J J J ` ] ` ` ` h H ",
"C h 5 j B V K B & T T Y I T Z c * j F F J J J H J ` A ; s./.E.E.Q.Q.E.T.1.; q B % G J ` J J F j & j F V J J J J J ` R R ` ` g H ",
"G [ ] ` [ J B # V W W I T T T G T B 5 J J J H J J K m ; s.E.E.E.E.Q.E.T.k.; 0 # V R R J J J G G J B 5 J J J J J J K K K R ` * h ",
"I J J J J J I j G W W Y T T G G T T B g G J J J J J m ; s.E.E.E.E.E.E.Q.,.; q b G R R J J J G G G G B g J J J J J J K K K J B R ",
"J J J J J J J G b W Y W W T G G G T G & F J J J J J m ; -.I.P.I.P.P.I.P.:.; q L B R K K K J G G G G J & F J J J J J K K K d ` J ",
"J J R J J J J G p Y Y Y Y W T G Z G G B j G G J J J m ; =.y.S.y.D.F.F.A.&.: 0 L p I I K K K J F F F F B j G G J J J J R B p W R ",
"[ ` [ K J J G G # T Y Y Y W T G Z Z Z g G j g F J F v ; =.y.S.6.6.F.y.A.$.: 0 T # J K K K K J G F F F g G j g F J F B V J j  ...",
"..] [ R J J G j X & Z T T T G G Z Z B $ g B B B j g z 1 %.y.6.A.D.S.y.t.$.: q b X & F J J J F F F F B $ g B B B j g i j ` [ g [ ",
"g G K J V B p j G J B h c B B B B h 5 j J G G J J I m ; %.y.y.S.t.F.y.t.$.; , b G T b g j B B B B h 4 j J G G J J I [  .J j B R ",
"! L G G c * p G J J J G 5 V j 5 F [ B H J J J G J J A 2 =.i.r.r.r.r.r.e.&.: q G T T T G 5 V j 5 V ` B J J J J G J J ` [ [ p T ! ",
"Q T P Q T c & G G J J G J G F B K [ [ F ` R R J J J A ; X.8.8.4.8.4.8.7.+.; , T T T T G G G F B J ] [ F ` R R J J J R J p G  . .",
"Q T Q Q G b 4 j J J J j J F F B J [ [ h R R R I G B x ; O.8.8.4.8.4.8.7.+.; , c T T T c K F F B G ] ] g I R R I G B d J | F ! W ",
"Q Q Q B I G b F j j g V G F F B J [ ` 5 B F p $ h j x ; X.8.8.4.8.8.8.7.+.; , F c c h V G F F B J ` ` 5 B F p $ h j g V G p W Q ",
"Q Q b p g 5 V J J J p J F F F j G ` j [ K K K g ` J m ; X.0.8.4.8.8.8.7.+.; , J J J p J F F F j G ` j ` R R R g ` I J R G j h L ",
"a b R J J J g G J J j B F F B * h H F K K K K V J J A ; X.0.8.8.8.q.8.7.+.; , G J J j B F F B & j G F R R R R V J J J J J J I j ",
"G R J J J J J g G J V   @ 5 p j g p p J J R j R J J m ; X.0.8.4.0.8.8.7.+.; < p G J V   @ 5 p j g p p J J R j R J J J J J J J h ",
"R J R R J J J G p B p V ` ` J J J J ` B $ 4 B J J G A ; O.9.w.5.9.w.w.9.+.: < C i B p V ` ` J J J J ` B $ 4 B J J G G J J J K B ",
"K K ` [ [ I J J B 5 [ I I I I J I J J J p O J J G G A = O.y.y.6.y.p.6.u.&.; q H k 5 [ R R R K K K K K J p o J J J G J I I I V J ",
"K ` ` [ ` I I J V G R I I I I I I J J J V 5 G G G G A = %.u.u.D.D.D.F.G.#.; q H l G K I R K K K K K K J C 4 G G G G J I I I g ` ",
"R ` ` [ ` I I J h ` J I J J J R I I J J b + F G J J S ; > %.O.O.%.%.%.%.8 ; q H g ` K K K K K K K K K H j + F G J J J J I F V K ",
"R R ` ` R J J J p F J I J J K ` ` ` R J B J F F J J A < ; ; 1 ; ; ; 1 1 1 ; q H i F K K K K K ( ( ` R J B J F F J J J G j # J R ",
"R R ` ` ` J J J j g J J J G J J R ` R B ` J J B 5 h V v N = ; ; ; ; ; 2 M P Z H h g J K J J H J R ` K l ` J J B 5 j B B V 5 B R ",
"J I ` ` J J J G j p i p j B V G G V p j J J G h W T I I Z < 1 ; ; 2 ; 1 Y H H C h p p d h l F H G B p j J J G j R J J J J R j G ",
"p B p j G V h h l H H C s + X 5 b G R G B p + V T I I I Z 0 < < 0 0 0 9 J l g h V J J J h @ X 4 j G R G B p + V J J J J J I J j ",
"B J I V & k H C C C H C C h % G G J R K J F + Z T T T T Y P P T c G J B & B K J G G J J G B % G G J R K J F O V J J J J I R I J "
};
