/* XPM */
static char *rcp5884148135053714[] = {
/* columns rows colors chars-per-pixel */
"64 64 237 2 ",
"   c #2C2722",
".  c #332D28",
"X  c #3B342E",
"o  c #36312B",
"O  c #3E3932",
"+  c #3B3631",
"@  c #783C1C",
"#  c #423C35",
"$  c #473E37",
"%  c #5A3C34",
"&  c #6E3C2B",
"*  c #733A24",
"=  c #7B3D24",
"-  c #743A2B",
";  c #7A3B2C",
":  c #773729",
">  c #6D3D32",
",  c #733C32",
"<  c #783A32",
"1  c #79421E",
"2  c #79491E",
"3  c #47413A",
"4  c #4B443D",
"5  c #484137",
"6  c #5D473F",
"7  c #6D412E",
"8  c #7B4124",
"9  c #7B422C",
"0  c #7B4927",
"q  c #6D4334",
"w  c #6E4936",
"e  c #6D4439",
"r  c #67493C",
"t  c #714334",
"y  c #75493B",
"u  c #4F4A42",
"i  c #4E4740",
"p  c #534D45",
"a  c #534F49",
"s  c #575047",
"d  c #565149",
"f  c #5B544C",
"g  c #5F584F",
"h  c #5E5952",
"j  c #5A5650",
"k  c #684B41",
"l  c #6D564C",
"z  c #61584E",
"x  c #675349",
"c  c #775746",
"v  c #635C53",
"b  c #6C5C53",
"n  c #635F58",
"m  c #735D55",
"M  c #7A5F55",
"N  c #666056",
"B  c #6A6057",
"V  c #65615B",
"C  c #6D655B",
"Z  c #6F685E",
"A  c #716356",
"S  c #71665D",
"D  c #72695E",
"F  c #796C5E",
"G  c #7A6354",
"H  c #7D705F",
"J  c #6C6860",
"K  c #736B61",
"L  c #7A6E63",
"P  c #7A7164",
"I  c #7A7367",
"U  c #823C28",
"Y  c #823E30",
"T  c #83441C",
"R  c #8B442A",
"E  c #884729",
"W  c #944928",
"Q  c #9A542A",
"!  c #894832",
"~  c #9C4B33",
"^  c #9C5D36",
"/  c #9C5E3B",
"(  c #965635",
")  c #89532F",
"_  c #A45533",
"`  c #A65739",
"'  c #B15D35",
"]  c #AC512F",
"[  c #956935",
"{  c #9D613C",
"}  c #9B6D3B",
"|  c #996936",
" . c #9E733B",
".. c #997037",
"X. c #8B6735",
"o. c #AA633B",
"O. c #BD6933",
"+. c #BB663C",
"@. c #B5693D",
"#. c #BB683D",
"$. c #B66537",
"%. c #B97639",
"&. c #B37230",
"*. c #C5662D",
"=. c #CB652E",
"-. c #C56B2D",
";. c #CB6A2E",
":. c #C56F26",
">. c #D0652C",
",. c #C6732B",
"<. c #D87E2E",
"1. c #C46535",
"2. c #CC6432",
"3. c #C46933",
"4. c #CB6A32",
"5. c #C56439",
"6. c #C9653A",
"7. c #C96C3D",
"8. c #D16533",
"9. c #D06C35",
"0. c #CD7B3C",
"q. c #C77739",
"w. c #D57D34",
"e. c #DA7D33",
"r. c #D57C3C",
"t. c #D97D3D",
"y. c #D37337",
"u. c #885545",
"i. c #915744",
"p. c #8A6A59",
"a. c #976C56",
"s. c #8C755E",
"d. c #99735B",
"f. c #9E7148",
"g. c #A96744",
"h. c #B86642",
"j. c #A77D4A",
"k. c #A46E51",
"l. c #AE764A",
"z. c #987A63",
"x. c #837464",
"c. c #B07F61",
"v. c #C67C47",
"b. c #D67C41",
"n. c #D87A42",
"m. c #C16442",
"M. c #D4822E",
"N. c #CE8137",
"B. c #CD803B",
"V. c #D48432",
"C. c #D98233",
"Z. c #DA833D",
"A. c #D88937",
"S. c #DB9E3D",
"D. c #E18C3E",
"F. c #A98248",
"G. c #BB8654",
"H. c #B78A53",
"J. c #A68D6B",
"K. c #C4824B",
"L. c #CA8848",
"P. c #D88745",
"I. c #CB9A4D",
"U. c #DB9445",
"Y. c #C98652",
"T. c #C78655",
"R. c #D38C55",
"E. c #C79856",
"W. c #D99559",
"Q. c #E58C4C",
"!. c #E58A49",
"~. c #E39346",
"^. c #E49449",
"/. c #E9944C",
"(. c #E4994C",
"). c #E7994A",
"_. c #EB9C53",
"`. c #E69454",
"'. c #ED9756",
"]. c #CBA24E",
"[. c #DCA449",
"{. c #CDA453",
"}. c #CFA459",
"|. c #D1A754",
" X c #D1A854",
".X c #DCA755",
"XX c #E9AD4D",
"oX c #E4A54A",
"OX c #EEA555",
"+X c #EDAB53",
"@X c #EDA65D",
"#X c #EEAA5A",
"$X c #E3A657",
"%X c #F3A556",
"&X c #F1AA55",
"*X c #F3A65B",
"=X c #F8A55C",
"-X c #F3A95B",
";X c #EDB154",
":X c #EDB45C",
">X c #E8BB5F",
",X c #F1B354",
"<X c #F3B45B",
"1X c #F5BC5A",
"2X c #F9BC5C",
"3X c #E8B04E",
"4X c #C59B64",
"5X c #D8B969",
"6X c #C8AA66",
"7X c #ECA461",
"8X c #E7A566",
"9X c #F2A562",
"0X c #F2A963",
"qX c #E8B764",
"wX c #F4B961",
"eX c #F7CD55",
"rX c #F8CB56",
"tX c #F6C25B",
"yX c #F9C45C",
"uX c #F5CA5A",
"iX c #FBCB5C",
"pX c #F3C057",
"aX c #FBD456",
"sX c #F7D25B",
"dX c #FBD35C",
"fX c #F5D355",
"gX c #E8C767",
"hX c #F5C363",
"jX c #FCCD62",
"kX c #F6C56C",
"lX c #F9CC6C",
"zX c #F7C966",
"xX c #F5D364",
"cX c #FBD261",
"vX c #F9D26B",
"bX c #F5CB73",
"nX c #F9D070",
/* pixels */
"v C C B v V n n n V V V n f d N B B C Z Z C X F S b A S D F F S v C C B B C C C C S S C B z d N B B C Z Z C + K C n B C S D D C ",
"n p v 4 V V V n V V V V n h v B B B B C Z C X K D F F S D L F D b p v p P K S C D L K S B n v B B B B C Z C o D C B B n B S D D ",
"f C v 4 V V V V V V V V V V d B B B B B C v x > 9 g.+.+.+.g.- > e > - g.+.( , ! h.h.d.K C C d B B B B B C v p n C C B C S S D C ",
"B D D d V V V V V V V J V V d B C B B B C B m - U +.;.*.*.$.= * - - @ $.1.Q * E O.O.d.K K C d B B B B B C B C v C C C D K K K v ",
"D S K d V V V V V V V J J n v C D D D G p.s.H.E.E.[.oXoXoX[.I.E.E.{.E.` ` _ ] $.$XoXE.z.z.z.d.P D C C B g C v p d B C B v f d D ",
"C S S n V V V V V V V J V d K C D S q Y #.O.<XdXfXsXdXdXdXdXdXcXdXdXbX) < _ 2.0.jXcX:X*.6.6.1.s.D C B v o f C K K K K K C # C C ",
"C C C g n n V V V V V V d p C K L s.X.| v.q.<XjXjXiXiXiXiXiXiXiXiXiXkX .[ &.N.L.qX>X.X0.B.N.N.J.x.L n O z C C C C K K K K Z v C ",
"Z C v C D K C a u j h u . + n e 7 H.xXzX-X*X-X#X-X&X-X-X-X-X-X#X-X-X+XzXxXxXdXgX2 = j.nXdXcXdX.XO.g.B a C C C C C K K K K K g Z ",
"C h i g v n S v # S D F F S D 7 @ I.dXyX-X*X-X*X=X-X*X*X*X*X*X*X*X*X&XjXdXdXdXgX2 * j.vXcXvXcX.X-.@.K B C C C C C D Z D K K d C ",
"B K K K K C v X B H a.k.u.c c 5XqX:X:X-X%X*X-X%X=X-X-X*X*X=X*X*X*X*X*X<X,X,X+X:XqXqX}.} } } ..E.hXwXk.k.k.k.d.K C Z Z Z D K $ g ",
"C C C C C C S g A x.+.1.W , 2 zXdX1X-X*X%X*X*X*X=X-X*X*X*X=X*X*X*X*X*X*X*X*X*X;XjXdX.X- - * - E.xXjX-.3.3.*.h.L C C Z Z Z C v D ",
"C C C C C C C S G z.L.L.F.F.F.hXyX<X-X*X-X*X=X*X-X-X*X*X*X=X=X*X*X*X*X*X*X*X*X-XhXiX$Xj.j.j.j.E.qXqXL.L.P.U.Y.z.L K Z Z Z s K C ",
"C C D C C C C p.@.L.iXuXiXsXcX+XOX-X-X*X-X*X-X*X-X-X*X*X*X-X*X*X-X-X-X*X*X&X*X-X&X+X1XxXxXxXsX}.Q Q lXzXiXsXiXB.O.a.C D v p K D ",
"K K K D C C B a.2.L.iXdXcXdXjX#X*X-X-X*X*X*X-X*X-X=X*X*X*X=X=X*X*X-X-X*X*X-X-X=X-X*X<XdXcXcXdX].~ ^ lXdXjXdXjX0.3.d.v n C g P I ",
"I L K D C C B a.4.P.dXdX1X<X<X-X-X-X-X-X-X-X-X-X=Xb.r.n.n.n.n.r._.-X-X-X-X-X-X-X-X-X-X<X<X<X<XE.! ) lXdXdXaXjXP.4.a.u g K K d K ",
"d B D C N v p a.;.r.dXdX,X-X=X*X-X-X*X*X*X*X-X*X=X4.2.2.2.2.2.*./.*X-X*X*X-X*X*X*X*X=X*X*X*X%XK.* 0 nXdXaXdXiXB.2.d.K P C g v D ",
"S B n n f # u p.] %.1XtX&X-X-X*X=X*X*X%XQ.Q.Q.Q.Q.t.r.r.r.r.r.r.!.Q.Q.Q.Q._.*X-X*X=X*X*X*X*X%XK.- 0 lXdXdXaXiX%._ p.K K K p B K ",
"C B B C C f + M : ( @X*X&X&X-X*X=X*X*X'.*.;.2.2.4.Q./.~.~.~.^./.y.2.2.2.=.!.*X-X*X=X*X*X*X*X%XK.: 0 lXdXaXaXjX[ * G D C p B K K ",
"C B B C n v 4 G 8 ^ 7X*X*X*X*X*X-X*X=X'.*.;.2.2.;.~.~.~.~.~./.~.w.;.2.;.*.Q.=X=X*X*X*X*X*X*X*Xv.= E lXjXdXdXzX| = M d D P n D C ",
"C C C v Z r q 6XvXkX+X*X*X*X-X#X*XP.*.4./././././.^.~.~.~.~.~.~./././.~./.r.;.9.%X&X*X-X*X*X-X9X7X7X3.;.N.-X&X8X8XR.o.f.C a C C ",
"C C g p g > * |.dXiX+X*X*X*X-X@X*XP.2.4./.~.~.~.~.~.~.~.~.~.~.~.^.~.~.~.~.r.;.9.=X-X*X%X*X*X*X-X*X%X;.2.0.*X%X-X*XW.2.@.C g d B ",
"p g D C K ( Q .XdXiX&X*X*X*X=X`./.P.r.t./.^.^.^.^.^.^.^.^.^.^.~.^.^.~.)._.(.U.(.`./._.*X*X*X-X-X-X=X4.8.r.=X-X-X*X`.8.#.D C S g ",
"B D C C K h.*.XXdXiX+X=X*X*X=X*.;.Z.~.~./.~.~.~.~.~.~.~.~.~.~.~.^.~.~.%X-X1XiXtXO.2.r.*X*X*X*X*X&X%X4.=.y.%X*X=X*XQ.>.+.D C C f ",
"D C D D K +.;.+XjXyX&X=X=X-X=X4.2.Z.^.^.^.^.^.~.^.~.^.^.^.^.^.^.^.^.(.*X-X1XiXhX,.2.r.=X-X-X=X-X&X-X3.5.q.=X=X-X*XQ.5.g.K C Z v ",
"Z Z K K P #.;./.-X+X-X=X=X#X*X4.2.P.^.^.^.~.^.~.~.~.^.^.~.^.^.^.OX*X*X*X*X&X+XOX4.2.t.=X&X-X*XwXjXlXT U o.9X*X*X-XK.U 9 K S n C ",
"Z K K K P @.=./.*X=X*X*X*X*X*X4.;.b.^.~.~.~.~.~.~.~.~.~.~.^.^.~.OX*X*X*X=X*X+X%X4.=.t.=X%X-X&X1XdXzX1 - / @X*X-X#XK.- t C S d K ",
"D K K K P @.2./.*X=X*X*X*X*X=X2.2.b.~.~.~.~.^.~.~.~.~.~.~.^._._.*X*X*X*X*X<XtX2X4.=.t.*XOX2XtXjXdXzX1 - ^ *X*X=X*XK.- t Z N n Z ",
"D D K K L +.2./.*X=X*X*X*X*X=X2.=.r.~.~.~.~.~.~.~.~.~.~.~.(.=X*X*X*X*X*X*XtXsXyX-.=.t.*X+XiXaXdXaXzX1 - ^ -X=X=X*XK.- q v X C D ",
"D D K K L +.2.^.;X-XOX*X*X*X=X4.=.r.~.~./.~.~.~.~.~.~.^.^.(.*X*X*X*X*X*X*XtXsXrX,.;.r.-X;XiXaXiXiXkX8 - | ;X&X<X+XL.- e N 4 v D ",
"C S K K K +.2.XXiXhX+X*X*X%X=X2.=.r.~.~.~.~.~.~.~.~.~._.*X*X*X*X*X*X*X*X*XtXdXrXV.V.U.jXdXdXdXpXXX@X1 - } zXdXdXcX].- q C Z g B ",
"p v p g S h.1.3XaXiX+X*X*X*X*X4.;.Z.~.~.~.~.~.~.^.~.~._.*X*X=X*X*X*X*X*X*XtXdXeXV.M.S.dXaXdXdXwX&X7X= - ..cXdXdXdX].* q C S C g ",
"v C S n 3 ) Q .XdXiX&X-X=X-X*X4.2.Z.^.~.~.~.^.~.^.^.^.OX-X-X-X-X-X=X*X=X=XtXdXeXV.C.S.aXdXpX1XwX-X7X9 9  .cXdXdXaX{.; y S D S C ",
"v C C B B q * {.dXiX&X*X*X*X*X4.=.t.^.~.~.~.~.~.^.~.~._.*X-X-X*X*X*X*X*X*XtXdXeXV.<.S.dXdX,X*X-X*X7X8 - ..dXdXaXaX].- e S D D C ",
"n p v 4 K t *  XdXiX&X*X*X*X*X2.=.t.^.~.~.~.^.~.^.(.(.OX*X-X-X*X*X*X*X*X*XtXdXeXV.e.U.yXtX-X*X*X*X7X8 - ..dXdXaXaX].- e B C D D ",
"d V j u S t *  XdXiX&X*X*X*X*X4.=.t.^.~.~.~.^.~.^.*X*X*X*X=X*X*X*X*X*X*X*XtXdXeXV.e.A.+XOX*X%X*X*X7X8 - ..dXdXdXaX].- e C C D C ",
"h V V d S q *  XdXiX&X*X*X*X=X2.=.t.^.~.~.~.^.~.^.*X*X*X*X*X*X*X*X*X*X*X*XtXdXeXV.e.D.%X=X*X*X*X*X@X8 - ..jXjXiXiXI.- w K K K v ",
"V V V a D q * |.dXiX+X*X*X*X=X2.=.t.^.~.~.~.^.~.^.*X*X*X*X*X*X*X*X*X*X*X*XtXdXeXV.e.D.%X*X*X*X*X*X7X8 - [ #X;X,X+XL.- w z f d C ",
"V V V v B q * |.dXiX+X*X*X*X=X2.=.t.~.~.~.~./.~.^.*X*X*X*X*X*X*X*X*X*X*X*XtXdXeXV.V.D.*X*X*X*X*X*X@X8 - ^ *X*X-X%XK.- w B # V V ",
"V V n g n q * {.dXiX&X*X*X*X=X2.;.t.^.~./.~.).)._.*X*X-X=X=X*X*X=X=X=X*X*XtXdXrXV.V.D.*X*X*X*X*X*X@X= - ^ *X*X-X*XK.: w D Z f V ",
"V V f C C t * {.dXiX&X*X*X%X*X4.2.t./.~.~.~.%X*X*X*X*X*X*X*X*X*X*X*X*X*X*XtXdXrXV.e.D.*X*X*X*X*X%X@X8 - ^ *X-X-X*XK.- w D K f V ",
"n f 4 g z q *  XdXiXOX*X*X%X*X3.=.t./.~././.%X*X*X-X*X*X*X-X-X*X*X*X*X*X%X1XrXrXV.e.!.%X*X*X*X*X*X7X8 - ^ *X-X-X*XK.- t D K d V ",
"B K K K D q *  XdXiX+X*X*X*X=X4.=.t./.~.~./.%X*X*X-X*X*X*X-X=X*X*X*X*X=X%X1XsXuX,.>.t.*X*X*X*X*X=X7X8 - ^ 9X*X-X*XK.- e Z K $ f ",
"C C C C C q *  XdXiX&X*X*X*X=X4.=.t.^.~.~./.*X*X*X-X*X*X*X*X*X*X*X%X*X*XOXtXsXuX,.8.r.=X*X*X*X-X&X@X8 - ^ =X*X-X*XK.* e C C v D ",
"C C C C B q *  XdXiX+X*X*X*X=XQ.!.D.A.A.^./.%X*X=X-X*X*X*X*X*X*X<X1X2X2X1X;X(.(.U.!./.=X=X*X*X<X1XwX8 - Q ~.~.~.~.%.* q C s K C ",
"C C D C B q *  XdXiX+X*X*X*X*X*X*X~.M.C.~./.%X*X*X-X*X*X*X*X*X%XtXdXdXdXdXoX1.7.*X%X*X*X*X*X&X1XdXzX8 - W e.C.M.<.&.* q z p F D ",
"K K K Z B k w 4XkXhX3X&X*X*X@X4X4XG.l.%.U.~.%X*X%X+X&X&X&X&X&X&X2XiXiXiXzX.X4.y.=X*X*X-X*X*X-XwXzXbXE = Q e.t.w.0.o.e k B g P I ",
"I L K D C C B l * ..xXjX<X@X4XS B B b 5 %.e.V.C.A.jXcXjXjXdXcXjX[.M.M.:.-.P.=X=X=X*X*X*X*X*X*XK.@ @ #.6.5.2.5.W = x u g K K d K ",
"d B Z C n v p l * [ cXiX,X*X4Xb v f 4 v q.<.<.<.M.uXaXdXdXdXdXiX[.<.e.8.=.!.*X#X-X*X*X*X*X*X@XG.- U 5.2.2.>.5.R - M K P C g v D ",
"F A B B z $ p M < | cXdXuX2X6X4 N I s.J.W.(.).).).XXXXoXoXoXoXoX(.(./.^.U._.-X-X-X=X*X*X*X*X-XT., Y 5.;.4.8.6.! , M K K K p S F ",
"D S S D S x # M , [ cXdXdXsX6Xv Z J.-X=X=X*X-X*X%XC.e.y.2.2.2.=./.*X*X*X-X*X*X=X*X*X*X*X*X*XOXK.* U 5.2.2.2.5.R - M D C p B P P ",
"D S D D B z 3 l - [ dXaXaXfX5XZ K 4X-X=X%X*X*X*X*XZ.C.w.4.9.9.4.(.*X*X*X*X*X*X-X*X*X*X*X*X*XOXK.- ; 3.=.=.>.3.R - m s C P B F F ",
"D D D v S B z m - [ cXaXaXdXsXgXgXqX-X*X*X*X*X*X*X*X%X*X*X=X=X*X*X*X*X*X*X*X*X-X*X*X*X*X*X*XOXK.- = r.e.t.<.r.R - l d n B p F D ",
"D D z p d 3 n m > } vXdXcXcXdXdXdX1X&X%X=X%X*X*X*X*X%X*X*X-X-X*X*X*X*X*X*X*X*X*X*X*X*X*X*X@XOXG.- = B.V.V.M.B.) , m C D B g f A ",
"p z D C C C d C S F f. . . . .:X<X-X-X*X=X=X-X*X-X*X-X-X-X-X-X-X-X-X-X-X-X-X*X-X-X-XW.{ { { { @.%.%.Q Q ( Q ( S S C C C C C S g ",
"B D C C C C C d C D q ; < - E 7X%X%X-X-X@X*X-X*X*X*X*X*X*X*X*X*X-X-X*X*X*X*X*X*X*X@XR.= - - - o.w.0.= - - - q L C C C C C C C f ",
"D C D D C C C B p v 6 k l x c W.W._.=X*X*X*X-X*X-X=X-X-X-X-X-X=X=X-X-X-X*X-X=X9XW.W.T.W R R E o.q.%.c k % % k D C B B C C C Z v ",
"Z Z K K K S C C v 3 K S S S K t = K.-X@X*X*X*X*X*X*X*X*X*X*X*X*X=X=X*X*X*X*X*X7X1 - W 6.2.2.2._ = t K C a . C C C B C S S S n C ",
"Z K K K K S S C n B D S S S K e - G.9X0X0X0X-X*X-X-X-X*X*X=X=X%X*X=X*X9X0X0X7X8X1 * W 5.2.2.6._ - k K C v 3 B B B B C S S S d K ",
"D K K K K S S C g K C S C C D S K p.{ / { / `.*X*X*X*X*X*X*X*X=X=X*X7Xo./ / / ` ' ' _ R R R E G S C Z C g . B B C C C C S N n Z ",
"D D K K D C C C p B C S C C D K K A & > > & W.*X*X*X=X*X*X*X9X*X*X*X7XE - - , R m.2.' : , & & A J K D C v C N B C C C B g X C D ",
"D D K K K C C C g d C C C B C C D D A b m b c.T.T.R.R.Y.Y.Y.Y.K.Y.T.T.E : - - 9 ` ` i.m b m b C D K Z h K C C v 4 g v v n 4 v D ",
"C S K K C C C B g a u p f v n B B v p g C C x * = ~ ~ R - - * * : * * - - - - , - - k s f h N V B v p g C C B g D C C C C D g B ",
"p v p g B n f f h V V n a .   3 z B D B v p $ q t i.i.y y y y q e e e e e e q e t q x C g o   3 g B D B v p . n C C C C C S C g ",
"v C S n # j V n n n V n n f O B B C D Z C B . b A A A A D D D S z C C v # v C B B B C C B v O B B C D Z C B . n C C C C S D S C "
};
