/* XPM */
static char *_cf028c5715a4f4cdb684bf6b1778886gvwAcaE7wnEYEZHg[] = {
/* columns rows colors chars-per-pixel */
"64 64 212 2 ",
"   c None",
".  c #FBAF02",
"X  c #FCAD01",
"o  c #FDAD01",
"O  c #FEAC01",
"+  c #FFAD01",
"@  c #FDAE01",
"#  c #FDAF01",
"$  c #FEAE01",
"%  c #FFAC02",
"&  c #FEAD02",
"*  c #FFAD02",
"=  c #FEAD03",
"-  c #FFAD03",
";  c #FDAE02",
":  c #FDAF02",
">  c #FDAE03",
",  c #FEAE03",
"<  c #FAB201",
"1  c #FCB001",
"2  c #FDB001",
"3  c #FEB301",
"4  c #FDB002",
"5  c #FDB302",
"6  c #FDB401",
"7  c #FEB401",
"8  c #FDB902",
"9  c #FCBC00",
"0  c #FEBC01",
"q  c #FCBD02",
"w  c #FDBC03",
"e  c #FEBC02",
"r  c #FCBE02",
"t  c #FDBE02",
"y  c #FDBE03",
"u  c #FCB804",
"i  c #FBAB10",
"p  c #FBAC12",
"a  c #FAAD12",
"s  c #FAAD13",
"d  c #F9AD14",
"f  c #F8AD15",
"g  c #F9AD15",
"h  c #FBAC14",
"j  c #FBAD15",
"k  c #F9AF15",
"l  c #F8AE16",
"z  c #F9B810",
"x  c #F8BC10",
"c  c #F4B021",
"v  c #F2B025",
"b  c #FDB524",
"n  c #FBC402",
"m  c #FDC502",
"M  c #FDC602",
"N  c #FCC603",
"B  c #FCC206",
"V  c #FBCA03",
"C  c #FECB01",
"Z  c #FCC803",
"A  c #FCCB02",
"S  c #FBC904",
"D  c #FACC04",
"F  c #FCC60E",
"G  c #FDD301",
"H  c #FDD302",
"J  c #FED302",
"K  c gold",
"L  c #FED701",
"P  c #FFD701",
"I  c #FED702",
"U  c #FFD702",
"Y  c #FED703",
"T  c #FED404",
"R  c #FCD604",
"E  c #FED704",
"W  c #FBD901",
"Q  c #FDD900",
"!  c #FDD801",
"~  c #FCD901",
"^  c #FDD901",
"/  c #FED800",
"(  c #FFD800",
")  c #FED900",
"_  c #FED801",
"`  c #FFD801",
"'  c #FED901",
"]  c #FDDA00",
"[  c #FCDA01",
"{  c #FDDB01",
"}  c #FEDB01",
"|  c #FDD802",
" . c #FCD902",
".. c #FDD902",
"X. c #FDD803",
"o. c #FED802",
"O. c #FED803",
"+. c #FDDC01",
"@. c #FCD809",
"#. c #FAD90C",
"$. c #FAD90D",
"%. c #F8C312",
"&. c #F8C414",
"*. c #FBD713",
"=. c #FCD713",
"-. c #F9D714",
";. c #FBD614",
":. c #FBD714",
">. c #FDD614",
",. c #FCD615",
"<. c #FAD812",
"1. c #FCD810",
"2. c #FCD813",
"3. c #FCD814",
"4. c #FCD914",
"5. c #FDD718",
"6. c #FCD819",
"7. c #FDE001",
"8. c #FEE001",
"9. c #FDE002",
"0. c #FDE102",
"q. c #FDE202",
"w. c #FDE203",
"e. c #FDE303",
"r. c #FDE402",
"t. c #FCE403",
"y. c #FDE602",
"u. c #FDE603",
"i. c #FDE703",
"p. c #FDE901",
"a. c #FEE801",
"s. c #FDEB01",
"d. c #FEEA01",
"f. c #FEED01",
"g. c #FDEE01",
"h. c #FFEF00",
"j. c #FEED02",
"k. c #FEED03",
"l. c #FEEF02",
"z. c #FFEF03",
"x. c #FDF000",
"c. c #FCF100",
"v. c #FDF100",
"b. c #FEF000",
"n. c #FFF000",
"m. c #FEF100",
"M. c #FEF001",
"N. c #FFF001",
"B. c #FBE412",
"V. c #FAE116",
"C. c #FBE714",
"Z. c #FBEA14",
"A. c #FBEF17",
"S. c #FCEF15",
"D. c #FCEE16",
"F. c #FDEE16",
"G. c #FCEF16",
"H. c #FDEE18",
"J. c #FCEE19",
"K. c #FBF017",
"L. c #F7D822",
"P. c #F8D820",
"I. c #F7EF27",
"U. c #F8EF24",
"Y. c #F6EF28",
"T. c #FBBA51",
"R. c #FAB952",
"E. c #FBBA52",
"W. c #FBDD4B",
"Q. c #FCDD4E",
"!. c #FDDC4F",
"~. c #FADE50",
"^. c #FCE37F",
"/. c #FBE47E",
"(. c #FAD59E",
"). c #FAE891",
"_. c #FBD5A7",
"`. c #FAD6A6",
"'. c #F9DDB0",
"]. c #FADDB5",
"[. c #FBE9A5",
"{. c #FCEAA4",
"}. c #FCEAA5",
"|. c #FCEEB4",
" X c #FAEDBB",
".X c #FBF0BB",
"XX c #FBF3CC",
"oX c #FCF2CD",
"OX c #F9ECD4",
"+X c #FCFADF",
"@X c #FCF6E8",
"#X c #FCF7EA",
"$X c #FAFAE8",
"%X c #FDFCEF",
"&X c #FEFDEE",
"*X c #FEFCEF",
"=X c #FEFEF4",
"-X c #FEFEF7",
";X c #FEFDFC",
":X c #FCFEFC",
">X c #FDFEFD",
",X c #FEFEFC",
"<X c #FFFEFC",
"1X c #FEFFFC",
"2X c #FEFEFD",
"3X c #FFFEFD",
"4X c #FEFFFD",
"5X c #FFFDFE",
"6X c #FCFEFE",
"7X c #FDFEFE",
"8X c #FFFEFE",
"9X c #FEFFFE",
/* pixels */
"                                                                                                                                ",
"                                                                                                                                ",
"                                                                                                                                ",
"                                                                                                                                ",
"                                                                                                                                ",
"                                                                                                                                ",
"                                                                                                                                ",
"                                                                                                                                ",
"                                                                                                                                ",
"                                                                                                                                ",
"                                                                                                                                ",
"                                                                                                                                ",
"                                                                                                                                ",
"                                                I.J.J.J.J.J.J.J.J.J.J.J.J.J.J.Y.                                                ",
"                                                K.v.h.h.h.h.h.h.h.h.h.h.h.h.h.D.                                                ",
"                                                J.v.v.v.v.v.v.v.v.v.v.v.v.v.v.A.                                                ",
"                                                C.i.i.i.i.i.i.i.i.i.i.i.i.i.i.B.                                                ",
"                                            v.v.w.) ) ) ) ) ) ) K K ) ) ) ) ) ) ) )                                             ",
"                                            v.v.w.) ) ) ) ) ) ) ) ) ) ) ) ) ) ) ) )                                             ",
"                                            h.h.w.) E #.#.@.) ) K K K K K ) ) ) ) )                                             ",
"                                      U.D.Z.) ) ) ) W.*X*X(.: : 3 3 3 3 < J ) K ) ) 2.4.P.                                      ",
"                                      D.v.d.) ) ) K !.4X4X`.: : : : : : : J K ) ) ) ) ) =.                                      ",
"                                      D.v.d.) K ) ) ~.4X4X`.: : : : : : : J ) ) K ) ) ) =.                                      ",
"                                      V.w.w.K ) ).|..X4X4XOX].'.F N N N N w.i.w.) ) ) ) =.                                      ",
"                                      :.) ) ) K oX4X4X4X4X4X4X-X5.) ) ) ) h.h.d.) ) ) ) =.                                      ",
"                                      :.) ) ) ) XX4X4X4X4X4X4X-X6.) ) ) ) h.h.d.) ) ) ) =.                                      ",
"                                      :.) ) ) )  X@X@X4X4X*X$X+X4.) ) ) ) h.v.d.) ) ) ) =.                                      ",
"                                      :.) ) ) ) 9 : R.4X4X[.K ) ) ) ) ) ) h.v.d.) ) ) ) =.                                      ",
"                                      :.) ) ) ) 9 : R.4X4X}.) ) ) ) ) ) ) h.v.i.) ) ) ) =.                                      ",
"                                      :.) ) K ) 9 : R.4X4X}.) ) ) K K ) ) h.h.d.) ) ) ) =.                                      ",
"                                      :.) ) ) ) 9 : b /.^.!.) ) ) ) ) ) ) h.v.i.) ) ) ) =.                                      ",
"                                      :.) ) ) ) 9 : 3 ) ) ) ) ) ) ) ) ) ) h.v.d.) ) ) ) =.                                      ",
"                                      :.) ) ) ) 9 : 3 ) ) ) ) ) ) ) ) ) ) h.h.i.) ) ) ) =.                                      ",
"                                      :.) ) ) ) 9 : 3 ) ) ) ) ) ) ) ) ) ) h.h.i.) ) ) ) =.                                      ",
"                                      :.) ) ) ) 9 : 3 ) ) ) ) ) ) ) ) ) ) h.v.i.) ) ) ) =.                                      ",
"                                      :.) ) ) ) 9 : 3 ) ) ) ) ) ) K K ) ) h.v.d.) ) ) ) =.                                      ",
"                                      :.) ) ) ) 9 : 3 ) ) ) ) ) ) ) ) ) ) h.v.d.) ) ) ) =.                                      ",
"                                      :.) ) ) ) 9 : 7 ) ) ) ) ) ) ) ) ) ) h.v.d.) ) ) ) 2.                                      ",
"                                      :.) ) ) ) 9 : 3 ) ) K K K K K K ) ) h.v.d.) ) ) K ,.                                      ",
"                                      :.) ) ) ) 9 : 7 ) ) ) ) ) ) ) ) ) K h.v.d.) ) ) ) 2.                                      ",
"                                      :.) ) ) ) V n N w.i.i.i.i.i.i.i.i.i.i.w.w.) ) S B &.                                      ",
"                                      *.) ) ) ) ) ) +.h.v.h.h.h.h.h.h.h.h.+.) ) ) ) 8 : p                                       ",
"                                      :.) ) ) ) ) ) ) v.v.v.v.v.v.v.v.v.v.) ) ) ) ) u : i                                       ",
"                                      L.,.<.K ) ) ) ) h.h.h.k.k.k.h.h.h.h.) ) K E E z d c                                       ",
"                                            ) ) ) ) K ) ) ) ) ) ) ) ) ) ) K ) C . :                                             ",
"                                            K ) ) ) ) ) ) ) ) ) ) ) ) ) ) ) ) C : :                                             ",
"                                            W ) ) ) ) ) ) ) ) ) ) ) ) K ) ) ) D : :                                             ",
"                                                %.9 9 9 9 9 9 9 9 9 9 9 9 9 9 x                                                 ",
"                                                p : : : : : : : : : : : : : : d                                                 ",
"                                                p : : : : : : : : : : : : : : d                                                 ",
"                                                v d d d d d d d d d d d d d d v                                                 ",
"                                                                                                                                ",
"                                                                                                                                ",
"                                                                                                                                ",
"                                                                                                                                ",
"                                                                                                                                ",
"                                                                                                                                ",
"                                                                                                                                ",
"                                                                                                                                ",
"                                                                                                                                ",
"                                                                                                                                ",
"                                                                                                                                ",
"                                                                                                                                ",
"                                                                                                                                "
};
