/* XPM */
static char *rcp50847076063743814[] = {
/* columns rows colors chars-per-pixel */
"64 64 168 2 ",
"   c #27231E",
".  c #29231E",
"X  c #2A2520",
"o  c #2F2B25",
"O  c #322C26",
"+  c #342F29",
"@  c #36312A",
"#  c #3B342D",
"$  c #3C3630",
"%  c #3E3932",
"&  c #433C35",
"*  c #453F38",
"=  c #494037",
"-  c #464139",
";  c #4A443C",
":  c #51453E",
">  c #50483E",
",  c #4D4741",
"<  c #4F4A42",
"1  c #544D44",
"2  c #594F45",
"3  c #534F49",
"4  c #565047",
"5  c #5B5147",
"6  c #565149",
"7  c #5B544C",
"8  c #5F584F",
"9  c #5A5650",
"0  c #5E5A52",
"q  c #62564D",
"w  c #63594E",
"e  c #635C53",
"r  c #6A5E53",
"t  c #635F58",
"y  c #676056",
"u  c #6A6157",
"i  c #65625B",
"p  c #6B645B",
"a  c #6B645A",
"s  c #69665B",
"d  c #68675B",
"f  c #69675B",
"g  c #6B665B",
"h  c #6B675B",
"j  c #6B6459",
"k  c #6C645A",
"l  c #6C645B",
"z  c #6D645B",
"x  c #6C655B",
"c  c #6D655B",
"v  c #6D665B",
"b  c #68635D",
"n  c #68645D",
"m  c #69645D",
"M  c #68645E",
"N  c #69645E",
"B  c #68655E",
"V  c #69655F",
"C  c #6A655F",
"Z  c #6D655C",
"A  c #6E655C",
"S  c #6C665C",
"D  c #6D665C",
"F  c #6C675C",
"G  c #6D675D",
"H  c #6E665C",
"J  c #6F665C",
"K  c #6E665D",
"L  c #6F665D",
"P  c #6E675D",
"I  c #6F675D",
"U  c #6F675E",
"Y  c #6C655B",
"T  c #6A695C",
"R  c #6B695D",
"E  c #6E685E",
"W  c #6F685E",
"Q  c #6E6A5F",
"!  c #6E685E",
"~  c #706557",
"^  c #706258",
"/  c #706259",
"(  c #706359",
")  c #71635A",
"_  c #706659",
"`  c #726759",
"'  c #736759",
"]  c #72645B",
"[  c #73655B",
"{  c #74665B",
"}  c #73655C",
"|  c #70675D",
" . c #70675E",
".. c #74665C",
"X. c #75675C",
"o. c #74665D",
"O. c #75675D",
"+. c #71665C",
"@. c #72685A",
"#. c #73685A",
"$. c #74685A",
"%. c #74695B",
"&. c #75695B",
"*. c #70685E",
"=. c #70695E",
"-. c #71695E",
";. c #70685F",
":. c #71685F",
">. c #70695F",
",. c #71695F",
"<. c #72695F",
"1. c #726A5F",
"2. c #76685D",
"3. c #766A5C",
"4. c #776B5C",
"5. c #76685E",
"6. c #77695F",
"7. c #72695D",
"8. c #786C5D",
"9. c #796D5D",
"0. c #786C5E",
"q. c #796D5D",
"w. c #6B6660",
"e. c #6B6760",
"r. c #6D6D61",
"t. c #6F6C60",
"y. c #6F6D61",
"u. c #6F6E62",
"i. c #6F6B60",
"p. c #716960",
"a. c #726960",
"s. c #716A60",
"d. c #706B60",
"f. c #716B60",
"g. c #716B61",
"h. c #726A60",
"j. c #726B60",
"k. c #736B60",
"l. c #736A61",
"z. c #726B61",
"x. c #736B61",
"c. c #746B62",
"v. c #706C61",
"b. c #716C61",
"n. c #716D61",
"m. c #726C62",
"M. c #736C62",
"N. c #706E62",
"B. c #736E63",
"V. c #756C61",
"C. c #746D61",
"Z. c #746C62",
"A. c #756C62",
"S. c #756D62",
"D. c #756C63",
"F. c #756D63",
"G. c #766D62",
"H. c #746E62",
"J. c #766E63",
"K. c #736B61",
"L. c #796B60",
"P. c #7A6C60",
"I. c #777065",
"U. c #7B7163",
"Y. c #7D7568",
"T. c #807464",
"R. c #857867",
"E. c #867968",
/* pixels */
"e A A u e i t t t i i i t 6 6 y y y A W W A # 4. .r ) _ ....4...e A A u y A x p p  . .A u 8 6 y y y A W :.A # l.A r u x  .:.:.A ",
"r 1 e ; M i i t t M M i t 0 e y y y u A W x # 4._ ) ) r z ' ..4.r 1 e ; l. .A p A l.l. .u r e y y y u A W x @ l.x z z r u A :.:.",
"7 A e ; i i i i i M M M i i 4 y y u u u A e 1 r  . .) ........_ 7 W e 1 :. .:.A :.l.l.l.A A 4 y y u u u A e 1 r A A u A  .A :.A ",
"y :.:.6 i i i i b M M M M i 6 u p u u u x u A e  ..._ 4.L.L.L.e y :.:.7 :.W W W l.l.l.S.l.A 4 u z u u u x u A e A A A :.S.S.S.e ",
":. .:.6 M M i M M M M w.w.t e p :.A x u 8 A e < 7 u z u w q 7 :.:.W W 6 l.l.W l.B.l.l.S.S.p e x :.A x u 8 A e 1 4 y p u e 7 4 :.",
"A A A e i M M M M M M M M 6 S.p :.A u e @ 7 d t.B.S.l.l.x &  .A A A T 0 p B.B.B.t.B.B.B.l.4 S.p :.A u e @ 7 p l.S.S.l.l.x & A A ",
"A A A 8 r t M M M M M M 6 3 A u u u r % 8 M d p A l.l.l.l.W e A A A T 7 r y t.t.t.B.B.B.7 3 A u u u r % q A x x A l.l.l.l.W e A ",
"W A 8 x  .S.x 3 < 9 0 < O $ e x y e e 3 A p p x A l.l.l.l.l.8 W W A 8 x A S.A 6 4 e r 3 O $ e p y e e 3 A x x x A l.l.l.l.l.8 W ",
"p 0 , 8 e r  .e & _ %.9.4.%.u q & 8 y r x x x A A l.:.:.l.l.7 A p 0 < 8 e r  .0 & _ %.9.4.#.u q & 8 y r x x x A A l.:.:.l.l.4 A ",
"u S.c.l.S.x e # y 9.9.4.%.%.' ' %.r ; A x x A A A W W W W l.- 8 u S.c.l.S.x e # u 9.9.4.%.%.' _ %.r ; A x x A A A W W W :.l.* 8 ",
"A A A A A A  .8 ~ 9.9.4.%.%._ _ _ #.r 4 p x A A A A W W W A e :.A A A A A A  .8 ~ 9.9.8.%.%._ _ _ %.r 4 p x A A A A W W W A e :.",
"A A A A A A A u r 9.9.9.9.%._ _ _ _ #.& y p A A x A W W W 4 l.A A A A A A A A u r 9.9.4.9.%._ _ _ _ _ & y p A A x A W W W 4 l.A ",
"A A :.A x p p u 2 9.9.9.9.9._ _ j x j e 8 u u x x x A :.0 1 l.:.A A :.A x p p u 2 9.9.4.4.4._ _ u _ ) e 8 u u x x x A :.e 1 l.:.",
"S.l.S.W x p u u # #.9.9.9.9._ _ j j u 4 u 8 4 y p y e r p 8 I.Y.S.l.S.W x p u u # %.9.9.4.4._ _ u u ^ 4 u 8 4 y p y e r p 8 I.Y.",
"Y.J.S.:.A x u 8 X & u 4.4._ _ x j u r $ 4 e e e 8 4 < 8 l.S.4 S.Y.J.S.:.A x u 8 X & u 4.4._ _ _ u u r $ 4 e e e 8 4 < 8 l.S.4 S.",
"4 u W x y e 1 7 t t 7 4 w r r e r q ; 8 x u u x A  .S.I.x 8 e :.4 u W x r e 1 8 y p e 7 q r r r r q ; q x u u x A  .S.I.x 8 e :.",
"A y r r 7 & < t t t i t ; y 8 ; r l.e A A A x z x A l.S.S.1 u c. .y r r 8 & 1 u p A A u > u w > r 4.e A A A x z x A l.S.S.1 u c.",
"x u u p p 7 $ t t t t 0 p d y e A c.S.y l.:.:.x A A :.A 1 y S.S.x u u z u 7 % u u x A u _ _ ^ r ' L.P.y l.:.:.x A A :.A 1 y S.S.",
"p u u x r 8 ; 6 t t t 6 W y y e u c.c.4  .:.:. .u e 4 x I.r :.A x u u z r 8 - 8 x x x q 4.~ u r ) L.P.7 :.:.:. .u e 4 x I.r :.A ",
"A x x e W p w r 7 6 1 r u y y e x l.l.; r u 2 % 7 q 4 r u 3 A A A x x e A u e y 8 9 6 u ~ ~ u r _ 4.4.; e y 1 $ 7 8 4 r u 3 A A ",
"x p 8 3 4 - r _ x x 3 p y y y 8 u l.q 9.9.9.9.5 4... .4.) q 7 u x p 8 1 4 ; r A x p 1 _ ~ ~ u q u 4.q l.:.:.:.6 l.A A :.u 8 4 u ",
"1 8 :.A A A 4 x x x 8 e y y e & 8 u u 9.4.9.9.r  . ._ _  . ...q < 8 :.A A A 4 u p p 8 r ~ ~ u = q u y :.W :.W r A A A A A A  .7 ",
"u :.x A A A x 7 ) _ r . @ ; 1 8 4 1 5 %.%.9.w ..) ) _  . . ...q y :.x A A A A 4 u p r . # ; 1 6 3 1 1 A x :.8 :.x x x A A A A 7 ",
":.A :.:.A x x z 2 w 2 r l.B.A A A A l.e # ; w _ ) ) ) _  ...4.e :.A :.:.A A A z 1 e 3 0 b M i t i i M 7 $ - e p p p p A A A W e ",
"W W l.B.B. .A A e ; S. .:.:. .A  .A A A 1 O _ ) ) ) _ ......r A W W l.B.B. .A A e - w.i i i i i i i i i , O A p p p p W W  .r A ",
"W l.l.B.l. . .A r u :. . . . . . .A A A r ; ) z ) ) ........4 l.W l.l.B.l. . .A r t i i i i i i i i i i 0 ; u u p p W W W  .4 l.",
":.l.l.B.l. . .A 7 l.A  .A A :.:. . .A A e + u ) ) .. .....u r W :.l.l.B.l. . .A 7 M i i i i i i i i i i 7 + y u p A A W W y r W ",
":.:.l.l.:.A A A 1 y A  .A A :.l.l.l.:.A 7 t t u ) _  .) w # x :.:.:.l.l.:.A A A 1 0 i i i i i n i i i i 8 x y y p x A u 8 # x :.",
":.:.l.l.l.A A A 8 4 p A x z A A :.l.:.0 M i t 7 ; 8 e e r ; e :.:.:.l.l.l.A A A q 4 t i t t i i i n i 7 l.A p e ; 7 e e r ; e :.",
"A  .l.l.A A A u 8 3 1 1 8 e r u u e 1 6 i t 0 4 :.A A A A :.8 z A  .l.l.A A A u q 1 3 1 6 7 0 0 t 9 < 7 A x u 8 :.A A A A W 8 z ",
"1 e 1 8 u r 8 8 t W x A 7 @ X ; w _ 9.~ 8 < + r x A A A A  .A 8 1 e 1 8 u r 8 8 r A x A 7 @ X - 8 u :.u e 3 + r x A A A A  .A 8 ",
"e A  .r & e W p u u A A u e & #.~ 4.9.4.4.~ O r x x p x  .:. .A e A :.r & e W p u u A A u e % p u A :.W A y O r x x p x  .:. .A ",
"e A A u y A x p p W W A u 8 4 u j j 4.9.4.4.# l.A r u x  .:.:.W e A A u y A x p p  . .A u 8 6 y y y A W W A # l.A r u x  .:.:.A ",
"r 1 e ; l. .A p M l.B.:.u y e ~ ~ ~ _ 4.4.%.# :.x z u r u W :.:.r 1 e ; l. .A p A l.l.W i y e y y y u A W x @ :.x z z r u A :.:.",
"4 i 9 < :. .W A l.B.l.l.A A q ~ ~ ~ ~ #.4.r 1 r A A u W W W :.A 7 A e 1 :. .:.A l.B.B.l.A A 4 y y u u u A e 2 r A A u A  .A :.A ",
"0 i i 4 :.W W W l.l.l.S.l.A 7 ~ _ _ ~ ~ %.x A e A A T W B.S.S.e y :.:.7 :.W W W l.B.l.B.l.A 4 u z u u u x _ 4.e A A A :.S.S.S.e ",
"i i i 3 l.l.W l.B.l.l.S.S.x w %.9.%.%.~ q A e < 7 y p i e 7 4 l.:.A :.4 l.l.W l.B.l.l.S.S.x e x :.A x u 8 :.u 1 4 y p u e 7 6 b ",
"i i i e x S.B.B.l.l.l.l.B.7 U._ 9.%._ u # 7 p l.B.B.B.B.x & A A A A A e x B.B.B.B.l.l.c.c.4 S.p :.A u e @ 7 p l.J.S.l.l.x & i i ",
"i i t 8 r y l.l.l.l.l.c.8 2 4._ ~ _ u & q W p p T B.B.l.l.W 0 x A A A 8 r y l.B.l.l.l.c.8 3 A u u u r % q A x x A l.l.l.l.W 7 i ",
"i i 6 x  .S.A 6 1 e r 1 O # r #.j e e 3 W p p p T l.l.l.l.l.8 W W A 8 x  .S.A 6 1 e r 1 O # e p y e e 3 A x x x A l.l.l.l.l.6 i ",
"t 7 ; 8 e r W e & ) _ .. .) r q * 8 y y p d p M A l.:.:.l.l.4 A p 0 > 8 e r  .e % u A :.A x y 8 & 8 y r x x x A A l.:.:.l.l.6 i ",
"u S.c.l.S.x e # r 4.4. .) ) ) z  .e ; A p p M A A W W W :.l.* q _ U.U.P.U.%.e # r :.:.A p p u u x e ; A x x A A A W W W :.l.* 7 ",
"A A A A A A  .8 u 4.4..._ ) z z ) ) e 4 p p A A A A W W W A u 9.4.4.4.4.%.4.9.w u :.:.A x p u u u u e 4 p x A A A A W W W A e :.",
"A A A A A A A u w 4...4.4._ z z ) ) ) & y p A A x A W W W 5 9.%.4.4.4.4.%.%.4.~ e :.W W W x u u u u p & y p A A x A W W W 4 l.A ",
"A A :.A x p p u 1 ....4.4.4.) r r u u e 8 u u x x x A :.e 2 9.9.4.4.9.4.#.#.%.~ 1  . .W W W p y y y y e 8 u u x x x A :.e 1 l.:.",
"S.l.S.W x x u u # _ ..4.4.4.) r r r r 4 u 8 4 y p y e r p 8 T.R.U.9.U.9.%.#._ _ # x W W W W p u y y y 4 u 8 4 y p y e r p 8 I.Y.",
"Y.J.S.:.A x u 8 X & r _ _ ) r r r r e $ 4 e e e 8 4 < 8 l.S.4 T.E.U.U.9.4.%._ w X & y A A p y y y y e $ 4 e e e 8 4 < 8 l.S.4 S.",
"4 u W x r e 1 8 u u e 7 w e e e e 7 ; 8 x u u x A  .S.I.x 8 e :.7 _ 4.%.u r 5 q u ) w 4 8 e e e e 7 - 8 x u u x A  .S.I.x 8 e :.",
"8.~ u u q & 1 u p A A u ; r 8 ; y B.e M A A x z x A l.S.S.1 u c. .y r r 8 & 2 z ) _ _ u ; r 8 ; r l.e A A A x z x A l.S.S.1 _ 9.",
"%._ _ %._ q & u u x A u p u y e W B.S.y l.:.:.x A A :.A 1 y S.S.x u u z u 7 & ) ) _ _ u u u y e A c.S.y l.:.:.x A A :.A 1 u U.U.",
"%._ %.%.u q - 8 x x x 8 A y y e p B.B.7 :.:.:. .u e 4 x I.r :.A x u u z r 8 - q _ _ _ q W y y e u c.c.4  .:.:. .u e 4 x I.u 9.4.",
"%.%.%.e  .z e y 8 8 6 r u y y e p B.l.; e y 1 $ 7 8 4 r u 3 A A A x x e A u e y q w 7 r u y y e x l.l.; e y 1 $ 7 8 4 r u 1 4.%.",
"%.%.q 1 4 ; r A x p 1 p y y y 8 u l.8 B.W W W 6 l.A A :.u 8 4 u x p 7 < 6 - r A x p 1 p y y y 8 u l.8 l.:.:.:.6 l.A A :.u 8 7 ~ ",
"2 q :.A A A 4 u p p 8 e y y e & 7 i y W W W W r A A A A A A  .8 1 6 i i i i 3 u p p 8 e y y e & 8 u y :.:.:.:.r A A A A A A  .8 ",
"u :.x A A A A 4 u p r   @ ; 1 8 6 1 1 A x :.8 :.x x x A A A A 7 t n t i i i i 1 u p r   @ ; 1 7 4 1 1 A x :.8 :.x x x A A A A 7 ",
":.A :.:.A A A z 1 e 1 r l.l.A A A A l.e $ - e x x z z A A A A 7 i i i d i i i t < e 1 r l.l.A A A A :.e $ - e x p z z A A A W e ",
"W W l.B.B. .A A e ; S. . . . .A  .A A A 1 O A p z z x A  . .e i i i M M M i i i 9 ; S.:. . .A W W W W A 3 o A p x z x  . . .r A ",
"W l.l.B.l. . .A r u :. . . . . . .A A A r ; u u u z A  . . .6 M i b M M M i i i 0 u W  .:.W W W W W W A t - u u u z A  . . .4 l.",
":.l.l.B.l. . .A 7 l.A  .A A W W  . .A A q + y u p A A A  .r 0 i i M b M M i i i 6 l.W W W W W W W W W M 8 + y u p A A A  .y r W ",
":.:.l.l.:.A A A 1 y A  .A A :.l.l.l.:.A e x y y p x A u 8 # i i i i n b i i i i < y T W W W W i.i.l.:.A e x y y p x A u 8 # x :.",
":.:.l.l.l.A A A 8 4 p A x z A A :.l.:.e l.A p e ; 7 e r r : 7 i i i b n i i i i 7 6 p T p p A A :.l.W 0 l.A p e ; 7 e e r ; e :.",
"A  .l.l.A A A u 8 1 < 1 7 e r u u e 1 8 A x u 7 4._  . .....q t i i b b i i i t 7 3 3 4 7 0 y i u e 1 7 A x u 8 :.A A A A :.8 z ",
"1 e 1 8 u r 7 6 0 i i t 3 + X ; q u :.u e 1 + r _  . . .......q 3 e 3 6 t 0 6 7 r A p x 8 @ X - 8 u :.u e 1 + r x A A A A  .A 8 ",
"e x  .r & 9 i t t t i t t 7 % u u A :.W A y O r _ ) ) _ ..4.....e A  .r & e W p u u A A u e % u u A :.W A y O r x x p x  .:. .A "
};
