/* XPM */
static char *rcp24609896093918565[] = {
/* columns rows colors chars-per-pixel */
"64 64 256 2 ",
"   c #6C6C6C",
".  c #747473",
"X  c #7B7C7B",
"o  c #7F7A71",
"O  c #A60102",
"+  c #AB0301",
"@  c #A80F02",
"#  c #BB0402",
"$  c #B50602",
"%  c #B91704",
"&  c #AC1805",
"*  c #B92604",
"=  c #BA3506",
"-  c #C40302",
";  c #CB0302",
":  c #CC0B02",
">  c #C60A03",
",  c #D30302",
"<  c #DB0302",
"1  c #D30A02",
"2  c #DC0B02",
"3  c #CC1403",
"4  c #C71704",
"5  c #D41303",
"6  c #DC1304",
"7  c #D41B04",
"8  c #DC1B03",
"9  c #D91F09",
"0  c #E40402",
"q  c #ED0302",
"w  c #E20B02",
"e  c #EC0B03",
"r  c #F30401",
"t  c #F40B02",
"y  c #F80B02",
"u  c #F80702",
"i  c #E31402",
"p  c #EB1303",
"a  c #E31B03",
"s  c #EC1B03",
"d  c #EA190C",
"f  c #F41403",
"g  c #F41B02",
"h  c #F91903",
"j  c #CA2806",
"k  c #DD2304",
"l  c #D42C04",
"z  c #DC2B04",
"x  c #D62606",
"c  c #C83606",
"v  c #DB3304",
"b  c #DC3C05",
"n  c #D63907",
"m  c #E52403",
"M  c #ED2303",
"N  c #E32B04",
"B  c #EC2B03",
"V  c #E32709",
"C  c #F32403",
"Z  c #F82403",
"A  c #F42B03",
"S  c #F42D09",
"D  c #F72A06",
"F  c #E33404",
"G  c #EC3304",
"H  c #E43B04",
"J  c #ED3B04",
"K  c #EA3909",
"L  c #F33403",
"P  c #F83403",
"I  c #F43B03",
"U  c #F53309",
"Y  c #F33C09",
"T  c #F93C03",
"R  c #E92F16",
"E  c #ED2922",
"W  c #CC3C3A",
"Q  c #BD4A06",
"!  c #BB5409",
"~  c #DC4304",
"^  c #DA4908",
"/  c #DA5305",
"(  c #D85607",
")  c #C94B04",
"_  c #E54405",
"`  c #EB4404",
"'  c #E44C03",
"]  c #ED4C04",
"[  c #E34408",
"{  c #EA4409",
"}  c #E84D0A",
"|  c #F44403",
" . c #F84504",
".. c #F44C04",
"X. c #F84C03",
"o. c #F34309",
"O. c #F54C09",
"+. c #F94508",
"@. c #EC5304",
"#. c #E45C06",
"$. c #ED5B04",
"%. c #E6550A",
"&. c #EB540A",
"*. c #E45C09",
"=. c #EC5C0A",
"-. c #E45204",
";. c #F45404",
":. c #F85305",
">. c #F45B04",
",. c #F85B03",
"<. c #F45409",
"1. c #F35B09",
"2. c #F8560A",
"3. c #E74515",
"4. c #EB5A14",
"5. c #DC6303",
"6. c #D66806",
"7. c #DA7509",
"8. c #CB6C03",
"9. c #E56405",
"0. c #ED6304",
"q. c #ED6B04",
"w. c #EA6C0A",
"e. c #E7670A",
"r. c #F46404",
"t. c #F86304",
"y. c #F46B04",
"u. c #F4640A",
"i. c #F46B0A",
"p. c #F86D07",
"a. c #EC7505",
"s. c #EC7A04",
"d. c #E4740B",
"f. c #EE7309",
"g. c #EC7C0B",
"h. c #E47606",
"j. c #F47304",
"k. c #F87404",
"l. c #F47C03",
"z. c #F87A03",
"x. c #F3740A",
"c. c #F57B0A",
"v. c #F87C08",
"b. c #F9730B",
"n. c #EF6F11",
"m. c #D9503A",
"M. c #E77B2F",
"N. c #E54F24",
"B. c #9B615A",
"V. c #BF6253",
"C. c #87736F",
"Z. c #92736F",
"A. c #A7776D",
"S. c #B85953",
"D. c #CE584E",
"F. c #CD7757",
"G. c #D36853",
"H. c #C36A62",
"J. c #CC7566",
"K. c #E45B51",
"L. c #D98409",
"P. c #CA8B06",
"I. c #ED8B04",
"U. c #EB8709",
"Y. c #F48304",
"T. c #F88306",
"R. c #F58B04",
"E. c #F98B03",
"W. c #F4830A",
"Q. c #F48B0A",
"!. c #F9860A",
"~. c #ED9303",
"^. c #EB9C03",
"/. c #E99B0C",
"(. c #F49304",
"). c #F89203",
"_. c #F59B04",
"`. c #F3930B",
"'. c #F59C0C",
"]. c #F99908",
"[. c #E78A19",
"{. c #E59E11",
"}. c #F39911",
"|. c #F28C13",
" X c #D8A307",
".X c #EBA605",
"XX c #F5A304",
"oX c #F8A205",
"OX c #F4AC04",
"+X c #F5A40B",
"@X c #F5AA0A",
"#X c #F9AB07",
"$X c #F5B304",
"%X c #F9B403",
"&X c #F4BC04",
"*X c #F4B30B",
"=X c #F7BA09",
"-X c #F2B314",
";X c #EA8220",
":X c #DFB534",
">X c #F5C404",
",X c #F5CB04",
"<X c #F5C20B",
"1X c #F5CC0A",
"2X c #F9CA07",
"3X c #F6D504",
"4X c #F6DA04",
"5X c #F5D50A",
"6X c #F6DB0A",
"7X c #F8D809",
"8X c #F8C711",
"9X c #EFD00F",
"0X c #F5E305",
"qX c #F6EB05",
"wX c #F7E807",
"eX c #F7F303",
"rX c #FAEF10",
"tX c #8F897B",
"yX c #AE817D",
"uX c #B4867F",
"iX c #A99074",
"pX c #D38D51",
"aX c #D4BD5E",
"sX c #D78F70",
"dX c #D8A869",
"fX c #E58C46",
"gX c #848483",
"hX c #8C8C8B",
"jX c #898A87",
"kX c #978884",
"lX c #8F908E",
"zX c #90908F",
"xX c #949494",
"cX c #999996",
"vX c #9C9C9B",
"bX c #979998",
"nX c #A88986",
"mX c #B98D89",
"MX c #B69A86",
"NX c #B79994",
"BX c #A69F99",
"VX c #AAA095",
"CX c #BCA28D",
"ZX c #9FA0A0",
"AX c #A3A3A3",
"SX c #ACACAB",
"DX c #A9A9A7",
"FX c #B1A8A3",
"GX c #B1B1AF",
"HX c #B2B3B2",
"JX c #BBBBBB",
"KX c #B8B8B7",
"LX c #C49A97",
"PX c #DB8D82",
"IX c #D0A3A1",
"UX c #C2C2C2",
/* pixels */
"hXDXvXgXjXvXhXDXAXgXhXvXvXAXjXDXvXgXhXvXxXgXbXJXvXX gXAXDXSXX   hXSXxXgXX     hXDXbXX vXbXhXAXJXX X . vXAXDXDXhXAXvXvXhXhXAXAXhX",
"bXDXvXhXxXvXxXHXvXhXbXvXbXAXbXDXvXhXxXvXbXvXhXSXvXhXvXbXAXZXxXX hXDXvXhX.   gXbXvXbXjXvXvXbXAXDXgXgXbXbXvXDXDXvXAXxXZXbXxXAXSXhX",
"HXAXbXvXAXDXvXUXbXAXSXAXhXvXGXDXbXvXAXDXAXJX. gXxXSXJXX AXgXDXxXjXAXHXxX  . AXAXgXbXZXDXAXGXAX. hXvXUXhXxXAXAXGXvXhXSXDXvXvXUXbX",
"vXSXhXvXAXvXbXHXbXDXDXAXxXAXvXSXhXvXAXvXHXHXVXxXxXDXJXhXxXvXAXxXbXVXlXgXlXhXvXvXbXgXDXvXSXGXDXvXhXxXUXbXhXvXSXvXAXzXDXDXAXvXSXbX",
"hXHXhXvXAXxXbXZXvXDXDXvXbXDXhXHXhXvXDXvXJXSXJXvXzXDXKXxXgXDXvXbXvXvX. . AXbXbXvXAXX SXbXHXHXHXHXxXhXJXvXhXvXSXzXDXbXAXDXAXvXvXbX",
"SXHXSXxXgXgXgXJXxX  hXAXDXSXSXHXSXxXgXhXDXbXX hXZXvXbXJXgXDXbXxXgXX SXJXbXxXxXvXSXDXgXgXAXvXhXX xXDXhXHXvXbXHXSXDXDXAXX . vXKXgX",
"DXLXFXzXgXkXA.IXyXB.A.mXNXAXNXDXNXiXtXkXLXuXtXxXVXMXiXSXiXLXuXyXA.A.NXHXuXkXkXNXHXDXgXiXVXbXhXgXcXCXiXFXvXxXFXLXDXCXBXZ.Z.vXHXgX",
"hXE mXhXhXnXP u p I I B W C.a C.m.@XaXnXg f nXDXsX.X:Xo Y.| I z #.c.E AX3.B.D.PXJXbXgX[.MXjXgXvXFX_.oXMXbXlXA.E DX[.MXH.H.vXDXhX",
"F.R K.F.pXpXQ.u ] '.j.L N.D.p G.M.W.M.D.A y.pXdXfXs.;XpX>.j { v H :.d J.R m.m.K.sXdXD.4.G.V.S.H.sXj.q.G.G.G.pX}.dX4.F.m.m.J.dXF.",
">.` s j.R.R.*Xu t.=XR.I >.P e ,.R.r.r e L R.k._.l. .;.@Xt + } v 8 Z u g t :.J q @.oXr p ..F 7 H r.X.w q u | R.,X_.L ~ F i 5.&Xy.",
"f 5 p >.r.J l 0 L L U  .:.C ,X&X0X%Xt.g  .;...;.>.k.c.A _...I P  .X.P 0 6 x.l.=.F r. .:.;.L f ..R.Y.& > .X X= >.D t f M ^.9X= P ",
"0 1 B &.&.B , 0 L L A | ..g <X@X1X@X=.M ;.y.| X.;.j.x.e `.r...L I .. ._ n i.j.e._ >.` :...I o.r.R._.= 3 /.{.c I t 1.` N ^.9XQ | ",
"O p 2.c 3 Z r q >.y...M z r r f D m 6 N y.&Xo.:.;.I g < ; `.j.H 0 A r.(.z.I q 0.R.t.: L D ;.(.%XR.>Xl.I f >.x.< a 8X~.@.` l.XXl.",
"L.Q.%.z a I O.O.`.j.| M 8 r C '.R.( > 7 | l.A I ..X.>.U.d.i...B f g b 9.+X-.i ` r.o.%...u.;.r.l.y.(.=X$.g j.+XU.I Q.q.I I r.Y.z.",
"OX%X/ q Z  .t.t.%Xl.| m < q L 1X&X8.$ , r Z t g | >.j.&X_.L g g g p 3 8 &X5.i B U g y.;.Y.$.f L X.t.7Xq.g Y.>X$X .Z I D A X.>.j.",
"[ ^ g.j...I j.n O.I >.y.r.I I 1.y.` q q u A W.@.N m F Q H U.y.H { *.$ J 1.F M >.l. .C h U k < t C l.<.x , F 1.W.h f P A r.XX>X>X",
"0 8 g.j...G i.l f C ;.y.y.u.L A ..G C I ..O.(.0.N w a % i I.Q.#.{ e.! H L B J t.l. .r S L k 2 t C _.<.x ; < G u.t g I  .i..X>X&X",
"r | I I v $ M P i ; k B r.=Xi 0 q C >.R.%XE.).y.| f Z | P k.6XXXA j.8XO m Z y.j.D u r k.l.>.A C I eX$X( 3 ; < r r  .t.z.0.w g g ",
"r t.>.` z ( ~.y.s N 9.q.u.W.2 < M  .y.R.R.e.OXY.;.I L L r.j.+Xj.s ( [.) I.....;.P D , ;.>.~ ( l.I *XY._ i < 0 r g @Xz.>.{ < i f ",
"t l.z.' N l.3XR.g  .Q._.i.u < , G ,.Y.).;.; <X(.y.;.| f R.y.L t , + : y.>X0.q C I I O q M 4 P.$XP P r C g r r t A rX(.I q ; ; q ",
"5XwXQ.` f L 1.I w g >.9.j t < { r.r.:.J k q 1.O.J m i : j. .i...s , 2 ..u.>.2.j.W.' w.8 1 2 G >.y.Y.p t u L r.Q.>.Q.r.| L J q q ",
"0XqXR.I t f t C 3.C O.^ j f < ] p.r.I e 6 C A O.{ V w : r.L j.>.G V N | I :.r.l.W.' y.9 : a U O.y.Y.p q u I y.R.j.k.>.O.O.O.S C ",
";...L D C s f z.3Xl.L t.v.A r g t.] w 8 | j.x *XOXj.g r t I ;.>.r.Y.].A t r W.T.r r ; f q i.OX=XI g 0 ; 0 ..r.I >X&X5.^.XXj.E.Y.",
" .| >.r.;.M I y.0XY.x._.+XC r u.l.$.0 a ] _.N |.Q.r.| W.O.G ....;.i.W.L `.0.w.e.G =.# t q >.(.+Xj.| 1 - ~ R.OXx.`.'.' f.c.2.i.0.",
"y T T.(.z.L ;.X.qX(.XX3X5Xr r ]._.r.r g ..,XU g :.2.r.2Xz.m I A M G ;.| 4X^./ 5 ' (.O r r | r.l._.y.: + 6.&XqX+Xr :.C r r r r < ",
"P D v.a.~ a M k h.;.l.(.W.u D l.7X*Xx.o.D r.f t C i.@X2XI 2 7 K ..I N 8 f.>.G e M ..a t G L L I ..;.e 0 G i.R.j.f x s f C A 2 , ",
"| Z b.9.x 2 r 1 w  .u.p.1.r D p.6X>XT...t t f t r i.*X=XB k : H O.| z < U  .L f t g U f { J C g g ..s r r I >.2.g ; a C L { 3 ; ",
",XU r ; $ , r r r O.I 0 ; , r ..).Y.2.r u u Y.| : # < s 0X3Xq.u .._.rXg u p._.Q.u C qXY.j.XXoXk.y.y.l.I r L ..f w ; { (.,X6X@.1 ",
"OXA q ; - < q < 1.x.@.< - - q I z.y.{ < < S +X`.7.( p A $XOXu.A J h.-Xf O.1.l.w.0 g &Xj.y.(.XX(.j.*X@X;.r I u.W.s < K l.>X6X~ 8 ",
";.f r < < r t O `.oXq.1 - O < t X.I < O + X.2X4X&XT.Z T t t p...0 ; ; u k.I r 0 , r g  .,.j.XX&Xl.eX0Xq.r I Y.2XZ r r :.$X9X+ Z ",
"z o.M e $.c.r , i.>.I G _ z q f.j.Q.a.k #.$Xx.Q.l...B >.l.f J G ] q.#.Y.y.L p.f.w 1 ..z I I ;.x.T.(.U.g.>.I ;.d.` 2 6 ] j.d.; f ",
", ..B e i.].r 0 >.A f I :.J r I.l.+XQ.A y.1XU 2...A B r._.s q M >.T.j.oXr.A !.W.p : 2.5 C f r ` Y.I v Q.j.| G z @.5 6 ] ..2 , u ",
"r ..:.:.;.;.2 l.Y.~ 2 0 q ; t y.| 8 , i A r A 2.I Q.3X>XeX(.| P .... ...r.Q.r.i.].| P P :.| N l r.I T.>._.OXU.{ Y.C g m U.=X| 5 ",
"U  .X.` ] >.%.0.y.' ' [ < 2 L *.I a < s I I D ] G j.OX_.,Xa.G I r.y.I ;.>.j.] %.g.y...A | | G k ;.N y.x.Q.~.s.q.l.:.L M a.'.r.F ",
"t.S P k ~ j.Q.0 t t.R.7.$ s r.& m f r B >.j.Z N a r t g A 8 2 ] R.+XL >.X.A p , ) _.r.i t ..| r u - t ].j.I j.XXj.E...s q ..(.,.",
"Y 8 8 d.^.@Xu.q 0 | r.U.U.;.r.v s e #.(.`.{ `./ a s C g >.` q.@.1.i.g I O...s.I.d.u.I s f N d.(.>.F l.n.x.y.r.x.;.r...C | I.3XXX",
"r ; ; U.&X<XA q , B ..Q.#Xt.y.T g 0 h.%X+X8 =X5.6 B G g j.:.T.$.f g q s :.>.].OXQ.A f C f 6 L.>Xk...]...j.Y.>.X.| X...A ;.XXeX&X",
"r q q ..;.I I I p.b.:.A M l j.C 2.!.d.5 8 ` I F M >.T.+.e t f < 8 ;.`.I 6 s 4 4 ' `.t.6 u.) P.*XA _.& , s I X.2.A -Xl._ 6 z L C ",
">.J M I o.A L q.r.y.] s s z r.M 2.c.w.8 w b A B J t.k.+.r L I N F r.].] i p 7 4 _ (.(.V 1.6.L.+Xf.Q.Q ( ` I O.O.C }.y.F 1 l >.a.",
"%XQ.X.g q 2 k &X| B 7 1 a P M 1 G I I I q O m C y.j.L u r k.l.>.t.E.).r.D f L I ..Y.eXI I XX'.y.6XA (.%XR.>.O.g q Z t < # ! $X4X",
"h./ o...u.f.` 7.}.f.%.{ L C w.%.G D M k 2 ( /.;.| [ x S ; ] ;.n b r.Y.(.| g 1.Q.'.r.{.1.y.c.i.;.`.g.9.7.*.J G J x.U f 0 < b Y.`.",
"< , J ,.Y.(.:.; <X_.y.;. .p R.y.L t 0 ; : y.>X0.q , % I O q M 4 ; L z.OX;.C p.$X<X| , j.l.;.D P Z ^.a $ 5 p 8 ] _.I f r q B >.A ",
"0XwXQ.I C C f r K S :./ 4 y D x 5 &.0.#.Q.r.y...I N < 6 B k.| ;.' 1 m F I A C z c f ;.k.>.F H y.R.l.P J B f L r.).E.XXR.u.D f w ",
"4X6XW.I t f t I 9.J { ( c h u 2 l &.=.#.Q.r.@.i.r.{ w 0 A j...;.-.n [ a S D Y n - t ] u...[ #.Q.OXj.;.I A C I y.XXU.'.(.j.I g < ",
";. .L D M s f l.3Xl.j ) v.A r g t.] w 8 ` k.x *XOXj.g r u I ;.;.r.Y.].A t r T.T.r r - f q i.XX,XqXy.R.| I X.r.Y.,Xj ] Y.E.t.I ; ",
"&X| I c.h.5 g >.OXr.m H >.t.>.A ..G a..XQ.-.7 7.a...g A O.r.` J | $.5.8 1.+X@XY.r r < t L ..i.R.XXX.z.b m G ` r.Q.8 F $.r.>.>.F ",
"eX| I XX X$ M Z T.;.Z r I z.l.I A C XX0X@X7 ; ; 0 r g  .y.Y.H p g s ; - l.0X,XY.r r r u ..L t g A A r.l , w a P C t < q I r.j.] ",
"u.h 6 n ( h.*Xt S Y I z 4 S I % {.l.O.u.o.B e q r f j.6Xt.U 6 , 2 q q q S x.k.2.g L f f 7 5 i L r.I D e f ;.~.*X8 u.] m i K p.A ",
"I f < ; ~ s.*XC M O...b j q m $ {.Y. .o.q D t g U Y j.6X>.g a 5 < p S q t O.;. .I x.O.A 1 7 m I r.I U O.Y >.~.*X8 W.;.N 0 H k.O.",
"Y.I i < N | | ,.r.R.a.0.i.1 - t t 2.l.c.q r r :.Y.R.r.r.>.L  .L r I v.r u ..I p h.eX$X>.x ~ @.| r i k.=XR. .1.g u <Xj.A r .._.XX",
"y...@.9.$.P A  .Y.j.@.` } w < <.W.x.t.1.0 , r >.y.W.(.(.` Y.y.>.>.j.@Xr u O.l.f.s.qX(.` i l b U r w 2.&XXXi. .f u !.;.L ;.I.,XR.",
">.;.j.).T.D r r _.;.r 0 , y q T.>X(.P g < O q r.X.Y.>X$Xz &XY.l.R.XX6Xr r :.$X@Xl.qXt.f r ; ; u q < f *X&XQ.r u r y t | l.$XeXk.",
" .U I >.>.j.1Xq.^ N i.6.# u r >.T.R.T.&.; - f.5X&XW.1.p.t <.L L J ^ 7.Q.| I &.#.@.e.r.8 2 ; k G * <X,Xc.%.n < C l.g u g ;.R.OX:.",
"J A A o...a.5Xs.9 a f.7.> u f O.t.Y.W.1., ; f.5X>XW.Z O.t u f t 0 8 ^ (.1.O.H _ &.3.>.k 5 5 N G * ,X5Xq.e 9 l o._.M e r | j.(. .",
"; ..X.B ; % I | f r f g g t _ Z t t A I r q t :.>...s ; g f L m : n T. .&X^.9.$._.,Xk Z f I J i A y t P D y.$X4X3X>.* , r A 2.t ",
"< Y 2.U.L.5 A >.j.L t r.`...$.l.>...O.2...r t O.O.I i ; J j.'.h.l l r.Y.`.U.a.a.Y.'.a C :.i.$.e Z t >.:.L ;.(.*X+X`.) < ] j.y.>.",
"r u t.1X>Xg t z.OX;.u _.6Xz.k.%XR.j.y.y.z.r r ..I p 2 > @.OXqX.X_ 2 D $Xg O.R.(.u.r q D l.(.k.r t r (.y.J M | >.t 8X8.0 l.#Xl.I.",
"r.g N 6.5.U i.I @.k 0 ..j.>.r.R.$X(.XX7X8Xr r :.'.`.g q C l.6X Xj J i.%.t T l.l.I s # p :.>.O.G 5 x.7X&X*X`.L >.A u.J p b ( ..l.",
"k.C 6 3 6 J c.u s 1 0 f S | >.k.*X_.*XwX5Xg t :.@X+XD r r t.5XP.3  .b.q r P p.i.A F @ q Y I I J 7 Y.0X>X2X+XA >.U f D s < 5 P j.",
"q A c.l.R._.2.u XX;.< v ] ; Z t t i.j.J n _.:.I N H _ 1 8 >.F < < r q O O H M q 0.>Xy.5 ; 0 t L r.8 A g t r p v f y.r.I q t C O ",
", L y.y.j.Y.>.>.W.i.} H | m T Z w 0.y.| *.Y.W.y._ _ $.w a ] g.*.m M O.4 # N B C >.XXy.*.n { I N -.F ..A g g p v v.$.c.c.&.e g j ",
"O | .. . .;.r._.C Q.z.| P P >.I % / >.;.T. .&X^.9.$.j.f g k =X(.J b l.A 2 < G |  .>.r.(.9.y.#.: : X.y.I A G a l ,Xz '.$X`.0 t P ",
"; >.).y.| ;.;.;.i ^ f.z...a U :.m B G z ..(.i.y.Y.W.j.y.A i u.c.j.] 2.g q g r.(.}.b y.i.H H } @.p D I I y.t.s N k.J %.9.7.a.:.h ",
"< t.#XY.| ;.X.g 0 , g.R.1.< u >.A u 0 , g $XD O.R.(.j.T.A q r k.Y.,.I t r h k.OX-Xx k...8 2 ] r.g u r  .z.k.C N L | a , 5.(.r.y "
};
