/* XPM */
static char *rcp32126736063659546[] = {
/* columns rows colors chars-per-pixel */
"64 64 229 2 ",
"   c #291F18",
".  c #362B1D",
"X  c #2D2C2C",
"o  c #2B2622",
"O  c #332C25",
"+  c #332E2A",
"@  c #392928",
"#  c #2D332E",
"$  c #35322D",
"%  c #3C342D",
"&  c #3E372A",
"*  c #2D2E33",
"=  c #352F31",
"-  c #2E3335",
";  c #353434",
":  c #3B3634",
">  c #363A35",
",  c #3C3935",
"<  c #363639",
"1  c #3A363B",
"2  c #36393B",
"3  c #3A393B",
"4  c #45311A",
"5  c #623D00",
"6  c #423525",
"7  c #42352B",
"8  c #423A2C",
"9  c #4B3B2C",
"0  c #483824",
"q  c #523E29",
"w  c #413632",
"e  c #433C35",
"r  c #423E3B",
"t  c #443839",
"y  c #5F4810",
"u  c #644309",
"i  c #654B16",
"p  c #6A4A16",
"a  c #64461C",
"s  c #6A471C",
"d  c #654B1C",
"f  c #6A4A1C",
"g  c #664514",
"h  c #5E4C24",
"j  c #54432C",
"k  c #5C4B2D",
"l  c #59472B",
"z  c #4E4235",
"x  c #44413D",
"c  c #4A443C",
"v  c #4D493F",
"b  c #5C4B33",
"n  c #52443B",
"m  c #544B3B",
"M  c #5A4D3C",
"N  c #574635",
"B  c #644C23",
"V  c #6B4B23",
"C  c #624C2C",
"Z  c #664A28",
"A  c #714E23",
"S  c #675126",
"D  c #725424",
"F  c #73562A",
"G  c #7D5E2C",
"H  c #795A25",
"J  c #624D33",
"K  c #64463A",
"L  c #6A533B",
"P  c #645438",
"I  c #7C5E33",
"U  c #765F39",
"Y  c #7E6226",
"T  c #7E622C",
"R  c #7D6133",
"E  c #7B623C",
"W  c #7A6536",
"Q  c #3C3B41",
"!  c #383742",
"~  c #403F40",
"^  c #3D4142",
"/  c #434243",
"(  c #4A4641",
")  c #4D4A44",
"_  c #4E4B4B",
"`  c #534D45",
"'  c #524C4A",
"]  c #574B44",
"[  c #56514A",
"{  c #5B544C",
"}  c #5E584F",
"|  c #5A5146",
" . c #535353",
".. c #5B5651",
"X. c #5D5953",
"o. c #5C5B5C",
"O. c #565859",
"+. c #61564C",
"@. c #62594E",
"#. c #665745",
"$. c #715F49",
"%. c #635C53",
"&. c #6B5E54",
"*. c #635F58",
"=. c #776345",
"-. c #676056",
";. c #6A6156",
":. c #65625B",
">. c #6A6259",
",. c #6A655A",
"<. c #6C645B",
"1. c #69645E",
"2. c #6A655F",
"3. c #6F665D",
"4. c #6E655C",
"5. c #6D655B",
"6. c #6F695E",
"7. c #6F685E",
"8. c #716657",
"9. c #71665D",
"0. c #71665C",
"q. c #71685F",
"w. c #72695E",
"e. c #796C5D",
"r. c #6D6D6D",
"t. c #676460",
"y. c #726B60",
"u. c #736B61",
"i. c #7A6C61",
"p. c #706E6B",
"a. c #6F706B",
"s. c #7C7163",
"d. c #77726B",
"f. c #737373",
"g. c #7C7C7B",
"h. c #74787A",
"j. c #6E7276",
"k. c #815E2B",
"l. c #805E27",
"z. c #825E32",
"x. c #8C5B3C",
"c. c #8A573B",
"v. c #925B36",
"b. c #A45E2F",
"n. c #A35E36",
"m. c #82612D",
"M. c #826227",
"N. c #816132",
"B. c #806338",
"V. c #9B623C",
"C. c #A3662D",
"Z. c #A36134",
"A. c #B37E3D",
"S. c #875E43",
"D. c #876644",
"F. c #996A46",
"G. c #946E55",
"H. c #977852",
"J. c #A27C4E",
"K. c #A27958",
"L. c #AB774C",
"P. c #887B7A",
"I. c #927666",
"U. c #AC7F6C",
"Y. c #85817F",
"T. c #9B8378",
"R. c #A68979",
"E. c #A9917A",
"W. c #A7917B",
"Q. c #CAB677",
"!. c #F5D578",
"~. c #F6CE76",
"^. c #857D81",
"/. c #7F8584",
"(. c #848483",
"). c #8B8A8A",
"_. c #888983",
"`. c #988D87",
"'. c #959394",
"]. c #9A9B9B",
"[. c #999999",
"{. c #8A8E91",
"}. c #A89E9A",
"|. c #AF9785",
" X c #A5A09D",
".X c #BBA691",
"XX c #9C9FA3",
"oX c #A29FA1",
"OX c #9EA3A8",
"+X c #A5A4A5",
"@X c #A9A6A5",
"#X c #AAA9A5",
"$X c #A6A9AB",
"%X c #AAAAAA",
"&X c #A6A7A7",
"*X c #B2ACAC",
"=X c #B9ABA6",
"-X c #AAACB0",
";X c #B1ADB1",
":X c #B4B4B4",
">X c #BDBDBD",
",X c #B9B7B4",
"<X c #B7B3AF",
"1X c #C5A89A",
"2X c #CDB195",
"3X c #CBB39A",
"4X c #D4B596",
"5X c #D3B38D",
"6X c #C0B2A4",
"7X c #DEC786",
"8X c #EBC59F",
"9X c #F1D188",
"0X c #D3C7B4",
"qX c #EDCAA3",
"wX c #E8CAA7",
"eX c #FDD4AC",
"rX c #FCD8AB",
"tX c #FBD4A7",
"yX c #E6CDB4",
"uX c #F7D3B3",
"iX c #FCD6B2",
"pX c #FDD8B2",
"aX c #F2D5BC",
"sX c #F8D8B8",
"dX c #EED2B7",
"fX c #C3BFC2",
"gX c #BEC1C7",
"hX c #C1C1C1",
"jX c #F1D8C3",
/* pixels */
"%.4.4.>.%.:.*.*.*.:.:.:.*.[ [ -.-.-.4.7.7.4.% w.9.&.0.8.0.w.w.0.%.4.4.>.-.4.5.<.<.9.9.4.>.} [ -.-.-.4.7.7.4.% y.4.&.>.5.9.q.q.4.",
"&.` %.c 1.:.:.*.*.1.1.:.*.X.%.-.-.-.>.4.7.<.% w.8.0.0.&.;.8.0.w.&.x ` e y.9.4.>.} *.*.%.....[ { { %.>.4.7.5.$ q.5.;.;.&.>.4.q.q.",
"{ 4.%.c :.:.:.:.:.1.1.1.:.:.| -.-.>.>.>.4.%.` &.9.9.0.0.0.0.0.8.` X * X 4.9.q.<.# # < 1 1 2 Q ; ; c >.>.4.%.` &.4.4.>.4.9.4.q.4.",
"-.q.q.[ :.:.:.:.1.1.1.1.1.:.[ >.<.>.>.>.5.>.4.%.9.0.8.w.i.i.i.%.} + 3 ; 4.7.7.4.$ , 3 Q ! ! 1 3 : c >.>.5.>.4.%.4.4.4.q.u.u.u.%.",
"q.9.q.[ 1.1.:.1.1.1.1.t.t.*.@.<.q.4.5.>.} 4.%.) { ;.;.;.@.+.{ q.&.O & % 7.y.7.7., % % 1 1 1 : % 8 c 5.>.} 4.%.` | -.<.>.%.{ | q.",
"4.4.4.%.:.1.1.1.1.1.1.1.1.[ u.<.q.4.>.%.$ { ,.y.u.u.y.y.5.e 5.5.%.7 9 8 ,.7.7.7.8 6 0 7 w w 6 0 & n -.%.$ { >.q.y.u.y.y.5.e 4.4.",
"4.4.4.} &.*.1.1.1.1.1.1.[ ` 4.>.>.>.&., } 4.<.<.4.y.y.y.y.[ ; : z $.$.#.8 3 3 , M k l k N b k k N c 3 < < < ; < r y.y.y.y.7.%.4.",
"7.4.} 5.9.u.5.` ) ..X.) O : %.<.-.%.%.` 4.5.<.5.4.y.y.y.y.{ $ 7 q =.U =.6 , : % b B d S h h B B C z : : : : e : r y.y.y.y.y.} 7.",
"<.X.( } %.&.9.%.e 8.w.e.w.0.;.+.e } -.&.5.5.5.4.4.y.q.q.y.[ & 6 q =.E U 4 & 7 6 C d f d d d d d Z j 7 7 7 7 7 & e y.q.q.y.y.| 4.",
">.u.{ ( ) c r X ( | ` ) ` w.8.8.w.&.c 4.5.5.4.4.4.7.[ ) v | M J C I R E C J J C F F H s f f s i d h q q j j j z n [ [ ` 4.y.r } ",
"4.4.( ; ; ; ; ; ; ; ; X $ w.8.8.8.0.&.| <.5.4.4.4.4.r ; % m =.=.R R N.B.E E E R R T m.s s f s d f B Z C J J k N m % < 1 4.4.%.q.",
"4.4.( 3 3 ; 3 ; 3 ; 3 ; , w.8.8.8.8.0.e -.<.4.4.5.4.x $ % b =.I N.G I I N.N.N.m.T T N.A s s f d d d f V a B B C b 7 , < 4.[ y.4.",
"4.4.) 3 3 3 / / / / ) _ 3 w.;.-.<.5.<.%.} >.>.5.5.5.x , & b E T G G N.N.m.l.k.m.G R G A s V f d d d s f V d d S l 8 : 3 X.` y.q.",
"u.y.) 3 3 ; ).&X&X%XhX,Xr.; < + -.<.;.| >.} | -.<.-.x < w b R T m.T G m.m.M.m.m.f d f G z.k.D B B d s s f d d h b 6 , 3 >.} s.s.",
"s.i.) 3 3 ; ).&X&X:XhX0X:X; < < -.;.&.: | %.%.%.} | , , 7 b R Y Y T T m.M.m.m.N.f d d G m.m.D B h B s V s f d S k 7 : 1 q.u.| u.",
"| >.) ; 3 ; ).&X&X:XhX>X:XX ; ; %.+.c } 5.>.>.5.4.9.) : 7 J I m.T T R G m.k.m.G f f d G m.m.F B Z B s V f f d B l 6 : , >.} %.q.",
"9.-.) < < ; '.,X,X%X[.[.[.'.[.f.) ` x -.4.4.5.( x ( | #.P L E R R F F F z.z.m.T d V d F D D A d B B f V f f d B C j z c | x ) 4.",
"5.>.( 3 3 ; +XhXhX%Xr.f.g.hXhX,X/ 3 < X.y.q.q.; ; % P =.E R T G G a a f G m.m.G f a V a s f s f a d d d d d d d B C b M % < ; >.",
"5.>.) ; 3 ; ].>XhX&Xr.f.(.hXhX>X3 3 , ` 9.q.q.3 ; % L U T T T m.I s s D m.m.Y m.d V V d s s s s A f d d d B V f f d B b 7 , < &.",
"4.5.' 3 3 < [.,X,X&Xh.f.(.,X,X>Xo.O. .( @.%.` ; 3 7 L W Y Y m.z.I V f V F T T H D.D.D.D.D.D.D.D.D.I d d d V V f p i d k 6 , < &.",
"5.<.} ` | x ( 3 3 f.&X&X+Xr.f.f.>X>X%XO.; 3 ; 3 ; % L R Y M.N.z.z.z.B.I V i i F tXiXuXtXrXeXeXeXeX5Xy d d B V f p p d C 6 : < %.",
"` } q.4.4.4.x 3 3 f.%X%X+Xr.f.f.>XhXhXt.; 3 3 ; 3 7 L R Y M.m.z.z.z.N.I d d i F eXiXeXeXrXrXeXiXiX5Xu d d V V f p p d C 6 , < ' ",
">.q.5.4.4.4.( 3 < f.%X&XXXr.r.f.>XhXhXt.; 3 3 3 ; : L E T T T k.k.m.T R d d B F eXeXeXeXeXeXiXsXsX4Xu f d V V s V d B b 7 , < ' ",
"q.4.q.q.4.4.( 3 < f.%X%X+Xr.f.f.>X>XhXo.3 ; ; 3 < : P =.E R R k.M.H H R B h k P eXeXeXeXeXeXsXaXjX3X5 g g V a V B B k M & : ; { ",
"7.7.y.u.u.9.>.&.{ ) O.o.r.].].].(.(.(.%X%X:X:XO.< < z z j C I k.H.qXqXwXl 0 8 N eXeXeXeXrXeX.XI.i.|.qX8X4Xg V B C 0 9 e %.&.{ <.",
"7.y.y.u.y.9.9.4.&.' ; 3 O.%X%X&Xf.f.r.,XhXhXhXo.3 ; : : w b E z.J.eXsXdXN w : z uXeXeXiXiXpXE.% ; W.iXeXqXu d B l 7 : , 4.9.| y.",
"q.y.y.u.y.9.9.4.{ ..; 3 O.&X%X+Xf.r.r.,XhX>XhXt.; ; > 3 1 N E m.J.eXsXjXn : 3 c sXeXeXiXuXiXE.< 2 |.iXiXqXu d B N : 1 3 4.-.&.7.",
"q.q.y.y.q.4.4.4.` { ( ( X.'.).'.(.(.(.&X%X%X%X(.h.h.O.< , b E G J.tXuXaXn 1 ! c uXeXeXsXuXuXW.; ! W.iXiXqXu d h b : 3 2 } % 5.q.",
"q.q.y.y.y.4.4.4.} | <.4.%.X ; 3 &X&X%Xh.r.f.r.,XhXhX/.> & b E k.J.tXiXaXn < 2 c uXeXeXuXpXpXW.< 2 W.pXeX8Xu d h N % 3 1 *.c %.q.",
"4.9.y.y.4.4.4.>.} ` ` ` [ ; 3 3 &X%X%Xg.r.f.r.,X>XhX(.; & N E R J.rXuXaXn 1 < v uXeXeXiXrXpXE.: 1 W.pXeXqXg B k m % < 1 ;.7.} ;.",
"` %.` } >.&.} } &.7.5.4.` X ; 3 &X+X%Xh.f.r.r.,XhXfXY.: & M =.E H.rXpXaXN 6 8 N iXeXeXeXrXpXE.6 7 E.rXeX8XB k M v % $ X <.9.4.} ",
"%.4.9.&.e %.7.<.>.>.7.4.&.| , -. . ._ [.].&X+X(.g.g.@X,X,X'.8 9 G.sXsXuXqXwXyXyXiXeXeXpXeXeXdXyXyXdXeXrXwX4 9 w c &.&.*.4.q.9.4.",
"%.4.4.>.-.4.5.<.<.7.7.4.>.} { ;.; 3 ; [.%X%X&Xh.f.r.@XhXgXOX; : e.jXsXeXeXeXuXsXiXeXeXeXrXeXiXsXsXiXeXuXwX. t t r &.>.5.9.q.q.4.",
"&.` %.c y.9.4.<.1.y.u.q.>.-.%.;.; , ; [.&X&X%Xg.r.r.%XgXgXXXX : q.jXaXuXiXeXeXeXiXiXiXpXeXeXiXiXiXiXeXsX0X@ 1 ! Q ;.;.&.>.4.q.q.",
"| :...) q.9.7.4.y.u.y.y.4.4.+.;.e ( ) Y.).).).).).).].&X$X].(.(.`.6X3X2X2X4X2X4X2X2X2X3X3X2X2X2X2X2X3X3X.X= ! ! / 4.>.4.9.4.q.4.",
"X.:.:.| q.7.7.7.y.y.y.u.y.4.{ 8.8.8.8.< ; ; X [.#X#X_.p.r.'.hXhX<X  O O { { { { c c c [ { { ` z z ` { { ` < ! 2 / 4.4.y.u.u.u.%.",
":.:.:.` y.y.7.y.u.y.y.u.u.5.@.w.e.w.w., 3 ; 3 [.%X#X_.a.r.'.fXfX:X; < , X.%.%.%.) ) ) X.o.X.[ ] m [ X.X.{ 1 < < 3 -.<.>.%.{ [ 1.",
":.:.:.%.5.u.u.u.y.y.y.u.u.{ s.8.e.w.8.+ X ; ; [.+X&X_.f.a.'.hXfX;X; 1 3 X.X.X...` ) ` ..X.X.| ] ` [ :.o.o.< 3 > 3 u.y.y.5.e :.:.",
":.:.*.} &.-.y.y.y.y.y.y.} | w.8.8.8.;.: } >.:._ _ / {.OX&X&X&X#X X$ < < ' ' ' ' { } { [ ' ' { } } P.@X*X].; ; > x y.y.y.y.7.{ :.",
":.:.{ 4.9.u.4.[ ` %.&.` O % &.0.<.%.%.` 7.<.<.3 < ; {.-X&X+X&X@X[.$ < < ) ` ' _ X.@.%.' ' ' } X...(.;X;X+X$ , , / y.y.y.y.y.{ :.",
"*.[ v } %.&.7.%.e 0.8.0.0.0.&.+.e { -.&.<.,.<., 3 ; ).@X@X@X&X&X].< < , ` ` ' ' @.#.@.] ' ] { @.X.Y.*X;X+X; < , 3 y.q.q.y.y.[ :.",
">.u.y.y.u.5.%.% &.w.w.9.0.0.0.0.8.%.c 4.<.<.1.; ; ; ).#X@X@X%X$X].* X % N b K M P P P J K K L L #.P.;X;X+X; , 3 3 7.7.7.q.y.r { ",
"4.4.4.4.4.4.9.} ;.w.w.0.0.0.0.0.0.0.%.| >.<.4.[ { { t.p.p.p.f.j.h.'.`.R.S.c.x.S.Q.Q.Q.F.c.c.v.v.x.T.*X-X+X; 3 ; ~ 4.7.7.7.4.%.q.",
"4.4.4.4.4.4.4.>.@.w.0.w.0.8.;.0.0.0.0.e -.<.4.4.5.4.) < ; 3 < 2 O.;X=X.XG.V.Z.C.!.!.9XL.Z.n.b.b.n.R.=X*X+X; 3 3 / 4.7.7.7.[ y.4.",
"4.4.q.4.5.<.<.>.] 0.0.w.0.0.0.&.&.;.;.%.} >.>.5.5.5./ 2 2 < 2 2 o.:X=X1XD.F.C.C.~.!.~.A.C.Z.Z.b.n.U.1X*X+X; < 3 3 5.4.q.%.` y.q.",
"u.y.u.7.5.<.>.>.% 8.0.w.8.0.0.&.&.&.&.| >.} | -.<.-.x < ^ < 3 3  .+X}..XG.F.F.F.7X7X7XJ.x.x.F.K.K.R.}.}.[.; 3 3 r -.%.&.5.} s.s.",
"s.i.u.q.4.5.>.@.o e &.8.8.0.&.&.&.&.%.: | %.%.%.} | ) } y.X.< 1 3 1 : e I.I.I.I.0 . 4 0 0 4 R.1X1X`.$ 3 ; 3 < < / | ) } y.u.| u.",
"| >.7.5.&.%.` @.>.5.%.{ @.%.%.%.%.{ c } 5.>.>.5.4.9.X.| ` x : 3 1 < 1 r P.P.P.P.r 3 3 < : % `.=X=X`.# > < 3 < 3 3 { ..X.;.@.%.q.",
"e.8.;.;.@.e ` >.<.4.4.>.c &.} v -.u.%.1.4.4.<.;.5.4.x + % , : 1 1 1 3 3 ^.P.P.^.3 2 2 < 3 ; '.*X*X'.# 3 3 1 < < < 3 3 3 q.` 8.e.",
"w.8.8.w.8.+.e >.>.5.4.>.<.>.-.%.7.u.u.-.y.q.q.5.4.4.r ; 3 < , < ; 3 3 Q +XoX X}.3 < 2 3 < 3 o.r.r.o.< ; 3 < 3 3 3 < ; ; ` ;.s.s.",
"w.8.w.w.;.@.x } 5.5.5.} 4.-.-.%.<.u.u.{ q.q.q.9.>.%.3 ; < 3 3 3 3 ; 3 / %X*X*X*Xx 3 ; 3 3 2 1 1 1 1 2 3 3 3 3 ; 3 < 3 3 u.;.e.w.",
"w.w.w.%.9.;.%.-.} } [ &.>.-.-.%.<.u.y.c %.-.` : { } ; ! - 2 < < < < : r *X*X*X#X/ 3 3 3 < 3 1 1 1 ! ! 1 ; < < 3 3 3 3 ; -.` w.w.",
"w.w.@.` | c &.4.5.<.` <.-.-.-.} >.q.} u.7.7.7.[ y.4.x < 2 Q < 3 1 3 : r [. X+X'./ < 1 1 3 1 1 1 1 1 1 1 3 3 3 < < 3 ; 3 :.} { 8.",
"] @.q.4.9.4.| >.<.<.{ %.-.-.%.e { -.-.7.7.7.7.&.4.4.r ; 3 < 2 2 3 ; 3 < 3 * * 3 1 1 3 < 3 1 , > > 3 1 1 < < 3 3 3 ; 3 ; >.4.9.} ",
">.q.5.4.4.4.4.| >.<.&.o $ c ` } [ ` ` 4.5.q.} q.1.4.[ ` ' ( 3 < < 3 < 2 < 2 2 2 < 3 < 2 2 < > > > < 3 3 < 3 < 3 3 ' [ ` <.4.4.{ ",
"q.4.q.q.4.4.4.;.` %.` &.y.y.4.4.4.4.y.%.: x %.5.1.;.;.4.4...; 3 < 3 3 3 < 3 < < < < < < < < > > 3 < < < 3 < 3 ; 3 ;.;.4.4.4.7.X.",
"7.7.y.u.u.9.4.4.%.c u.9.9.9.9.4.9.4.4.4.` O 4.<.;.;.5.4.9...3 ; 3 ; ; 3 < 3 3 3 3 3 3 3 < 3 3 3 ; ; 3 ; 3 3 ; 3 x ;.5.9.9.9.&.4.",
"7.y.y.u.y.9.9.4.&.>.q.9.9.9.9.9.9.4.4.4.&.c >.>.>.;.4.9.9.| ; 3 3 / 3 3 ; ; 3 3 3 3 3 3 3 < < 3 3 3 3 3 3 ; 3 3 , ;.4.9.9.9.| y.",
"q.y.y.u.y.9.9.4.{ y.4.9.4.4.7.q.9.9.4.4.@.+ -.>.<.4.4.4.9.&.X.:.:.:.:.:.3 < 3 3 < < 3 3 3 3 ; 3 ; ) 4.<.} + &.>.>.4.4.4.9.-.&.7.",
"q.q.y.y.q.4.4.4.` -.4.9.4.4.q.y.y.y.q.4.%.5.-.-.<.5.4.>.+.% :.:.:.:.1.:.; ; 3 3 < < < 3 3 < 3 3 3 _ q.4.%.5.-.-.<.5.4.>.} % 5.q.",
"q.q.y.y.y.4.4.4.} | <.4.5.>.4.4.q.y.q.%.y.4.<.%.v } %.%.&.n { 1.:.:.1.:.3 ; 3 3 < 3 3 3 3 3 3 3 3 _ 7.X.y.4.<.%.c { %.%.&.c %.q.",
"4.9.y.y.4.4.4.>.} ` ) ` } %.&.>.>.%.` } 4.5.>.{ w.8.9.9.0.w.+.*.:.:.1.:.; ; 3 3 3 3 3 3 3 3 3 < 3 ( ` } 4.5.>.} q.4.4.4.4.q.} ;.",
"` %.` } >.&.{ { X.:.:.*.' + o c @.>.q.>.%.` + &.8.9.9.9.9.0.0.+.` %.` ' [ [ ) ' { %.X.X.` $ o r [ %.q.>.%.` + &.5.4.4.4.4.9.4.} ",
"%.4.9.&.e ..:.*.*.*.:.*.*.{ , >.>.4.q.7.4.-.O &.8.0.0.8.0.0.0.0.%.4.9.&.e %.7.<.>.>.4.4.>.%., >.>.4.q.7.4.-.O &.5.5.<.5.9.q.9.4."
};
