/* XPM */
static char *rcp6532212063706871[] = {
/* columns rows colors chars-per-pixel */
"64 64 229 2 ",
"   c #27231E",
".  c #2A2520",
"X  c #2F2B25",
"o  c #342F29",
"O  c #312C26",
"+  c #37312B",
"@  c #3C342D",
"#  c #3E3A2E",
"$  c #3A3423",
"%  c #362E37",
"&  c #353535",
"*  c #3B3533",
"=  c #353935",
"-  c #3C3934",
";  c #363639",
":  c #3A363B",
">  c #36393B",
",  c #3A393B",
"<  c #2F353A",
"1  c #443523",
"2  c #4C3B24",
"3  c #43352C",
"4  c #443A2B",
"5  c #4A3C2C",
"6  c #443B25",
"7  c #543F25",
"8  c #423634",
"9  c #433C35",
"0  c #443C38",
"q  c #42363B",
"w  c #5F4A1A",
"e  c #66471B",
"r  c #6C471D",
"t  c #664A1D",
"y  c #694A1D",
"u  c #654B16",
"i  c #6F511F",
"p  c #4B422C",
"a  c #534225",
"s  c #5D4C24",
"d  c #52442B",
"f  c #5B452B",
"g  c #5E4B2B",
"h  c #594727",
"j  c #4B4233",
"k  c #47423B",
"l  c #4B443D",
"z  c #4E4A3B",
"x  c #534633",
"c  c #5C4D34",
"v  c #534B3D",
"b  c #5C4C3A",
"n  c #554835",
"m  c #5D5436",
"M  c #654723",
"N  c #684721",
"B  c #644B23",
"V  c #6A4B22",
"C  c #644B2A",
"Z  c #6C4B2D",
"A  c #6E5122",
"S  c #645127",
"D  c #735424",
"F  c #755729",
"G  c #75592D",
"H  c #7C5D2C",
"J  c #785625",
"K  c #624D36",
"L  c #7C4D37",
"P  c #655533",
"I  c #695634",
"U  c #62533D",
"Y  c #6A5538",
"T  c #6C5B3A",
"R  c #755B36",
"E  c #7C5E32",
"W  c #78583A",
"Q  c #7F602F",
"!  c #7D6134",
"~  c #7B623A",
"^  c #76663A",
"/  c #393542",
"(  c #3B3942",
")  c #363A42",
"_  c #434344",
"`  c #4C4742",
"'  c #4D4A44",
"]  c #44444A",
"[  c #4C4B4A",
"{  c #474846",
"}  c #534D44",
"|  c #534E4B",
" . c #5C4D47",
".. c #545046",
"X. c #55514B",
"o. c #5B544C",
"O. c #5E594F",
"+. c #595043",
"@. c #524F55",
"#. c #4C5155",
"$. c #555453",
"%. c #5A5652",
"&. c #5D5A54",
"*. c #525359",
"=. c #5C5B5A",
"-. c #565957",
";. c #4D504F",
":. c #645341",
">. c #63564E",
",. c #63594D",
"<. c #685B46",
"1. c #725A41",
"2. c #635C53",
"3. c #6A5E53",
"4. c #635F5A",
"5. c #645752",
"6. c #725C52",
"7. c #5F605B",
"8. c #7A6347",
"9. c #676056",
"0. c #6A6157",
"q. c #65615B",
"w. c #6C655B",
"e. c #6E685E",
"r. c #716557",
"t. c #71665C",
"y. c #76685D",
"u. c #72695E",
"i. c #796D5D",
"p. c #5A5D60",
"a. c #636262",
"s. c #6A6661",
"d. c #6B6663",
"f. c #6D6A63",
"g. c #6D6C6C",
"h. c #67636E",
"j. c #736A61",
"k. c #716A60",
"l. c #716C61",
"z. c #756D62",
"x. c #736B62",
"c. c #726E6C",
"v. c #786E69",
"b. c #757066",
"n. c #7B7164",
"m. c #74716D",
"M. c #7C746C",
"N. c #7D786F",
"B. c #6B6D72",
"V. c #6A6470",
"C. c #747474",
"Z. c #7A7671",
"A. c #7C7975",
"S. c #777779",
"D. c #7C7B7B",
"F. c #787777",
"G. c #825F2B",
"H. c #85533A",
"J. c #865937",
"K. c #9D5E34",
"L. c #9E5E3E",
"P. c #814E34",
"I. c #AC5C2D",
"U. c #B45A2F",
"Y. c #A55B34",
"T. c #AC5D34",
"R. c #A85D38",
"E. c #A65A37",
"W. c #B15B31",
"Q. c #81612D",
"!. c #816132",
"~. c #806438",
"^. c #9F613E",
"/. c #AE602F",
"(. c #A5623C",
"). c #845E4A",
"_. c #806240",
"`. c #966249",
"'. c #9C684B",
"]. c #94725A",
"[. c #A06347",
"{. c #80756D",
"}. c #8C7B6D",
"|. c #817B75",
" X c #837E7B",
".X c #867971",
"XX c #846E62",
"oX c #84807C",
"OX c #898279",
"+X c #A98E7B",
"@X c #AF876B",
"#X c #817F81",
"$X c #7F8087",
"%X c #848384",
"&X c #888483",
"*X c #8B8A8B",
"=X c #868889",
"-X c #958C89",
";X c #90918F",
":X c #8D8D92",
">X c #949394",
",X c #9C9C9B",
"<X c #97979A",
"1X c #8F9193",
"2X c #AC9585",
"3X c #A19B99",
"4X c #B6978B",
"5X c #BAA69A",
"6X c #9A9DA0",
"7X c #A5A5A5",
"8X c #ACA5A4",
"9X c #A9A9A5",
"0X c #A6A7A9",
"qX c #ABAAAA",
"wX c #AAA7AA",
"eX c #B2ACAD",
"rX c #B5AAA5",
"tX c #B4B0AC",
"yX c #B1AEB2",
"uX c #AFB0B2",
"iX c #B4B4B4",
"pX c #BCBCBC",
"aX c #B7B6BA",
"sX c #AEABB0",
"dX c #C79B89",
"fX c #C0A8A1",
"gX c #C1C0BD",
"hX c #BDBBC5",
"jX c #C1C1C1",
/* pixels */
"2.w.w.0.2.q.4.4.4.q.q.q.4.o.X.9.9.9.w.e.e.w.@ y.t.3.r.t.t.t.t.t.5.w.w.0.9.w.w.w.w.t.t.w.0.O.X.9.9.9.w.u.u.w.* k.w.3.0.w.t.k.k.w.",
"3.} 2.l q.q.q.4.q.q.q.q.4.&.2.9.9.9.0.w.e.w.@ y.t.r.r.3.0.t.y.y.3.} 2.l k.t.w.w.w.k.k.t.0.3.2.9.9.9.0.w.u.w.+ k.w.0.0.3.0.w.k.k.",
"o.w.2.l q.q.q.q.q.q.q.q.q.q.X.9.9.0.0.0.w.2.} 3.t.t.r.t.t.t.t.t.o.w.2.} u.t.u.w.u.k.k.k.w.w.X.9.9.0.0.0.w.2.} 3.w.w.0.t.t.w.u.w.",
"9.u.u.X.q.q.q.q.q.q.q.q.q.q.3.c.m.m.m.c.m.m.m.l.M.t.t.y..XM.Z.x.9.u.u.o.u.e.e.e.k.k.k.z.k.w.X.0.0.0.0.0.w.0.w.2.w.t.w.u.z.z.z.2.",
"u.t.k.X.q.q.q.q.q.q.q.s.s.4.f.=.*.*.*.*.#.*.$.*.4.0.0.0.a.#.$.OXk.e.e.X.k.k.e.k.x.k.k.z.z.w.2.w.u.w.w.0.O.w.2.} X.9.w.0.2.o.X.u.",
"w.t.t.3.q.q.q.q.q.q.q.q.q.X.m.] , ; ; , : : : : | z.k.u.[ = = oXw.w.e.&.w.x.x.x.f.x.x.x.z.o.z.w.u.w.0.3.+ o.w.k.z.z.k.k.w.9 w.w.",
"w.w.w.O.3.4.q.q.q.s.s.s.o...c.k - @ 8 3 4 4 8 - $.v.v.z...# 4 OXk.f.e.o.3.9.f.f.f.x.x.x.o.} w.0.0.0.3.- ,.w.w.w.w.k.k.k.k.e.2.w.",
"e.w.2.w.u.z.w.} %.c.C.g.=.s.e.j d a 7 f a a d p o. XoX|.,.b b n. XoXD.k.e.z.w.X...2.3.} O * 2.w.9.2.2.} w.w.w.w.w.x.x.k.k.k.O.e.",
"w.&.` O.2.3.t.&., & ; , * * p h s B C C C t s m j - * 4 <.8.8.n @ & g.2.2.3.t.&.9 t.y.i.y.t.0.>.9 O.9.3.w.w.w.w.w.k.u.u.k.k.X.w.",
"0.z.x.k.z.w.2.+ & * * * - @ p g w t V V y u u s x @ 4 1 1.W _.f 3 * C.v.x.w.2.@ 0.i.i.y.y.y.t.t.y.3.l w.w.w.w.w.w.e.e.e.u.k.0 O.",
"w.w.w.w.w.k.v.w.9 4 4 4 4 5 a B t V N V y y A B g 2 2 7 R E E C 2 5 c.|..XM.x.O.r.i.i.y.y.t.t.t.t.y.3.2.M.M.Z.N.N.N.Z.Z.N.v.3.u.",
"w.w.w.w.v.' } X.x c f g f f C B B V V t D D J G W W R R ! !.G.E R T <.%.%.a.l.0.3.i.i.i.i.y.t.t.t.t.t.q.=.%.-.%.$.%.-.X.$.&.z.w.",
"w.w.u.w.M.* * 3 b K C V V V V V B t t t t F !.Q.G.!.! E H !.Q.Q ! ~ Y 5 * *.f.0.} i.i.i.i.i.t.t.0.t.r.|., & , & , , , & = %.v.u.",
"z.k.z.u.M.& - 3 K M V y y y e V t t t y t F H G.Q.G.H ~.Q.Q.Q.Q.Q ! I 5 - *.s.0.@ y.i.i.i.i.t.t.0.t.0.A., , , * , , & , , %.M.n.",
"M.b.z.u.Z.& = 8 g B y y y y t y y y V A A F J J J !.! !.!.Q.Q.Q.Q.~ Y 4 * *.f.O.. 9 0.y.y.t.t.t.k.u.w.Z.C.C.C.g.g.a.{ , & q.O.z.",
"X.0.u.w.Z.= = 4 g B y y y y y y y V H !.E D y y D G.!.H H H Q.Q.!.~ Y 4 - *.&.O.9.w.,.o.,.3.3.3.s.& & C.pXjXpXqXqX7Xg., & -.0.u.",
"t.9.3.3.m.- # 4 g B B y t y V y e V E E !.D t y A !.H Q.Q.Q.Q.Q.E ~ Y 1 @ X.&.w.w.w.w.0.v 0.,.v g.& & C.pXjXaXqX7X7Xg.& , X.w.x.",
"w.0.0.w.|.$ 1 2 B B C t t y y y y V H E !.D y y V Q Q.Q.H G.H Q !.~ I 2 4 X.` 0.0.w.w.0.t.t.0.3.g.& = C.pXjXaXqX7X7Xg., , =.n.z.",
"u.D.-.=.4.x f a B B B t y y y y y y A A D y y y D Q.Q.H D D i J !.R R P U :.2.=.=.f.w.,.i.s.=.4.>X,X,X>X=X=X>XiXaXiXC.& & &.v.w.",
"k.F.> , j g C N V B B t t y y y y t t y t y y y V H Q.H u y e F ! ! ~.~ ~ T j , _ %.X.0.9.{ , , ,XpXjX7Xc.C.D.pXjXaXS., , %.k.w.",
"k.C.& = 5 B V r y B B t t y y y y y y y t y y e D ! Q Q y y t J Q.G.Q.H E ! x & , &. .t.9.{ & , ,XjXjX,XC.g.$XiXjXpXC., & %.O.0.",
"X.m.= * d C r r y t B t y t t t t y t t t t t t A G H G A A V J G.G.G.Q.G.H d * , &.q.u.z.d.a.a.>XiXiX,XD.D.%X7X7X7XD.a.q.z.k.O.",
"w.C.= * 5 C V r y y B y y t t t t t t y t t y t t V V A F H H G.G.G.G.Q.G.H d & , [ 4.=.g.7XqX7X=XD.D.=X,X,X>X=.$.%.m.M.M.v.w.o.",
"v.C.* * 5 C C V y y y y t t t t t t t V t t V y t t t t E ! ! H G.G.G.!.!.R d = & & , & =.aXjXpX=Xg.g.=XqX7X>X{ , _ &.w.w.w.e.2.",
"z.Z.* 9 j c C C y y y y t t t t t t t t t t V y y V V t E ! H Q.Q.Q.! R ~ 1.z & , , , , =.iXjXpX=Xg.C.=X7X7X>X{ , _ 4.e.e.t.3.w.",
"x.&X|.|.v.p p d t y V B B t t t t t t t t t t t t V B t D D D H Q ! R C c v 9 & , =.S.C.D.,X,X,X*X=X=X%XF.F.S. XD.D.b.e.e.t.X.k.",
"u.u.u.x.oX# @ 2 s y V B B t t t t t t t t t t t t t y y y y y F Q ! I 2 4 - * , , =XjXpXaXC.C.C.>X7X7XS., , a.w.w.w.w.e.e.9.3.e.",
"u.u.u.k.oX& * 4 s t y B V y y y y y y y y y y V t t t t t y u F ! ~ P 4 * : , & , =XjXjXiXC.C.C.>XqXqXS., & q.0.w.w.w.0.O.+ w.u.",
"u.u.k.k.oX/ : 4 s u u r V y y y y y y y y y y y y t t t t y y J Q.! I 5 * / ] { { =XaXiXiXS.C.C.>X,X,XS.%.%.c.q.l o.3.2.3.l 2.u.",
"w.t.k.k. X/ : 5 s u u r V t t t t t t t t t t t t t t B B V r F ! ! P 4 - ] :X7X7X,X=X=X*X,X>X,Xg.a.a.D.f.f.l.O.k.w.w.w.w.e.%.0.",
" .2. .O.|.; : 9 c s t y V t t t t t t t t t t t t t t B M Z N G ! ~ I 6 * { 0XjXpX7Xg.C.S.7X7XqX%.& & D.2. .o 3.w.w.w.w.w.t.w.O.",
"2.w.t.3.q.: : 8 n c C V t t t t t t t t t t t t t t u y y V B G ~ ^ P 6 # { 7XjXpX,Xg.m.C.7X7X7X=.& & oXe.9.O 3.w.w.w.w.t.u.t.w.",
"2.w.w.0.m.[ ` | } n f s B y y y y y y y y y y y y y y y y t B S I T :.9.=.a.,XiXiX,XS.S.%X>X,X>Xa.{ [ A.f.w.@ k.w.3.0.w.t.u.u.w.",
"3.} 2.l k.w.w.M.0 3 1 h t y y y y y y y y y y y y V V y t t B a 1 3 d.aXjXaX=XC.C.=XqX7X,X, & , |.9.0.w.e.w.+ u.w.0.0.3.0.w.u.u.",
"X.q.%.` u.t.e.M.: 8 3 d B t y y t y y y y y y y y V V t t t B 2 3 & V.hXhXaX=Xg.C.*X7XqX,X, & , |.0.0.0.w.2.} 3.w.w.0.w.t.w.u.w.",
"&.q.q.X.u.e.e.M.( : @ n s B B B B B B B B B B B B C C B B S g p @ % h.aXjXaX=Xg.C.*XqXqX,X, & , |.0.0.0.w.t.y.3.w.w.w.k.z.z.z.2.",
"q.q.q.} k.k.e.M.( : * v m U b b b b U U :.b b c b :.:.U d p 5 v.;X>X:X<X<X>X;X>X>X%XC.C.C.Z.f.M.n.w.w.0.O.u.0.} X.0.w.0.2.o.X.w.",
"q.q.q.2.w.z.x.M.( : , +.,.2.o. .} } O.O.2.X.} }  .>.5.>.8 * * *XpXhX0XS.C.S.>X7X7XD.& , | 0.n.e.u.w.0.3.+ o.w.k.v.z.k.x.w.9 q.q.",
"q.q.4.O.3.9.k.M.( : : } o.O.o.' } ..&.&.2...z z ..O.2.5.0 , & *XgXfX9XA.m.C.,XqX7XD.& , ] O.w.0.0.0.3.- ,.w.w.w.w.x.x.k.k.e.o.q.",
"q.q.o.w.t.z.w.3., : & 4.s.q.2.' } } o.o.o...} ..X.o.%.&.- & & *XpXpX9XD.F.D.;X,X,XoXX.[ [ 9 2.w.9.2.2.} w.w.w.w.w.k.x.k.k.k.o.q.",
"4.o.l O.2.3.e.w., : & &X<X3XoX2.%.o.X.| | o.%.%.o.X.;.X.= = & %XqXsX0X,X,X>Xg.%.%.c.|.|.Z.w.9.O.9 O.9.3.w.w.w.w.w.k.u.u.k.k.X.q.",
"0.z.x.k.z.w.2.` , ; & >XeXyX-X3.,.o.X.[ | %.&.&.%.[ { { , = & D.8XqX8X7X0X6X=.& , &.k.w.w.w.0.0.w.3.l w.w.w.w.w.w.e.e.e.u.k.0 o.",
"t.w.w.w.w.w.w.w., , ; >XiXyX-X3.U U v } |  .5.>.>.v v } = & & #X8X8X8XqX0X<Xp.& , &.u.w.w.w.0.0.0.0.2.X.w.w.w.w.w.w.e.e.e.w.3.u.",
"w.w.w.w.w.w.w.v., ; & >XqXeX-X).H.J.P.L L H.H.H.H.L L 1.6.s.a.C.#X%XoX%X%X$XD.Z.Z.M.e.e.e.w.0.0.0.0.w.9 9.w.w.w.w.w.e.e.e...k.w.",
"w.w.u.w.w.w.w.v., ; & <XqXrX2X`.E.T.Y.R.E.R.Y.Y.R.E.L.`.4X5XqXB.] _ ] _ _ =.v.t.X.k.t.e.e.e.w.9.9.9.9.2.O.0.0.w.w.w.w.u.2.} u.u.",
"z.k.z.e.w.w.0.b., , & <XqXrX2X'.T.U.U.W.I./.I.I.T.T.R.[.dXfXeXB.> < ; , , $.z.t.+ w.e.e.e.e.w.0.9.9.9.X.0.O.X.9.w.9.2.3.w.O.n.n.",
"M.b.z.u.w.w.0.s., ; & :X9X8X+X'.(.(.Y.K.K.K.K.K.K.(.^.`.4X5X8XB.) ) , [ [ 4.z.,.. 9 9.w.w.w.9.9.9.9.2.* X.2.2.2.O.X.` O.k.z.X.z.",
"X.0.e.w.3.2. .w., , , a.C.m.}.+X@X@XW Z Z Z Z Z W ].].].XXM.F.*.> & =.x.w.u.,.,.0.r.,.X.O.2.2.2.2.o.k O.w.0.0.w.w.t.z.n.w.O.3.u.",
"i.r.0.0.,.} 2.M., , , ; & & M.5X5X2X+.@ * 3 3 3  .}.}.OX9 & & ; > & g.z.3.` o.0.r.t.t.0.l 3.,.l 3.k.2.w.w.w.w.0.w.w.k.z.z. .t.i.",
"y.t.t.y.{.X.` -.; , , & , % v.8XtX,X#.> ( : * - | oXoXA._ , > , , ; { %.X.=.` r.r.t.t.0.0.0.9.2.w.x.z.9.k.u.u.w.w.w.u.w.} 0.n.n.",
"y.t.y.y.|.& , & , ; , ; , ( c.3X7X>X#.( ; q q 8 | %X&X%X_ , , & , ; : ( : *.| >.t.t.t.>.e.9.9.2.0.x.x.X.t.u.u.t.0.3...w.b.0.i.y.",
"y.y.y.3. X= , & ; , ; , ; ; , _ ] ] ) ( % q 8 * q.qXeXqX[ * , & : ; : / / *.q.9.>.>.X.3.0.9.9.2.w.k.k.l 3.9.} * o.O.X.3.0. .y.y.",
"y.y.,. .m., , , & , ; , > > , = = ; > ( , - @ * 7.tXeXeX` - - = ; , > ; ; *.s.w.w.w.} w.9.9.9.O.0.k.O.k.u.u.u.X.k.t.w.u.0.O.o.r.",
"} ,.u.w.|., & ; , ; , ; , > ; * * * > ; > = = * a.uXeXeX[ * * * : > ; , ; $.%.0.w.w.O.2.9.9.3.9 o.0.9.u.u.u.u.3.w.w.w.w.w.w.t.O.",
"0.u.w.w.|.& , , , , ; , , > : - * - , > > > > : *.=X=X%X_ : , : , ; > , & X.s. .0.w.3.  + l  .O.X. . .w.w.e.O.u.w.w.w.w.w.w.w.o.",
"u.w.u.u.|.& ; & ; , & , , > , : * * , > > > > , ; ( , , , , , : , , ; , & $.s.4.` 2. .3.k.k.w.w.w.w.k.&.* k 2.w.w.0.0.w.w.w.e.2.",
"e.e.k.x.N.|.|. X, , & , & , ; , , , ; , ; ; ; ; : ; , , , ; , , ; ; =.F.A.F.f.q.%.l z.u.u.t.e.e.e.e.e.w.} X w.w.w.0.w.t.t.t.3.w.",
"e.k.k.x.k.k.k.M., & , & , , ; , ; , , , , , ; ; , , , , ; , ; ; , , g.f.q.w.q.q.&.0.e.t.u.e.e.e.e.e.e.w.4.k 0.0.0.0.w.t.t.t.X.k.",
"u.k.k.x.k.t.t.M., & , & , , , , ; ; ; , , > , , , ; , , ; : ; , & & g.f.q.q.q.q.X.k.e.e.e.e.e.e.e.e.e.q.O.o 9.0.w.w.w.w.t.9.3.e.",
"u.u.k.k.u.w.w.b.%.=.=.=.=.=.[ , , , , , , , , , , ; , , -.$.=.=.=.=.F.s.q.q.q.q.' 9.e.e.e.e.e.f.f.k.u.w.2.w.9.9.w.w.w.0.O.+ w.u.",
"u.u.k.k.k.w.w.w.k.s.M.M.Z.M.m._ , , ; , , , , , , , , , Z.4.f.Z.Z.Z.m.q.q.q.q.q.o.o.w.e.w.w.q.w.u.k.e.&.k.w.w.2.l O.3.3.3.l &.u.",
"w.t.k.k.w.w.w.0.O.} `  .O.2.f.] ; , , , , , , , , , , , {.y.>.4.q.q.w.w.q.q.q.4.o.}  ...o.&.9.q.0.2. .O.w.w.0.o.k.w.w.w.w.u.O.0.",
" .2. .O.0.3.o.o.&.q.q.4.| O $.{ , ; , , , , , , , , , , {.t.t.>.} 2.} X.4.&.X.o.3.w.w.w.O.+ . k O.0.u.0.2. .o 3.w.w.w.w.w.t.w.O.",
"2.w.t.3.9 %.q.4.4.4.q.4.4.o.4.C.S.S.S.S.S.S.S.S.S.C.C.c.M.y.t.t.2.w.t.3.8 3.e.w.0.0.w.w.0.2.- 0.0.w.u.e.w.9.O 3.w.w.w.w.t.u.t.w."
};
