/* XPM */
static char *rcp41566028064117992[] = {
/* columns rows colors chars-per-pixel */
"64 64 228 2 ",
"   c #2F261D",
".  c #2B2924",
"X  c #322D27",
"o  c #36312B",
"O  c #3C352D",
"+  c #3E392B",
"@  c #3B3325",
"#  c #322F31",
"$  c #2C3337",
"%  c #353535",
"&  c #3B3634",
"*  c #353935",
"=  c #3B3935",
"-  c #36363A",
";  c #3A363B",
":  c #36393C",
">  c #39393A",
",  c #282D33",
"<  c #4A381E",
"1  c #653B04",
"2  c #42342B",
"3  c #43392B",
"4  c #463826",
"5  c #523E2A",
"6  c #423632",
"7  c #433C34",
"8  c #423E3B",
"9  c #463A36",
"0  c #523D31",
"q  c #5E4D1C",
"w  c #6B4A15",
"e  c #64461B",
"r  c #6A471B",
"t  c #654B1D",
"y  c #694A1D",
"u  c #654414",
"i  c #714D1B",
"p  c #68501D",
"a  c #6B4812",
"s  c #4D432F",
"d  c #54422C",
"f  c #5C4C2C",
"g  c #594726",
"h  c #4D4434",
"j  c #44413D",
"k  c #4B443D",
"l  c #534332",
"z  c #5C4632",
"x  c #5B4B33",
"c  c #59453B",
"v  c #534A3D",
"b  c #56493B",
"n  c #5A5237",
"m  c #5B5029",
"M  c #654B22",
"N  c #6B4B22",
"B  c #634B2A",
"V  c #644725",
"C  c #695126",
"Z  c #745122",
"A  c #7C5E2C",
"S  c #75582B",
"D  c #634B35",
"F  c #675538",
"G  c #7C5F33",
"H  c #7C5F3B",
"J  c #745B37",
"K  c #7E612C",
"L  c #7E6127",
"P  c #7D6233",
"I  c #7B613C",
"U  c #776338",
"Y  c #3B3541",
"T  c #353940",
"R  c #3B3B41",
"E  c #323741",
"W  c #413840",
"Q  c #3D4244",
"!  c #434242",
"~  c #4A4643",
"^  c #4D4944",
"/  c #4F4C48",
"(  c #4F434D",
")  c #534C44",
"_  c #534E49",
"`  c #544645",
"'  c #555047",
"]  c #56514B",
"[  c #5B544C",
"{  c #5F584F",
"}  c #5C5346",
"|  c #555554",
" . c #5B5651",
".. c #5D5A53",
"X. c #5D5D5D",
"o. c #595859",
"O. c #504F50",
"+. c #6D5D43",
"@. c #63564C",
"#. c #62594E",
"$. c #6B5745",
"%. c #635C53",
"&. c #6A5E53",
"*. c #645F59",
"=. c #605751",
"-. c #6D5943",
";. c #766146",
":. c #676056",
">. c #6A6156",
",. c #65625B",
"<. c #6A6258",
"1. c #6C655B",
"2. c #69645E",
"3. c #6F665D",
"4. c #6E655C",
"5. c #6C655B",
"6. c #6F685E",
"7. c #6E685E",
"8. c #716557",
"9. c #71665D",
"0. c #71665C",
"q. c #71685F",
"w. c #72695E",
"e. c #796C5D",
"r. c #6E604C",
"t. c #6F6D61",
"y. c #6E6E6E",
"u. c #666460",
"i. c #726A61",
"p. c #716C61",
"a. c #736B61",
"s. c #726E6E",
"d. c #7B7164",
"f. c #78726A",
"g. c #727273",
"h. c #7C7C7B",
"j. c #747778",
"k. c #A2611D",
"l. c #825E2C",
"z. c #86592A",
"x. c #895C38",
"c. c #945334",
"v. c #B45A2B",
"b. c #A75D33",
"n. c #AB5C2C",
"m. c #81612C",
"M. c #826126",
"N. c #816133",
"B. c #81613D",
"V. c #A4622A",
"C. c #A56436",
"Z. c #805D4B",
"A. c #9B6744",
"S. c #836F5E",
"D. c #9C7C5A",
"F. c #987854",
"G. c #8E6D4F",
"H. c #A97A5D",
"J. c #937C6C",
"K. c #937E71",
"L. c #867A73",
"P. c #A67D62",
"I. c #AA8659",
"U. c #948075",
"Y. c #8D8175",
"T. c #A88C77",
"R. c #AB917B",
"E. c #B68F72",
"W. c #CD9654",
"Q. c #C1996D",
"!. c #C29C72",
"~. c #CDB275",
"^. c #FAD476",
"/. c #F3CB71",
"(. c #7C7C81",
"). c #877D81",
"_. c #838283",
"`. c #8B8B8B",
"'. c #868689",
"]. c #949494",
"[. c #9D9C9C",
"{. c #999796",
"}. c #948F8F",
"|. c #AA9789",
" X c #A49489",
".X c #BBA28D",
"XX c #B9A596",
"oX c #9D9EA0",
"OX c #9CA0A4",
"+X c #A5A5A5",
"@X c #A6A6A9",
"#X c #A9A6A8",
"$X c #AAAAAA",
"%X c #A9A7A8",
"&X c #BCACA4",
"*X c #B4ACAB",
"=X c #B3A9A4",
"-X c #B4B1AC",
";X c #B3AFB1",
":X c #B4B3B3",
">X c #BEBEBE",
",X c #AEB4AE",
"<X c #D7B58C",
"1X c #DDBB9C",
"2X c #D7B996",
"3X c #C8A693",
"4X c #E5B98C",
"5X c #EABA8C",
"6X c #E7B787",
"7X c #E4BB94",
"8X c #E5BC99",
"9X c #CBAFA2",
"0X c #EBC59B",
"qX c #FAD482",
"wX c #FCD4AC",
"eX c #FFD8AD",
"rX c #FED5A6",
"tX c #FCD5B3",
"yX c #FCD9B4",
"uX c #FAD9BB",
"iX c #F6D6BA",
"pX c #E8CFAE",
"aX c #BDBFC2",
"sX c #C2BFC0",
"dX c #BEC1C5",
"fX c #C1C1C1",
"gX c #EFDCC5",
"hX c #F3DAC2",
/* pixels */
"=.4.4.<.%.,.*.*.*.,.,.,.*.] ] :.:.:.4.6.6.4.+ w.9.&.0.0.0.w.w.0.%.4.4.<.:.4.5.5.5.9.9.4.<.{ ] :.:.:.4.q.q.4.O i.4.&.<.5.9.q.q.4.",
"&.) =.k 2.,.,.*.*.2.2.,.*...=.:.:.:.<.4.6.5.O w.0.0.0.&.>.0.0.0.&.) =.k i.9.4.5.4.i.i.9.<.&.=.:.:.:.<.4.q.5.o q.5.>.>.&.<.4.i.q.",
"[ 4.=.k ,.,.,.,.,.2.2.2.,.,.) ] _ ] ] ]  ._ j _ =.9.0.9.@.{ { 0.[ 4.=.^ q.9.q.4.q.i.i.i.4.4.' :.:.<.<.>.4.%.) &.4.4.<.4.9.4.q.4.",
":.q.q.] ,.,.,.,.2.2.2.2.2.,.j & > ; ; Y Y > > > > 0.0.0.- ; & @.:.q.q.[ q.6.6.6.i.i.i.a.i.4.' <.>.<.<.<.5.<.4.=.4.4.4.q.a.a.a.=.",
"q.9.q.] 2.2.,.2.2.2.2.u.u.*.~ & & = W Y W = & = 8 >.>.&.8 & = <.q.6.6.] i.i.6.i.p.i.i.a.a.5.=.5.q.4.5.<.{ 4.%.) ' :.5.<.=.[ ' q.",
"4.4.4.%.,.2.2.2.2.,.,.2.2.] ) + 4 3 2 6 2 4 4 3 j w.q.4.6 6 3 &.5.5.7...5.p.p.t.t.p.p.p.a.' a.5.q.4.<.%.o [ 5.i.a.a.i.i.5.7 4.4.",
"4.4.4.{ &.*.2.2.! > R > R = h n g f x x D g m f b = 8 6 >.&.&.h 7 = Q ] &.:.t.t.t.p.p.p.[ ) 4.<.<.<.&.= #.4.5.5.4.i.i.i.i.6.=.4.",
"6.4.{ 5.9.a.5.) - - > - > = h m q M M M M t m f x + & + r.;.;.d + * : *.4.a.4.] ' %.&.) X & =.5.:.%.=.) 4.5.5.5.4.i.i.i.i.i.{ 6.",
"5...^ { =.&.9...> - - > = 6 l B q t t M t t t B z 3 O 4 ;.H I d + * : ] =.&.9...7 0.w.e.w.0.>.@.9 { :.&.5.5.5.4.4.i.q.q.i.i.' 4.",
"<.a.a.i.a.5.=.O & & + + 2 2 d B t y y N y y M V z 4 @ 4 J B.H 5 4 O - <.a.5.=.O >.e.e.e.w.w.0.0.w.&.k 4.5.5.4.4.4.6.6.6.q.i.8 { ",
"4.4.4.4.<.^ ^ 8 k h l d d d V M t w y y w Z S S J F F C P G N.S F F } ) ^ ^ &.{ 8.e.e.e.w.w.0.0.0.w.&.] ^ ~ ~ ^ ^ ^ / ^ / [ %.q.",
"4.4.4.4.&.> = 6 b x B V M B M t t y w y r Z N.K P P P P m.A K K P I ;.s O = [ <.&.e.e.e.e.w.0.0.0.0.0.7 > > - > - > > - > j q.4.",
"4.4.q.4.&.= + 3 z B N w w y t t t N N N y S P K m.m.m.K A K K m.m.G I 5 = : ] <.) e.e.e.e.e.0.0.>.0.8.=.> - > - > - > > > j i.q.",
"a.i.a.6.&.& & 3 B N y w w w y M M M N N N S A A L l.l.m.K P A m.l.m.I 5 & : ] <.O w.e.e.e.e.0.>.%.%.%._ X.X.X.| | | ~ > - ! d.d.",
"d.a.a.q.&.> = + V M N y w w y M M t S l.m.S t t y l.l.M.M.K N.m.M.m.I 0 & - ] { . 9 >.w.w.0.0.>.> = = ! >X>XfX$X+X$Xg.- - _ ' a.",
"' <.6.5...; ; + B N M t w w t M M t S m.m.S M t p m.m.L L P G P K K U h = - ~ { :.5.#.} #.&.&.&.- = = ! fXfXfX$X+X$Xg.- > ~ %.q.",
"9.:.&.&.] ; & 3 V y M M t t t M M t S l.l.S M M y K K m.K P G P K K J d 6 & ~ <.5.4.4.<.v >.#.v - % % > fX>XfX$X+X%Xg.- > j <.a.",
"5. .j j k l g g t y M t t t M M M t i Z Z N M M N N.N.A Z Z Z A l.m.P J F F h ! ! _ 4.<.:.! ~ / +X$X$X+X`.`.`.:X:X>Xh.- > ~ a.a.",
"5.] > = 3 B t t w t M t t t M M M y w r r y t M N N.N.l.i a w l.m.m.N.G P P x > > ^ 5.#.>.> > ! >XfXfXfXg.y.y.:XsXfX_.- - ~ q.4.",
"4.[ = > 9 B t y t t t M N t t M y y r r y y y N y N.K A w w w l.l.A K K K P x & > ! ] >.%.- - > fX>X>X>Xg.g.y.:XsX>X_.- - 8 4.4.",
"5.] = - 9 B M N y t t t N t G.D.D.D.D.D.D.D.D.D.F.A K S Z N N A m.K K m.m.P x - > ~ ^ %.&.y.y.y.$X:X:X:X_.h.h.+X$X$Xh.! ! ^ ' <.",
") ^ = - 9 B M N y t t t N u <XeXrXeXeXwXyXeXeXeX0Xu t t N.G P K K K K m.m.P x = > > = > ,.fXfX>Xg.y.y.g.+X+X$X| % % [ 4.4.4.9.{ ",
"<.[ = > 3 B t t w t t t y u <XrXrXeXtXyXyXyXeXrX0Xu y N P G N.A m.m.m.K m.P x > > > = - ,.fXfX>Xj.y.y.g.+X+X$X| > - [ 4.4.4.4.[ ",
"q.[ & - 7 f B t y y M t w u <XrXrXwXuXiXiXuXtXrX0X1 y e P I I P K m.m.A P U x % - - % - X.fX>X>Xg.g.g.g.+X$X$X| > > [ 4.4.4.6.=.",
"6.5.&.:.%.9 3 5 M t M M y u !.5X0X0XR.S.S..XyXyXwX0X0XpXf d d J P K G f d h 7 > > h.:X$X$X'.'.'.[.[.[.[.X.X.X.%.%.*.,.6.6.9.&.4.",
"6.i.i.p.<.; ; 2 B y M M N y Q.4X4X1XJ.4 4 T.iXtXwXyXyXpXd 3 @ +.U P H d = : : - - _.fXfX:Xy.g.j.+X$X$X+X> > > =.5.5.6.6.6.9.' i.",
"q.i.i.p.<.> > + B y M t t u !.4X7X1XK.2 2 R.iXyXtXyXuXiXl 3 + +.P N.H 0 = : : > - _.fXfX:Xy.y.g.+X$X+X+X> > - =.5.4.4.6.6.:.&.6.",
"q.q.i.i.,.: > + m t y y y e Q.6X4X1XK.& O  XuXwXtXtXiXhXh + + +.G l.H 5 = : - % % _.fXfX:Xy.g.g.+X+X$X+X! > > =.5.5.4.<.{ o 5.6.",
"q.q.i.i.<.R ; 3 m p w w N e Q.5X5X1XK.O O R.yXwXyXtXuXhXh + @ +.G N.x.5 + $ j.`.`.{.+X+X[.`.`.`._.'._._.] / _ ..k [ %.%.&.k =.q.",
"4.9.i.i.*.R ; 6 f q w r N e !.6X5X1XK.6 @ R.iXtXtXtXtXiXl 3 @ +.I N.B.5 = $ OXfXfX+Xy.y.h.$X$X+X> % % - 5.5.<.{ q.4.4.4.4.6.{ >.",
"_ =._ { =.- > + x g M N N V !.5X4X8XK.2 2 R.uXtXtXtXtXiXd 4 4 +.;.H ;.5 = $ oXsXfX$Xy.g.h.$X%X+Xj = > > .._ X &.5.4.4.4.4.9.4.{ ",
"=.4.9.&.= > > = v x g M M e !.6X5X8XJ.l l R.tXwXwXeXwXtXF z x +.+.;.r.) ~ Q oX>X>X+Xs.g.h.+X+X[.! > > > 5.:.X &.5.5.5.5.9.q.9.4.",
"=.4.4.<.&.<.<.:.& 4 < B t e !.6X6X4X1X1X2X<X4X4X0XwXeXtXiXpXiXe.4 4 @ -X>X>X].j.j.`.+X+X[.> ~ ! &.&.<.4.6.4.O i.4.&.<.5.9.q.q.4.",
"&.) =.k i.9.4.<.8 & 4 g M e !.6X6X4X2X1X2X4X6X6X7XeXwXtXiXhXgXw.3 + o :XfXfX{.y.y.`.+X+X[.- - > &.:.<.4.6.5.o q.5.>.>.&.<.4.q.q.",
"' ,. .^ q.9.6.4.; ; 2 f f g E.7X7X8X1X1X8X1X7X8X8XuXuXuXhXhXgXq.X o . :XsXfX{.y.y.`.$X$X[.- > > &.<.<.<.4.%.) &.4.4.<.4.9.4.q.4.",
"..,.,.' q.6.6.4.Y ; & n F F J.T.T.T.R.R.R.T.T.T.R..X.X.X|.|.|.{.{.].[.[.[.{.{.].].'.h.h.j.] ~ ] <.<.<.<.5.0.w.%.4.4.4.q.a.a.a.=.",
",.,.,.) i.i.6.q.Y Y = } @.#.} b c l } @.@.b c c ` @.@.} 2     -XfXdXfX_.s.s.].$X+X`.% % j 5.=.5.q.4.5.<.{ q.>.) ' <.5.<.=.[ ] 2.",
",.,.,.=.5.a.p.i.: ; > [ { X.] ) ) _ [ ..*.[ ) ) _ ..%.' O & % :XaXdXdX_.s.s.{.@X$X`.- > ! ' a.5.q.4.<.%.o [ 5.i.a.a.i.i.5.7 ,.,.",
",.,.*.{ &.:.i.i.> > % *.2.,. ./ ^ _ [ [ ..] _ / ]  .....> = . :XdXdXaX'.j.j.].[.+X'.> 8 8 ) 4.<.<.<.&.= #.4.5.5.4.i.i.i.i.6.[ ,.",
",.,.[ 5.9.a.4.' - - ; [.-X-XY. ... .) ) ) ]  ....._ _ ^ & - - [.@X@X+X@X@X@Xg.> ! ~ &._ X + =.5.:.%.=.) 4.5.5.5.4.i.i.i.i.i.[ ,.",
"*.] k { =.&.6...= > % +X*X*XY. .%.=.} v v ' =.=.[ ` ) _ = > % oX#X$X#X#X@X$Xj.- - ~ 4.q.4.5.:.{ 7 { :.&.5.5.5.4.4.i.q.q.i.i.] ,.",
"<.a.a.i.a.5.=.O = = % #X$X*XK.$.$.-.D z D x n F D D c c O # , [.#X%X+X$X$X$Xj.- > / q.4.5.5.<.<.5.%.k 4.5.5.4.4.4.6.6.6.q.i.8 [ ",
"4.4.4.4.4.4.9.{ > > % +X*X*XK.x.x.x.x.x.x.I.~.~.~.z.x.Z. X}.].j.g.s.s.g.g.g.u.) ] &.q.4.5.5.<.<.<.<.=.' 5.5.4.4.4.4.6.6.6.4.%.q.",
"4.4.4.4.4.4.4.&.> > % +X*X&XT.C.b.C.b.b.b.W.qX^./.V.C.A.3X&X;Xo.- % & % > - { 8.=.4.6.6.6.5.<.<.<.<.5.7 :.5.4.4.5.4.6.6.6.' a.9.",
"4.4.q.4.5.5.5.&.- - - +X*X9XE.b.n.v.v.v.v.W.^.^./.k.V.A.3XXX*Xo.: > > & % > { 8.) q.9.6.6.6.5.:.:.:.:.=.{ <.<.5.5.5.4.q.=.) w.q.",
"a.i.a.6.5.5.<.<.> > - oX*X3XP.C.V.n.v.v.v.W.^.^./.V.V.A.3X9X*Xo.: - > ; > > { 0.O 5.6.6.6.6.5.:.:.:.:.' <.{ ' :.5.:.=.&.5.{ d.d.",
"d.a.a.q.5.5.<.{ - - - '.[. XT.P.H.H.A.c.c.I.~.~.~.A.A.G.|. X{.| - - ; ~ ~ ~ =.#.. 9 :.4.4.5.:.:.:.:.=.& ' =.%.=.{ ' ^ { i.a.' a.",
"' <.6.5.&.=._ { - > - > $ , }.&X&X&XL.2 2 + . X h J.K.L.& # % : - > ; >.>.&.} #.>.0.#.' { =.=.=.=.[ j { 5.<.<.5.4.9.a.d.5.{ %.q.",
"e.8.>.>.[ 7 j ^ - > > > : $ ].#X:X$Xg.- : : T > ( ).L.L.R : T : > & & ~ ~ > ) >.0.0.0.>.k &.{ k &.i.=.4.4.4.5.>.5.4.i.a.a._ 0.e.",
"w.0.w.w.&.> > > - > > > > - ].;X$X,Xj.: T E : Y ( )._.(.R E : T : ; ; ; > - = 0.0.0.0.>.<.<.:.=.4.a.a.:.i.q.q.5.4.4.q.4.) >.d.d.",
"w.0.w.w.%.> > > > > > > - - O.o. .o.! : R * > R o.*X=X#XW R T T : > ; ; & = 8 @.0.0.0.@.6.:.&.%.<.a.a.' 9.q.q.9.<.%.' 5.d.>.e.w.",
"w.w.w.&.*.> > > > > > > > R > > o & > ; > & = = o.=X&X=Xk ; : T : : > ; & = ) :.@.@.} &.<.:.:.=.5.i.i.k %.:.) & [ { ' &.<._ w.w.",
"w.w.#._ _ > > > > > > > ; : R ; & 9 ; Y ; & & & X.*X&X=X8 % > > > ; > ; = = ] 4.5.5.) 5.:.:.:.{ :.q.{ i.q.q.q.] i.4.4.q.<.{ [ 8.",
") #.q.4.&.> > > > > > > > > : Y ; & ; ; ; = > - O.}.}.}.8 ; > ; ; ; > > - : ~ <.5.5.{ =.:.:.%.9 [ <.:.q.q.q.q.&.4.4.4.4.4.4.9.{ ",
"<.q.5.4.&.> > > > > > > * * : T - > > > * > : T * $ $ $ : > & > ; ; > : : : | _ <.5.%.  o k _ { ' _ _ 4.5.q.{ q.5.5.5.4.4.4.4.[ ",
"q.4.q.q.>. . .[ > > - - > * - > > > - - - - : : - - : : > - > ; ; ; > ] | | X.*.^ =._ &.i.i.4.4.4.4.q.=.& j =.5.5.>.>.4.4.4.6.=.",
"6.6.q.w.p.9.4.5.> - - > - - - > - > ; ; > > > > > - > - > > > - > - > *.,.,.,.,. .k a.q.9.9.4.6.6.6.6.4.) . 4.5.5.>.5.9.9.9.&.4.",
"6.i.i.p.i.9.9.5.> > - > > > > > > > - ; > > > > > > > > > - - > > > - *.2.,.,.,...<.6.9.q.6.6.6.6.6.6.4.*.j <.<.<.>.4.9.9.9.' i.",
"q.i.i.w.i.9.9.5.> 8 > j 8 > > > - > - > > > > > > > - > ! ! ! W > ! > *.2.,.,.,.] i.6.6.6.6.6.6.6.6.6.2.{ X :.<.5.4.4.4.9.:.&.6.",
"q.q.i.i.q.4.4.4._ :.4.9.4.4.^ - > - > > > > > > > - > > { O ,.,.,.,.,.2.2.,.,.,.^ :.7.6.6.6.6.t.t.i.q.4.=.5.:.:.5.5.4.<.{ O 5.q.",
"q.q.i.i.i.4.4.4.{ ' 5.4.5.>.^ > > > > > > > > > > > - > &.v [ ,.,.,.2.,.,.,.,.,.[ ] 5.7.5.5.2.4.q.i.6...i.4.5.%.k [ %.%.&.k =.q.",
"4.9.i.i.4.4.4.<.{ ) ^ _ { =.~ - > - > > > > > > > > > > 0.w.@.*.,.,.2.2.,.,.,.*.[ ) _ ' [ ..:.,.<.%._ { 4.5.<.{ q.4.4.4.4.q.{ >.",
"_ =._ { <.&.[ [ ..,.,.*._ X . 8 _  .*. .] ^ o [ =.=.%.%.0.0.0.@.) =.) ] *...] [ &.4.5.5.{ o . j { <.q.<.=._ X &.5.4.4.4.4.9.4.{ ",
"=.4.9.&.7  .,.*.*.*.,.*.*.[ = <.<.4.q.6.4.:.X &.0.0.0.0.0.0.0.9.=.4.9.&.6 %.6.5.<.<.4.4.<.=.= <.<.4.q.6.4.:.X &.5.5.5.5.9.q.9.4."
};
