/* XPM */
static char *rcp14926516063702086[] = {
/* columns rows colors chars-per-pixel */
"64 64 237 2 ",
"   c #33251B",
".  c #2B2824",
"X  c #322B25",
"o  c #342F29",
"O  c #392B25",
"+  c #36312B",
"@  c #3B352E",
"#  c #3E382A",
"$  c #2D3437",
"%  c #363636",
"&  c #3A3634",
"*  c #363936",
"=  c #3B3935",
"-  c #36373A",
";  c #3A363A",
":  c #36393B",
">  c #3A393B",
",  c #382E34",
"<  c #45331D",
"1  c #443926",
"2  c #4A3B26",
"3  c #443B2C",
"4  c #47372A",
"5  c #433C34",
"6  c #493D32",
"7  c #413E3C",
"8  c #413636",
"9  c #4B3625",
"0  c #3C403C",
"q  c #664B1D",
"w  c #694A1C",
"e  c #6A471A",
"r  c #71521E",
"t  c #6F501F",
"y  c #4B412C",
"u  c #5C4626",
"i  c #5C4925",
"p  c #53442D",
"a  c #5B462A",
"s  c #5B4A2C",
"d  c #57492C",
"f  c #4B4336",
"g  c #45413C",
"h  c #4B443C",
"j  c #4E493B",
"k  c #534534",
"l  c #554934",
"z  c #5C4B32",
"x  c #54443B",
"c  c #574B3B",
"v  c #654A23",
"b  c #6A4C23",
"n  c #614B2B",
"m  c #604724",
"M  c #6E5123",
"N  c #725325",
"B  c #735429",
"V  c #7B5D2D",
"C  c #76582A",
"Z  c #604A3B",
"A  c #6D5939",
"S  c #745A34",
"D  c #7C5D33",
"F  c #745C3B",
"G  c #7B5E3B",
"H  c #7A5532",
"J  c #7D622C",
"K  c #7D6133",
"L  c #7C603B",
"P  c #74613E",
"I  c #3D3C41",
"U  c #373841",
"Y  c #413D43",
"T  c #3C4042",
"R  c #444342",
"E  c #4A4643",
"W  c #4D4945",
"Q  c #4D4C4B",
"!  c #464548",
"~  c #534C45",
"^  c #5B4C43",
"/  c #534E49",
"(  c #5A4F4B",
")  c #565047",
"_  c #56514B",
"`  c #5B544C",
"'  c #5E584F",
"]  c #595146",
"[  c #4F4F51",
"{  c #554F56",
"}  c #535353",
"|  c #5C5651",
" . c #5E5953",
".. c #5C5C5A",
"X. c #4F5052",
"o. c #6B5943",
"O. c #61564C",
"+. c #62594E",
"@. c #685544",
"#. c #755E46",
"$. c #635C53",
"%. c #6B5E55",
"&. c #645E59",
"*. c #625651",
"=. c #746244",
"-. c #676056",
";. c #6A6157",
":. c #65615B",
">. c #6A655A",
",. c #6C655B",
"<. c #69645E",
"1. c #6A655E",
"2. c #6F665D",
"3. c #6E655C",
"4. c #6C645B",
"5. c #6F685E",
"6. c #6F685E",
"7. c #71665D",
"8. c #72665C",
"9. c #71685F",
"0. c #72695D",
"q. c #796D5D",
"w. c #746555",
"e. c #6F6040",
"r. c #646463",
"t. c #6A6661",
"y. c #6C6C6C",
"u. c #676767",
"i. c #726A61",
"p. c #736B61",
"a. c #796C63",
"s. c #7B7164",
"d. c #78726A",
"f. c #737373",
"g. c #7B7B7B",
"h. c #7B7774",
"j. c #6F7277",
"k. c #9E5D1D",
"l. c #A35C17",
"z. c #825F2C",
"x. c #835F25",
"c. c #825F32",
"v. c #8B5C37",
"b. c #935C3A",
"n. c #AB5D2A",
"m. c #A65E33",
"M. c #B35B2C",
"N. c #81612C",
"B. c #826132",
"V. c #85613C",
"C. c #96642F",
"Z. c #A56337",
"A. c #AC6E2B",
"S. c #876F5E",
"D. c #9B6D55",
"F. c #956E4E",
"G. c #A87A5C",
"H. c #857567",
"J. c #957B68",
"K. c #857D7B",
"L. c #917B75",
"P. c #A37B64",
"I. c #9F8456",
"U. c #99836B",
"Y. c #9E8979",
"T. c #83847E",
"R. c #A98666",
"E. c #A58A76",
"W. c #AA937D",
"Q. c #B59673",
"!. c #B49778",
"~. c #B6956F",
"^. c #BEA573",
"/. c #B6935A",
"(. c #D4A557",
"). c #CDA274",
"_. c #C7A47A",
"`. c #D1A974",
"'. c #D5B26F",
"]. c #E7BB70",
"[. c #F9CE72",
"{. c #FAD176",
"}. c #837E84",
"|. c #838383",
" X c #8C8C8C",
".X c #888484",
"XX c #938B87",
"oX c #949495",
"OX c #9B9A9A",
"+X c #9A9796",
"@X c #948D8B",
"#X c #B89E8D",
"$X c #A29B98",
"%X c #A2948E",
"&X c #A5A39D",
"*X c #BBA597",
"=X c #B5A18E",
"-X c #99A1A6",
";X c #A4A4A4",
":X c #AAA5A5",
">X c #ABA8A4",
",X c #ABAAAA",
"<X c #A7A8A8",
"1X c #B3ABAA",
"2X c #B6AAA6",
"3X c #B4B4B4",
"4X c #BDBDBD",
"5X c #BBB8B8",
"6X c #B3ADB3",
"7X c #C4A588",
"8X c #DBB78D",
"9X c #DCBA92",
"0X c #D9B798",
"qX c #C3A998",
"wX c #E4B98D",
"eX c #E8B88A",
"rX c #E2BB93",
"tX c #E6BA92",
"yX c #DBBDA2",
"uX c #C3BEB9",
"iX c #E0BFA6",
"pX c #E8C399",
"aX c #F2CB8B",
"sX c #DCC1A9",
"dX c #E7C7A8",
"fX c #F6D3AD",
"gX c #FCD5AC",
"hX c #FBD4A7",
"jX c #EBCFB4",
"kX c #F4D4B4",
"lX c #FBD6B2",
"zX c #F7D6B4",
"xX c #F1CFB3",
"cX c #BEBCC1",
"vX c #C1BDC1",
"bX c #C1C1C1",
"nX c #C8C1C3",
/* pixels */
"*.3.3.;.$.:.&.&.&.:.:.:.&._ _ -.-.-.3.5.5.3.@ q.7.%.8.8.8.8.8.8.$.,.,.-.-.3.,.4.4.7.7.3.;.' _ -.-.-.3.5.5.3.@ i.3.%.;.,.7.9.9.3.",
"%.~ *.h <.:.:.&.&.<.<.:.&. .*.-.-.-.;.3.5.4.@ q.8.8.8.%.4.8.8.8.%.~ *.h i.7.3.4.3.i.i.7.;.%.*.-.-.-.;.3.5.,.+ i.,.4.4.%.;.3.9.9.",
"` 3.*.h :.:.:.:.:.<.<.<.:.:.` -.-.;.;.;.5.$.~ %.7.7.8.8.8.8.8.8.` ,.*.W 9.7.3.3.3.i.a.a.p.i.' ;.-.-.;.;.3.$.~ %.3.3.;.3.7.3.9.3.",
"-.9.9._ :.:.:.:.<.<.<.<.<.:._ ;.4.;.;.;.,.;.3.$.7.8.8.q.a.a.a.O._ _ _ _ 9.5.3. .| &.&.t.t.r.|  .$.%.;.;.,.;.3.*.3.3.3.9.p.p.p.*.",
"9.7.9._ <.<.:.<.<.<.<.t.3.%.+.,.9.3.,.;.' 3.$.W ` ;.4.;.+.O.` %.h = > / i.9.4.W > > > > > > > > W ;.<.;.' 3.$.~ ` -.4.;.*.` ` 9.",
"3.3.3.$.:.<.<.<.<.<.<.<.<._ p.,.9.3.;.$.+ ` >.i.p.p.i.i.,.5 7.$.f # = _ 4.p.5.E ; > > * * * : : W ;.;.$.+ ` ;.9.p.p.i.i.,.5 3.3.",
"3.3.3.' %.&.<.<.<.<.<.<._ ~ ,.;.;.;.%.= ' 3.4.4.3.i.i.i.9.;.` O.l y y ( *.&.1.E 5 5 3 3 3 3 5 = E *.' = ` %.%.%.4.i.i.i.i.5.*.3.",
"5.3.' ,.7.p.,./ W |  .W X & *.4.-.$.*./ 3.,.4.,.3.i.i.i.:.R U W o.P o.x Y > 5 l z s v v v n n z l 5 5 > > > I R %.i.i.i.i.i.' 5.",
"4. .W ' *.%.7.*.5 8.0.q.0.0.;.O.5 ' -.%.,.,.,.3.3.i.9.9.:.T ; h A K L x ; = # d s v w w w w v n k 3 & % > > : R &.i.9.9.i.i.` 3.",
";.p.p.i.p.,.*.@ -.q.q.q.0.0.8.8.0.%.h 3.,.,.3.3.3.5.5.5.&.> & k S J K p 8 # 1 d n v q w w w v n k 3 @ @ & = = g $.5.5.5.9.i.5 ' ",
"3.,.;.;.4.4.3.` ;.0.0.0.0.0.8.8.8.8.%.` 4.,.3.3.3.3.4.<.*.5 4 a S N.J u 4 4 2 i v v w w w w v n d 2 1 4 1 3 3 g *.4.4.3.5.3.$.9.",
"3.$.W E W W W E E / W _ 0.0.8.8.8.8.8.5 -.4.3.3.,. .W W ~ o.A S D J J S A A A S D C N w w w v v n u a a a d k f h g W &.5.) i.3.",
"3.| > > > % > % % = > E 8.q.8.8.;.,.;.*.' ;.;.,.4.| 0 ; x F K D K J J K L G D c.c.D C q w b v v b v b v v n z l 5 = > *.*.~ i.9.",
"i. .> > % > > > > > > W 8.q.8.;.>.;.;.` ;.' ` -.;._ > > x G z.z.K J J J D K B.c.z.z.C w q q q q w w w w q v n d 3 % > _ 4.' s.s.",
"s.$.> > > } u.u.f.h.h.f.%.*.*.-.>.;.%.@ ` *.$.*.` W > > x G z.z.N.J J x.N.D D V C C C N M b v q w w w w q v v i 5 - > / i.p.` a.",
") ` > > > f.;X;X,X5X4X,X} > 7 ` %.O.h ' ,.;.;.,.3.| > = k G z.z.N.J J x.N.K D N w w C V K B b q q w w w q v v u 3 - > :.,.' $.9.",
"3._ > - > h.;X;X3X4XbX3X} > > g %.9.*.,.3.3.,.4.4.' 5 @ p L N.z.K K K z.z.J K M w q C B.K C v q q v w w q v v u 2 @ 5 %.p.( ;.p.",
";.` > > > h.<X;X,X5X4X3Xr.Q Q | ;.5.i.-.i.9.3.;.;.` 6 2 u K N.N.J D D B.B.K K M q q C D V B q v v v v v v v v m 2 4 5 ' W %.i.p.",
";.` > > % |.5X4X,X X|. X,X3X;Xy.7 R | ` 7.9.` E R ^ o.F S K J V N b b V V J K M q w q N N q w v v v v v v v v v u u k h R R $.3.",
"4.` : > >  X4XbX<Xg.f.h.5XcX5Xf.% > _ j %.;.g % > c #.L K J J V t w w D K K V M q w w w w e w w q v v v v v v v v b n 6 - - ` 4.",
";.` > % % |.4X4X<Xg.f.g.3X4X3Xh.> R ~ q.0.0./ > = z G z.N.J J V r w w V K V V C M B B B B B B N b v v v b q v w w w v 6 > > W %.",
"W _ / W W h.OXOXOX X X X;X;X;X X|.|.d.' ' ' g > & z K N.z.N.J V C r N C V C V R.Q.Q.Q.Q.Q.Q.Q.~.R.B v v v q q w w w v 6 = * ` ` ",
";.9.;.;.;.| R R f.OX;X;Xg.f.g.,X4X5X X% > > % > % z K N.z.B.N.J J J V M w w D rXhXfXfXkXfXhXhXhX9XL w w q q q w q q v 6 = * ` ` ",
"9.3.9.9.3._ % % y.;X<X;Xh.f.h.,XbX4X X% > % > > = z L K K c.c.B.K K K M w e D tXgXlXzXzXlXlXgXgX9XL w w q q q w v n s 5 * % ` ' ",
"5.5.i.p.p.` > % u.oX;XOXg.f.g.<X4X3X XQ } } R > = c e.P F c.z.D F e.P =.V.V.F.pXlXzXkXjXjXkXgXhX9XV.w q q q q q i d l f 7 > / 4.",
"5.i.i.p.i.4.&.%.| | ..r.oX;XOX X|.|.OX3X3X3Xh.> = 5 y y s D B.S d y c 0XdXpXpXhXlXkXqXw.w.!.0XpX7XD q q q b w q 2 3 6 ' :.%.) i.",
"9.i.i.p.i.3.3.3.W 7 > } ;X;X;X|.f.f.;XbX4XbXg.R > % = # p D B.S p & c yXlXgXgXgXlXxX=X< < E.0X9X_.D w w q v w i 2 & >  .5.%.%.5.",
"i.i.i.i.9.3.3.3.E 7 > Q ;X<X;X|.y.f.;XbXbXbXg.> % - ; = p D N.S k % x iXlXgXgXgXlXkX=X  O Y.0XrX_.D q w w w q i 3 % > | ' @ ,.9.",
"9.9.i.i.i.3.3.3./ > > Q OX;X;X|.f.h.;X4X4X4X|.! R > > = p D z.S f % x yXlXgXgXgXlXkX=XX o Y.0XwX).S q w e w q i 3 & I _ %.h *.9.",
"3.7.i.i.3.3.3.;._ E E / f.f.h. XoXoXoXoXOXOXOXOXOXg.> : k L c.S f * j yXgXgXgXfXlXkX#XX O Y.0XwX).D v v w q v s 3 & I  .3.5.' 4.",
"( *.( ' ;.%.' ' &.3.;.:.g > Q oX;X;X Xf.f.f.<X4X4XOXI - f G B.S f $ j yXlXlXlXlXlXxX#XO O Y.0XtX).D v b w v v d 6 % >  .3.7.3.' ",
"*.3.7.%.5 $.5.4.;.;.3.;.7 > !  X<X;X Xy.f.f.<X4X4XOXR > j P K S f > ~ sXlXlXlXlXlXkX#XO 4 E.0XwX).D v v v n s l 3 = > | 7.9.7.3.",
"*.3.3.;.-.3.,.4.4.5.5.;.E > Q |.OXOX Xg.g.h.;X3X3XOXu.r.4.A A #.q.S.H.dXlXgXgXhXhXfX7X#.#.!.rXwX).D v n u a d l h 7 R $.7.9.9.3.",
"%.~ *.h i.7.3.4.<.i.p.3.%.$.' / R Q |.;X;X;X Xh.h.OX4X5X>Xj # H.yXxXfXfXgXgXhXpXeXwXrX0X0XrXeXeX).c.v s 2 1 1 f *.%.-.%.;.3.9.9.",
"` :.| W 9.7.5.3.i.p.i.i.3.3.` E > R |.<X;X;X.Xf.f.oXvXvX,XR o H.dXlXgXgXgXgXhXtXeXwXwXrX9XwXeXeX).V v z 4 4 @ g %.3.;.3.7.3.9.3.",
" .:.:.` 9.5.5.5.i.i.i.p.i.3.] W > R |.;X;X;X|.f.f.oXcXvX<XX.> H.sXkXfXkXkXfXfXpX8X8X9X9X9X9X8XwX_.G n c 5 8 % 7 %.3.3.9.p.p.p.*.",
":.:.:./ i.i.5.i.p.i.i.p.p.,.+.$.$.$.t.y.y.y. XoXOXoXoXoXoX&X&X$X%XY.Y.W.W.W.W.U.U.J.U.U.U.U.J.J.S.@.O.` 5 ; ; > / -.4.;.*.` _ <.",
":.:.:.*.,.p.p.p.i.i.i.i.p.` s.8.q.8._ > > >  X;X;XoXf.f. X5XuX1Xy.> h *.%.%.%.` ( ( *.$.$.O.^ ^ ` |  . .7 ; : R <.p.i.i.,.5 :.:.",
":.:.&.' %.-.i.i.i.i.i.p.' ^ q.8.w.;./ > > %  X;X;XoXf.j. XvXnX1Xu.$ * _  . . ./ ~ ~ ` *.*.` ~ ~ ( $.$.| > U U R &.i.i.i.i.5.` :.",
":.:.` ,.7.p.3._ ( *.%.( X @ %.8.;.$._ > g > |.oXoX X|.}.oX5X4X<Xu.$ = ) ` | _ _ _ _ _ ' ' ` ( / $.d.h.d.g ; U ! &.i.i.i.i.i.` :.",
"&._ j ' *.%.5.*.5 8.8.8.7.8.%.O.5 ` %.$.-.-._ R R h.;X;X;X<X<XOX..+ = h / / / | | | _ / / `  .| h.&X>X&X_ > : R %.i.9.9.i.i._ :.",
";.p.p.i.p.,.*.@ %.q.q.7.8.8.8.4.8.$.h ,.4.4.W > > f.<X<X;X<X>X+X..% > h ~ ~ ~ | '  ._ W / `  .' h.:X6X:X_ > > R &.5.5.5.9.i.5 ` ",
"3.3.3.3.3.3.7.' ;.q.q.8.8.8.4.4.8.8.$.` ;.4./ > R j.-X;X;X;X:X+X:.R E ~ Z Z Z #.=.=.o.^ ^ @.@.@.H.>X6X,X} > ; R &.3.5.5.5.3.$.9.",
"3.3.3.3.3.3.3.;.+.q.8.q.8.8.4.4.8.8.8.5 -.4.%.$. .:.r.r.u.u.u.f.@XOX%XS.v.v.C.`.'.'./.v.b.b.b.V.J.*X2X:X[ > > R *.3.5.5.5.) i.3.",
"3.3.9.3.,.4.4.;.~ 8.8.q.8.8.8.%.%.;.;.*.' ;.;.4.;.| 7 5 > I : r.OX2X*XG.Z.n.A.].{.[.(.k.n.M.n.Z.G.7X2X:X} - : R &.,.3.9.*.~ i.9.",
"p.i.p.5.,.4.;.;.@ 8.8.q.8.8.8.%.%.%.%.` ;.' ` -.;._ > 5 ; - $ r.$X2XqXG.n.n.A.].{.[.(.l.n.M.M.m.G.*X2X:X[ > - R &.-.*.%.4.' s.s.",
"d.a.p.9.3.,.;.' . 5 %.8.8.8.%.%.%.%.$.& ` *.$.*.` W > 5 > U $ r.$X2X*XP.Z.m.Z.].aXaX(.k.m.m.Z.F.P.*X1X<XX.> > > / ` W ' i.p.` p.",
"` ;.5.,.%.*.( ' ;.4.*.` +.$.$.$.$.` h ' ,.;.;.3.3.&.| ` Q : - } }.XXXXJ.D.D.D.Q.^.^.I.C H D.R.E.Y.XX X|.! - > g &.7.p.s.,.' $.9.",
"q.w.;.;.O.6 ( ;.4.3.3.;.j %.' j -.i.*.<.3.3.4.,.,.,.3.9.&.U - > I R E H.L.L.L.@.k p 2 6 9 L.*X*X%X( Y R > > > 7  .;.5.i.p.( w.q.",
"0.8.8.0.8.O.5 ;.;.,.3.;.4.;.-.$.5.p.p.-.p.9.9.,.,.&./ / 7 : : > ; - I d.K.K.K._ & & 8 ; , }.1X1X+X/ ; ; ; > > > R R W &.~ ;.s.s.",
"0.8.0.0.;.+.g ' ,.,.,.' 3.-.-.$.4.p.p.` 9.9.9.9.-._ > > > : - > % - I h..X.XT._ = & & ; % g.;X>X@XW & ; > > > > > > > | s.;.q.q.",
"0.0.0.$.7.;.+.-.' ' ) $.;.-.-.*.4.p.i.h $.-.~ = ` / > > > - : > % > R %X>X>X;X<.= = % ; ; R } } Q = % ; - > > > > % > ` ;.( q.0.",
"0.0.+.( ` h %.3.,.4.~ 4.-.-.-.' ;.9.' 9.5.5.5._ 9.| > % % : : > > % R $X2X1X<Xr.> % > > - > > > - : > > > - - > > > >  .;.' ` w.",
"~ +.9.3.3.3.` ;.4.4.` *.-.-.$.5 ` -.-.5.5.5.5.%.3.| > % ; : : = = = R +X1X,X,Xu.; > : * * > - ; > > - > > > > > > > >  .3.3.3.' ",
";.9.4.3.3.3.3.` ;.4.%.. + h ( ' _ ( ( ,.,.9.' 9.4.| > ; > : > > % % I h.|.|.}.{ ; > : * * = ; ; ; > - > > - > > > - >  .3.3.3.` ",
"9.3.9.9.3.3.3.4.~ *.( %.i.i.3.3.3.3.9.*.& g *.,.4.| R > > : > ; % ; ; > Y Y Y ; ; ; > * * = ; > ; > > % > % > > > > > | 3.3.5.*.",
"5.5.9.9.p.7.3.3.*.h p.7.7.3.7.3.9.3.3.3.~ X 3.4.;.%.$.&.| > > > > - > - > > - > > > > > > > - > > > > > : % > g _  .*.;.7.7.%.3.",
"5.i.i.p.i.7.7.3.%.;.9.7.7.7.7.7.7.3.3.3.%.h ;.;.;.;.3.3.%.Y - > > > % > - - : > > > > > > > > - - > - % > % % R *.;.3.3.7.7.` i.",
"9.i.i.9.i.7.7.3.` i.3.7.3.3.9.9.7.7.3.3.+.o -.;.4.3.3.3.%.7 > > > > > > > > > > - ; > > > > > > > > > > > % > g *.3.3.3.7.-.%.5.",
"9.9.i.i.9.3.3.3.) -.3.7.3.3.9.i.i.i.9.3.*.,.-.-.4.,.3.;.` & E W W W E > - - > > - > > > > > - - > W Q Q R E R W %.,.3.;.' @ ,.9.",
"9.9.i.i.i.3.3.3.' ` 4.3.,.;.3.3.9.i.9.*.i.3.4.*.j ` $.$.%.h ` &.:.:.&.R - > > > - - > > - > > - E ;.3. .3.;.;.*.h ` $.$.%.h *.9.",
"3.7.i.i.3.3.3.;.' ~ W ( ` *.%.;.;.$.( ' 3.,.:.` q.8.7.7.7.8.O.&.:.:.:.R > > > > : - > > > > > > E  .( ' 3.,.:.` 9.3.3.3.3.9.' 4.",
"( *.( ' ;.%.` `  .:.:.&./ o . h +.;.9.;.*.( o %.8.7.7.7.7.8.8.O./ *.~ R > > > > > > > > > > > > R %.9.;.*./ o %.,.3.3.3.3.7.3.' ",
"*.3.7.%.5 | :.&.&.&.:.&.&.` = ;.;.3.9.5.3.-.o %.8.8.8.8.8.8.8.8.*.3.3.| = ` %.*. . .&.&. .` = *.$.3.9.5.3.-.X %.,.,.4.,.7.9.7.3."
};
