/* XPM */
static char *rcp44844800063709263[] = {
/* columns rows colors chars-per-pixel */
"64 64 184 2 ",
"   c #37322C",
".  c #3C352F",
"X  c #3C3932",
"o  c #453F38",
"O  c #433D36",
"+  c #4A443E",
"@  c #54533F",
"#  c #545D3E",
"$  c #4E4740",
"%  c #4D4F48",
"&  c #4D4B45",
"*  c #544D45",
"=  c #5C4C45",
"-  c #554E4A",
";  c #5C4D49",
":  c #4D554A",
">  c #545344",
",  c #5B5445",
"<  c #565D40",
"1  c #585846",
"2  c #55524B",
"3  c #5C524C",
"4  c #5D594C",
"5  c #535350",
"6  c #5D5351",
"7  c #5F5952",
"8  c #614D47",
"9  c #614E4B",
"0  c #605147",
"q  c #60514C",
"w  c #60594C",
"e  c #635452",
"r  c #635C53",
"t  c #6A5E55",
"y  c #635F59",
"u  c #5F725A",
"i  c #5F7859",
"p  c #666057",
"a  c #696057",
"s  c #65625B",
"d  c #6C655C",
"f  c #666C5E",
"g  c #6D695E",
"h  c #71665D",
"j  c #72695F",
"k  c #65725C",
"l  c #69755B",
"z  c #6D6663",
"x  c #666C62",
"c  c #6C6964",
"v  c #6E6969",
"b  c #636B6A",
"n  c #716564",
"m  c #736B61",
"M  c #706168",
"N  c #6D7065",
"B  c #7B7266",
"V  c #7D7568",
"C  c #897E79",
"Z  c #1F974F",
"A  c #1D9A4F",
"S  c #179755",
"D  c #1D9655",
"F  c #1D9954",
"G  c #16965D",
"H  c #1C955C",
"J  c #16995D",
"K  c #1B985A",
"L  c #22994F",
"P  c #258E5F",
"I  c #2E8B5F",
"U  c #229655",
"Y  c #299255",
"T  c #219853",
"R  c #21955B",
"E  c #2B925D",
"W  c #219858",
"Q  c #2FAC4D",
"!  c #35AB47",
"~  c #37A74B",
"^  c #3BA54E",
"/  c #33AA4D",
"(  c #3CAA4E",
")  c #2EAB52",
"_  c #2FA859",
"`  c #34A754",
"'  c #3CA553",
"]  c #32A952",
"[  c #3CAA52",
"{  c #33A75A",
"}  c #3CA45A",
"|  c #32A958",
" . c #3DA959",
".. c #0E8B65",
"X. c #0E8A6A",
"o. c #108B64",
"O. c #108A69",
"+. c #179561",
"@. c #1B9461",
"#. c #1C9861",
"$. c #179469",
"%. c #1A9269",
"&. c #238D61",
"*. c #239261",
"=. c #2B9163",
"-. c #499C57",
";. c #459E5D",
":. c #4A9E5C",
">. c #43A64E",
",. c #48A34E",
"<. c #42AA4E",
"1. c #48A94E",
"2. c #43A553",
"3. c #48A652",
"4. c #43AA51",
"5. c #49A853",
"6. c #45A45B",
"7. c #828C76",
"8. c #85857C",
"9. c #8C837E",
"0. c #858A7F",
"q. c #88897E",
"w. c #81917A",
"e. c #7E8585",
"r. c #868582",
"t. c #8D8381",
"y. c #8A8581",
"u. c #8D8582",
"i. c #8A8785",
"p. c #8D8685",
"a. c #8C8583",
"s. c #848A83",
"d. c #8F8886",
"f. c #8C8985",
"g. c #8D8688",
"h. c #818988",
"j. c #858989",
"k. c #8A8988",
"l. c #8F8988",
"z. c #918585",
"x. c #918585",
"c. c #908987",
"v. c #918688",
"b. c #918989",
"n. c #B2AFAF",
"m. c #BCAFAE",
"M. c #BBAEAD",
"N. c #ADB1AD",
"B. c #A7BAA9",
"V. c #B4B3AD",
"C. c #B9B1AE",
"Z. c #B1B8AC",
"A. c #B3B4A6",
"S. c #B9AFB0",
"D. c #BBAFB1",
"F. c #A7B4B4",
"G. c #AAB3B2",
"H. c #AAB5B3",
"J. c #ACB3B2",
"K. c #B1B2B2",
"L. c #B6B2B2",
"P. c #B3B2B2",
"I. c #BBB1B0",
"U. c #BBB1B2",
"Y. c #BDB1B1",
"T. c #BBB1B2",
"R. c #C1ACB0",
"E. c #8EDF8E",
"W. c #95DE86",
"Q. c #99DF87",
"!. c #95DE8B",
"~. c #99DD8C",
"^. c #9CD790",
"/. c #93DE90",
"(. c #9CDB93",
"). c #A3D78D",
"_. c #A1D88D",
"`. c #A3D494",
"'. c #A1DA92",
"]. c #8DE287",
"[. c #8EE18B",
"{. c #92E186",
"}. c #93E08A",
"|. c #99E08B",
/* pixels */
"r d d a r s y y y s s s y 2 2 a a a d g g d . j h t h h h j K.Y.T.T.T.P.a d d d d h h d a 4 2 a a a d g g d . m d t a d h j j d ",
"t * r + d s s y y d d s y 7 7 a a a a d g d . j h h d t d j H.T.U.Y.U.G.m m d d d m m h a t r a a a a d g d   j d d d t a h j j ",
"3 d r + s s s s s d d d s s 2 a a a a d h.j.s.j.K.K.6 - 2 2 z.p.f.u.a.f.J.S.3 = * : m m d d 2 a a a a a d r * t d d a d h d j d ",
"a j j 2 s s s s s d d d d s 3 d d s a d h.p.u.f.U.m.9 = = = u.a.i.t.u.u.U.D.q = ; 2 m m m g 2 a d a a a d a d r d h d j m m m r ",
"j h m 2 d d s d d d d z z s G.n.3 2 r.j.p.u.t.t.U.m.3 = = ; u.t.i.i.p.f.L.C.3 ; t.i.k.i.L.V.2 2 g d d a 4 d r * 2 a d a r 3 2 j ",
"d d d y s d d d d d d d z 3 H.m.e q 9.a.t.r.z.k.L.S.e 3 = ; u.p.z.p.p.z.M.C.3 ; u.i.p.p.U.m.3 * g d d t   3 d m m m m m d O d d ",
"d d d 4 t y d d d s 5 2 s.h.z.z.M.M.3 2 v c u.p.u.f.C.M.; = u.i.r.k.a.9.3 3 = ; u.p.r.f.U.C.3 = - ; r.e.r d d d d m m m m g r d ",
"g d 4 d h m d * & 5 > ; t.a.9.k.L.M.9 = n c r.u.x.a.U.M.3 = a.i.t.p.i.t.; = ; 2 u.p.f.p.C.M.q = , 3 u.h.m d d d d m m m m m 4 g ",
"d 7 $ 4 r t h r % * = = c v i.g.i.z.; = = 8 v v p.l.U.D.9 = z n c v z c = ; t.u.p.p.C.M.e 9 = ; t.p.u.k.V.F.d d d m j j m m 2 d ",
"a m m m m d r X 3 9 = = d v i.i.p.t.6 ; ; = z v u.t.V.V.3 > f x x g f x ; ; u.a.a.z.m.m.q ; ; ; p.i.p.a.U.K.g d d g g g j m o 4 ",
"d d d d d d j.s.S.C.3 = = = z z a.a.C.C.9 = = 8 v k ;.' ^ ^ ' ' ' ' ` :.f n u.k.U.M.e 3 9.9.9.u.u.f.8.z.U.M.6 5 d d g g g d r j ",
"d d d d d g j.f.U.m.q ; 3 3 z z p.z.D.S.3 > @ > v l 2.( ( ( ( ( ( [ ( 3.i N 0.s.L.C.q ; 9.a.a.t.a.a.f.c.C.m.6 2 g g g g g > m d ",
"d d j d - 2 u.u.i.a.a.p.D.M.6 ; r.p.u.7.-.^ ^ 3.^.~.!.~.~.~.~.~.~.~.~.~.'.~.2.' ' ;.> = n v g.f.U.U.Y.M.e 6 t.z.K.G.g j r * m j ",
"m m m g - ; q.t.a.x.p.p.D.m.1 > s.s.s.w.6.( [ 5.].!.~.~.~.~.~.~.!.}.!.~.~.}.4.[ ( 2.< 3 x f g.s.M.M.m.m.q ; t.f.R.K.a t d 4 B V ",
"V B m g * = c v c z t.u.U.Z.:.' 2.2.(.'.!.Q.~.!.<.( ( ( ( ( ( ( <.( ( [ ( <.!.~.Q.~.~.~.2.:.N.D.e q q q 9.u.r.f.r.v.K.G.m m 2 m ",
"2 a d d * * z z z z i.f.M.A.' / [ <.!.}.~.}.~.~.[ ] / ] ] ] ] ] ] / / / / [ !.~.~.~.~.!.5.3.B.C.3 > = ; u.a.i.a.f.t.C.V.d 4 r j ",
"h a : * = = = = ; ; c v q 3 ' ( !.!.5.[ ( [ ( [ U H D H H H H H H H H H H H [ [ ( ( ( <.!.~.6.2.' 2.g z i.u.a.i.i.u.q 3 m * a m ",
"d a * = = = ; = 3 ; h n , # 2.4.!.!.[ ` ' / ] | F H H H H H H H H H H H H Z ] ] / ] ] [ !.}.5.( ( 3.x z r.u.a.i.9.C = - * a m m ",
"d a * = = ; t.p.C.m.q 3 `.'.}.~.5.' F K H W H W | / ] / / ] ] ] / / / / / | W H H R D T [ <.!.~.}.(.m c g.i.a.9.2 ; ; - m t j d ",
"d d * = ; ; u.f.L.M.e w ~.~.~.!.[ { S H H S J F [ <.( ( ( ( ( ( ( ( ( ( ( [ U S H H H H {  .!.}.~.(.l l p.p.u.9.; = ; 2 d * d d ",
"d d - = z c u.p.p.c.C.V.5.( ( ] W R H H | ] ] [ !.~.~.~.~.~.~.~.~.~.~.~.~.[.[ / ] ] H H U L ' ( ( 1.(.`.c z ; ; = ; 9.u.K.J.4 a ",
"* 4 - = z n a.u.p.a.C.V.2.~ ' ) H @.H F  .( [ 4./.~.}.!.!.!.!.!.!.!.!.!.!.}.<.( [ [ U H G H { Q ~ ( [.~.f c ; ; = 9 u.f.U.K.m 3 ",
"a g - = z n c c p.t.a.0.' Q F H H D { [ !.!.!.].5.( ( ( ( ( ( ( ( ( ( [ [ <.!.~.~.!.( ] D H R Y ] ~ ( 3.> 9 x.a.f.a.p.i.Y.K.j 3 ",
"c g 2 2 z v v n t.r.a.0.} | S H H T | 4.!.!.~.W.( / ` / / / / / ] / / / ~ ( !.~.~.!.5. .U K H H ` / / ' > ; j.r.t.t.p.u.M.N.m r ",
"r.h.a.9.; ; = 8 ; 2 8 2 R K | / ] <.W.!.1.( [ ( ] | U H H H H H H H H D ] ~ ( <.( <.!.!.[ ] / / F T ] ^ f n k.a.z.p.p.r.e 6 y d ",
"p.u.f.t.3 ; = * = = > : P H / ! ( 5.!./.[ ! / / / ] D H H H H H K H @.H | ' | ] / ( }.}.4.( / ] @.K | ' u f a.t.a.8.u.9.e 5 3 m ",
"n z r.i.u.9.8 = = > =.P J H ] 4.Q.!.5.( ! ] F H H H H H @.H H H @.H H K D H H U ] / ( <.!.!.<./ H H R T } ;.f n ; ; ; e M.C.J.P.",
"z v a.a.u.u.3 3 q 2 =.H H D  .4.!.[.' | ] | K H H H H H H H H H H H H H @.@.K H ] ] ] [ {.!.4.[ U H @.H | ' g M ; ; ; 6 M.U.U.Y.",
"= ; v z a.l.U.U.D.V.=.H { [ !.!.5.[ U S U H H H @.H { / / / / / / / ] | H @.@.@.H H W U [ 4.}.!.( { H @.R E > ; t.t.u.u.p.p.U.Y.",
"= = n z i.i.C.U.T.V.E D [ <.}.~.[ ] H +.@.@.H H D F <.( ( ( ( ( ( ( (  .F S H @.H H H K ) ( !.!.<.' A S H &.> = p.a.a.p.t.p.S.m.",
"= = = ; v v u.u.T.A.}  .!.}.<.[ ~ ] H @.H G H H ] | }.~.~.~.~.~.~.!.~.!.2.{ H @.@.H @.W / ( ( 4.}.!. .{ R =.x z a.a.k.a.a.u.6 q ",
"= = = = z v u.a.D.A.2.( !.~.( / ] | W @.H G H @.( 4.!.~.~.~.~.~.~.!.~.!.5. .U H @.H @.H | / Q ( ~.~.( ] U R x v a.a.i.i.u.t.; = ",
"= ; = = = ; ; ; q 1 ^ ( ~.!.<.] K H H @.@.H ` [ W.!.4.( ( ( [ ( ( [ ( 5.!.W.[ | H @.@.H H H Q [ ~.!.( ` W *.b c p.p.a.t.2 ; = = ",
"; ; ; ; ; ; 3 3 = > ,.<.!.}.[ ] K H @.@.H T ( 4.!.~.( ~ / ] / / ] ` ! ( [.!.5.( T H +.H H H / ( Q.!.<.[ A Y b z a.u.u.t.q 3 q 3 ",
"z z t.u.u.u.C.M.9 , !.}.<.( / ^ H H @.K _ [ !.!.<.( / | T H H H K U / ] [ 5.!.!.| { H H H H / ~ ( 5.!.!.[  .> = ; ; ; q M.m.M.M.",
"z z a.a.i.p.C.S.e 4 ~.!.( / Q ] *.@.H F  .5.!.!.( / ] ] H @.H @.G K | ] ~ ( /.W.4.[ D K @.H | / / ( !.~.( ^ > ; ; ; ; 3 C.Y.U.Y.",
"= ; u.p.p.p.r.v.C.C.'.!.( ' T K H F | ' [.}.4.( ^ / W H X.X.@.@.X.X.H U | ~ ] <.!.!. .] H @.H U ^ ( ~.!.( ^ f v a.9.u.u.a.g.T.Y.",
"= ; u.i.t.t.i.g.U.C.'.~.( ] H @.@.H ] <.~.~.( / ] ) H %...X.H K X...+.H ] ] / ( !.!.( / H @.H H / ( ~.~.( ' x v i.a.a.9.a.f.U.T.",
"= ; v z u.p.p.i.Y.C.(.~.( ] H H H H ] ( ~.~.[ / T H o...@.@.` ` @.+.X.O.H H / ( !.~.( ] R @.@.H / ( ~.!.( ' c v a.p.p.p.p.a.U.T.",
"= = z z u.9.t.a.M.C.(.~.( ] H H H H ] ( ~.~.[ ] H +.X.X.K F ( ( W K X.X.+.H / [ !.~.( / W H H H / ( ~.!.( ' g n a.i.r.t.u.u.M.M.",
"= ; v z ; ; n z 3 4 ~.~.( ] H H H H ] ( ~.~.( / K H +.H | ' {.!.[ ] H @.S H ] [ !.~.( ] W H @.H / ( ~.!.( ^ > ; v v z n ; ; ; 9 ",
"= ; z z ; ; h z = 1 ~.~.( ] H H H H ] ( ~.~.( / H H G H ] ' {.!.[ Q @.+.@.H / ( !.~.( ] W H @.H / ( ~.!.( ' 2 ; z z z n 3 q q q ",
"= = ; = = = ; ; = , ~.~.( ] H H H H / ( ~.~.[ / @.@...X.H K [ [ W K O...@.H ) ( ~.~.( / H @.H H / ( ~.!.( ' q.9.2 = ; 6 M.m.M.M.",
"; ; ; ; 9 3 q 3 = 1 ~.~.( ] H @.H H / ( ~.~.[ ~ K H ..X.$.H ] | H +...X.K W / [ ~.!.[ / H @.H H / ( ~.!.( ' 0.u.2 ; ; 3 C.U.U.Y.",
"u.u.9.u.C.C.m.M.3 , ~.~.[ | H H H H / [ !.Q.[ ~ ] | H +.X.o.H H ....+.H ] | ~ ( ~.!.( / D @.H H / ( ~.!.( ' 0.p.t.u.u.u.p.p.U.Y.",
"a.a.u.p.C.U.Y.S.e 4 ~.~.( / T D H H |  .[.}.5.[ ~ ~ F K O...@.@.X.X.K U ] / ( 5.!.!. .| D @.D H / ( ~.!.( ' 0.p.i.i.r.a.a.t.M.m.",
"z v i.p.f.f.z.c.M.C.~.~.( ~ | | H H F U >.<.!.E.( / ] ] H +.@.H H @.) ] ~ ( }.!.5.( W H H H ) / / ( ~.!.( ' x v v z a.u.2 ; 3 q ",
"v v t.p.u.a.9.p.M.A.~.!.4.( / / H @.H @.] [ !.!.<.( ~ / D H H H H R / ] [ <.!.!.[ ) H H H H / ~ ( 4.!.!.[ ' f z v z u.9.; = q 9 ",
"z v v z a.9.3 = 9 3 2.4.!.!.( ` H K @.H H K ( 4.~.!.( / / / ] ] ] / / ( !.!.<.( W K K @.@.H ] ( !.!.4.( W E > ; ; ; ; ; = ; M.S.",
"z z c c u.t.; = = > ' [ !.~.( ~ U D @.@.H H / ] {.{.<.( ( ( ( ( ( ( [ 4.}.[. ._ R K H H D F ] ( !.!.( / H P 2 ; ; ; 3 ; ; q M.C.",
"= ; c z ; ; = = = > ^ ( !.~.( ~ | | H H H H H W [ 5.~.~.~.~.~.~.~.~.~.!.<.( T H H K @.H | | / ( ~.~.( ] H =.s.u.u.x.M.m.9 ; ; 3 ",
"= = z h = ; ; 3 0 1 } [ }.!.4.( ~ ] H K K @.@.K | [ {.~.~.~.~.~.~.!.}.}.[ { H H @.G @.H / / ( 5.!.!.[ | H E s.a.p.p.U.M.e q = = ",
"= = = = = 3 M.U.C.K.E U ' <.}.!.( ] H H H @.@.H W W [ ( [ ( ( ( ( [ ( ( W H @.H @.G @.H / <.[.!.5.2.F D H E s.u.i.p.a.p.M.m.9 = ",
"= = ; ; ; q D.U.Y.P.=.H { ( }.~.5. .D H H H @.H H H | / / / / / ] / / ] K H @.H K K H K [ 5.!.!. .| K @.@.Y s.u.i.a.i.p.U.M.e q ",
"= ; t.u.u.u.v.u.U.P.=.K H W [ <.}.!.[ / ] ) D @.@.@.H H H H H H H W R H H H @.K ) ` ] <.W.}.5.[ T D K H )  .x z p.p.p.p.f.f.U.Y.",
"= ; u.p.i.a.p.a.U.K.=.K H @./ ( W.!.<.( ( / D @.H H @.H H H H H H H H H H H H D ] ~ ( 4.!.!.( ] H H H U [ 3.f z u.p.t.u.t.u.M.U.",
"= ; u.p.a.a.p.r.p.f.} ] T R ] ] [ 4.!.!.( ~ ] | / ] W H H H H H H H H H | ] ] / / ( !.W.5.( ( ] #.D | [ [.~.1 ; z c a.a.2 ; 9 8 ",
"= ; t.u.u.u.t.9.p.8.' ) F U ] / / ( ~.!.4.( ( ( / ) F H H H H H H H H W / ~ ( ( [ 4.}.!.[ ] ( ] H U | <.!.).1 = n c u.9.3 q q 3 ",
"= = ; ; ; ; ; ; ; > ^ / ` { F H H F  .3.!.~.W.!.<.~ / ] ] ] ] ] ] / ] | / ( !.~.~.W.<.[ F W K H ] / / ( !._.1 = ; = ; q M.C.C.L.",
"; ; ; ; ; ; 9 3 = , 2.( / ` T H @.H | ' [.}.}.}.4.( ( ( ( ( ( ( ( ( ( ( ( 5.!.~./.W.[ ] U D H D / ~ ( 4.!.Q.1 ; ; = ; 3 M.U.U.Y.",
"u.u.u.u.u.u.C.M.q , ~.W.( / ] ` K H K U  .( ( 5.!.~.~.~.~.~.~.~.~.~.~.~.~.!.5.( [ [ F H H F | / / ( !.}.4.3.f c a.u.t.p.p.p.U.Y.",
"a.a.a.a.i.a.U.D.3 1 ~.!.4.( ( ( W H @.K ] / ] [ !.Q.!.~.~.~.~.~.~.~.~.~.~.W.] / ` | K H H F  .4.( 4.~.!.[ } x c i.t.t.a.t.p.S.Y.",
"z z z z a.p.z.t.= > 2.5.!.~.~.!.( | H H H H K F [ ( [ ( ( ( ( ( ( ( ( ( ( ' K R R H @.R ` [ !.}.~.!.<./ T Y 2 = v n i.i.p.u.6 3 ",
"v v v z a.r.t.r.; , ^ ( ~.|.~.~.( / D K H H @.R ] ( / / / / / / / / / / / / @.@.G H K H / ( ~.~.~.~.( ] H R - = z n k.i.a.9.; = "
};
