/* XPM */
static char *_181ea2919644eb8b52b2177c657fc63OhrgOzi13IUgrjIX[] = {
/* columns rows colors chars-per-pixel */
"64 64 52 1 ",
"  c #1C110F",
". c #1E1310",
"X c #231513",
"o c #271916",
"O c #291A17",
"+ c #2D1D1A",
"@ c #311F1C",
"# c #34211E",
"$ c #39241F",
"% c #362221",
"& c #3A2522",
"* c #3E2825",
"= c #422B26",
"- c #482E27",
"; c #452D2B",
": c #492F2B",
"> c #4B322E",
", c #4C322C",
"< c #4D322C",
"1 c #4C332F",
"2 c #4F342D",
"3 c #50342F",
"4 c #57362F",
"5 c #4B3230",
"6 c #4D3330",
"7 c #4C3231",
"8 c #523632",
"9 c #573631",
"0 c #563932",
"q c #563833",
"w c #573834",
"e c #593A33",
"r c #5E3B33",
"t c #5E3C33",
"y c #5B3B34",
"u c #5E3B34",
"i c #5B3C34",
"p c #5B3D37",
"a c #5C3C35",
"s c #5D3E38",
"d c #603B33",
"f c #603C33",
"g c #603B35",
"h c #613D35",
"j c #623E39",
"k c #633E39",
"l c #604037",
"z c #644037",
"x c #634038",
"c c #64413A",
"v c #684239",
"b c #6B453C",
/* pixels */
"rrtrudfuhuttrffffth4vaugr-11111111vaaaataarvrrruuu91111111111113",
">>>>5>5:1>>>>>>>>>>&a>>5:>jjjjjjj:s>>>>>>>&9:;::::%sjjjjjj-ajjhj",
">>>>>>>:2>>>>>>>>>>%a1>>:11>>>5>7%a>>>>>5>o----===+i7>>>>>&i1>>>",
">>>>>>>:X@@@@@@@@@#.a1>>:>1>>>>>>%a>>>57>>&h0w00ww=i5>>>>>%i>>>>",
">>>>>>>:2jjjjjjjjjj>a>>5-11>>>557%a1>>5>>1&u1>>>55&i>>>>>>%i>>>>",
">>>>>>>:21>>5>>>517%a7>>:11>>>5>1%a1>>>>>>*u>>>>55&>======+i>>>>",
">>>>>>>:211>>>>>>15&a1>>:#*******Oa1>>>>>>O*%%%%%%X100000e=i>11>",
">>>>>>>:311>>1>>5>>&=%%%@&uaaaaaa=;&%&&&&%+xhjjjjj-a717717&:****",
">>>>>>5:11>>>>1>>>1&eaaa01311>511&0aaaaaaa*a151117&i1>>>1>&3aaaa",
">>>>>>>:1>>>>>>>>1>%a>17:11>>>>11%a1111177*a>>>>>>&a1>>>>>&i>171",
">>>>>>>:1>5>>71>117%a775-11>5>>11%a1111>>5+*%%%%%%Xa1>>1>>&i>>>>",
">>>>>>>:&**********Oa>55:11>>>>>>%a>1>1155&zhhhjjh-s>1>>>>&a>>>>",
">>>>>>5:=yiiitaaaaa:i>55:11>>>>>>%a>>111>>=u>15111&a1>>>>>%a>>>>",
">>>>>>>:31111111111&a>5>:11>>111>%=%&&&&%%.#+@@@@@Xa11>>>>&a>>>>",
">>>551>:2>>>111>>75&a>>>:11>>>>>1%0hhhhhaa&bjjjjjj1i1>>>>>&a>>>>",
"+++++++O2>>>>11>>>>&a>>>:12>>1>1>%i1111111*a15>>>1&*#%%%%%Xs>>>>",
"cjjjhjjy2>>>>>1>>>7&a>>>:11>111>1&i1>>111>&u757>1>&ehhhjjj1:&&&%",
">>>>>>>:2>>>>>>>1>7&a>>>:&*******Oi1>>>>1>&y>:>>>>%i117777*0hhxh",
">>>>>>>:1:>>>>>>>>>%a>>>:*aia=8ia=s1>>>>5>X=======++$$$&&&oi>>5>",
">>>>>>>:X&&&&&&&O+##&&&&+131>%s11%a>>55>5>&jyyyyau:sjjhjjj>i>55>",
">>>>>>5:3aaaaaaa:jhjjhhjy12>>&a51&a>>>>>5>&y>>>>>5&i111>>>&i1>>>",
">>>>>>>:31>>>>17&a>55555:12>7&a1>&a>>>>>>>&9::::::%i1>>1>>&&###@",
">>>>55>:311>>>>5&a>>>>>5:12>1&a11%i1>>>>>>O1111111#i>1>>>>&ijjjx",
">>>>5>>:2>>1>>>7&a>>>>>5:=>::#0::#i11>>>15&h888888*i>>>>>1&i5775",
">>>555>:1>>>1117&a>>>>>>:+-------+a1175>>5*a555>17&i>>>>1>&a>>1>",
"=======**===;;;:@a>>>>>>:1000wwww=*%%%%#%#&a55>>>>%7::::::#8::::",
"333:=381&3333333&a1>>1>>:11>>>1>>%ejsjjjjx=a5>>>>1&*--11-1#&=---",
"117:a71>28888888*a1>>>>5:11>>>>>1&i1>11111*a>>>1>>&s888888=a9999",
">>>;a>>:21>>>>>5%a115>>5:11>>>111&a11>5>>>*a>>>>>>%i>>>1>1&i55>>",
">>>:a>>:2>>>>>>5%*%%%%%%@11>>>>51&a1755>>>*a5>>>>>&i>>>>>>&s>5>>",
">>>:a>>:2>>>>>>5&yjjjjjxy11>>>>11%i75755>>*a>>>>>5%i>5>5>>&a>>>>",
"&&&%1==*1>>>>115&a111111:11>>>>11%*###@#@@X&@@@@@@Xi>>1111&a>>5>",
"hhaa99911>>515>>%a>1111>-#*&*****Oijjjcccc&bcccccc1a>>571>&i>>>7",
">555177>@##%#%%%Xa>>>>15:&aaaaaaa=a1>5711>*a717757&i>>>757&>====",
"5>555>5:1hjxxxjj:a1>>5>5:-3711717%s>1>>1>>*a>111>5&i>>>>>>%2eeee",
"********31777775%a15>>75:-1>>1151%s15>11>>*a>5>>>>%&======+i1111",
"eeeeeii03>>1>775%a155555:-3>>11>>%s11111>>&a1>1>>>%s0wwwww;i>>>>",
">1>>1>1:2>>11>57&*##%%%#@@&%%%&&&X###%%####a>>>>>>%a1>>>55&i>>>5",
">>>>>>>:2>>>11>7&ysjxxxxi*hahhhhh=xjjjjjjj=a1>>1>7%a>>>55>&i>175",
">>1>>5>:1>>>1117&a111117:17111111%a1511>55#8;;::::@s>>>177&:&&&&",
"=======*1>>>15>5%a1>>1>>-1755>1>>%s15711>>+3122233&8::::::%0hhxj",
"aaaaaaa01117>555&a>>>>>>--755>>>>%a77771>5*a887878*=111111$i>5>>",
"1111111:1>51>>77&a>>1>1>:-7>1111>%s11771>>*a>>>>>1&a888888=i>>>>",
"55>>>55:O@+@@+++ a1>111>- $$&$#$&X+####$%%&a>>>5>>&i1111>5&%#@@@",
">>>5>>>:1cxccccc1a1>>11>->hjhjhjj1ajjjjjjj*a>>>>>>&i>5>>5>&acccc",
"*******&31555775&a>>>11>:1111>555%a111>>55*a>>1>>>&i>>>>>>&i1>>>",
"aaaassa021>55>>5&a17117>:11>1>>51&i>>>>>>>+=%%%%%%O*&&&&%%Oa>>51",
"11>>177:2>>>55>5&7::::::*-7>>11>7%i11>>>>>#xhjxlll19aahaah:i>>>>",
">>>5>>5:1>>>>>>>%=323333=11>>1117%i11>>11>*u755>>>&i1111>1&i1>5>",
"%%%%%%&%+@@@@@@@Xs888888111>>>>>>%=%&&&&&%&u1>>>55&i>>>11>&*####",
"hhjhhha01hjxxxxx=a>>>>17:11>>>>>5%ehhhhjjs*a7>5555&i>>>5>>&0jxxx",
"1>1171>:37711177%a11>155:11>>>>55%a1771177*u>>55>5%i>>>5>5&i1771",
">>>5>5>:2>511117&a>1>>>>:.&&$$$$$.i>>>>>1>X&&&&&&&oi755>15&i>>>>",
">>>>>5>:115>1115&a1>>555:1hhhjhhh:i>>>>>>>&chaahha1s155>15&i>>>>",
">>>5>5>:2>511117&*#####@+17>>15>7%a>>>1>>>&a>>>>>>&#@@@@@@.i>>>>",
">>>>>>>:1>>1>175%ij-ajxxa11>>1117%a1>>>>>>&u>>>>>5&axxjjxc>i>>55",
"###o+$$@.######%.a1&a115:11>>>>>>%a>>>>>>>+=&&&&&&Oi777711&a>>>5",
"hhh9aaa03hhhjjjj-a1&i11>:X@+@+++@ %+++++++Ohaaaaaa:s1117>1&&@@@@",
">>>:i>>:2>>>>>71&a1&a1>>-:jjjjjjj-sxjjjjjj*a777111&i1>1111&ixxxx",
">>>:a>>:21>>>>>>%a>&a1>>-12551577%a1>5>77>&a7>>117&i711>15&a1>>>",
"5>>:a>>:3>>>>>>>%a1%a1>>:11>>>55>%a1>>>>1>*a>>1>>>&a>>>>>>&a>>>>",
">>>=a>>:3>>>>>5>%a1%a>55:11>15>>>%a1>>>>>>&a11>1>>&i>>15>>&i>>>>",
">>>=i>>:2>>>>>>5%a>%a>5>:11>>5>>>%a>>>>>>>&a>>>>>>&i>>5>>>&i>>>>",
"cccxbcccvcccccccabcabccccccccccccabccccccvhbccvccchbcccccchbcvcc"
};
