/* XPM */
static char *ce8e5dc606c04506bcc16140a2b7ec4dhRSGtnoOvkILR65N[] = {
/* columns rows colors chars-per-pixel */
"64 64 57 1 ",
"  c #0B0F12",
". c #0E1215",
"X c #111416",
"o c #121619",
"O c #151A1D",
"+ c #181C1F",
"@ c #171D21",
"# c #191E22",
"$ c #172023",
"% c #1B2225",
"& c #1D252A",
"* c #1F292D",
"= c #20272B",
"- c #222A2E",
"; c #232E32",
": c #282F35",
"> c #252F38",
", c #253033",
"< c #263135",
"1 c #273234",
"2 c #273337",
"3 c #283033",
"4 c #283337",
"5 c #283537",
"6 c #263039",
"7 c #26333B",
"8 c #273539",
"9 c #27343C",
"0 c #283338",
"q c #2A3238",
"w c #293438",
"e c #2C373B",
"r c #29333C",
"t c #2A343C",
"y c #29363D",
"u c #2C363F",
"i c #2A383B",
"p c #2B393C",
"a c #2D3B3E",
"s c #2F3A3E",
"d c #303B3F",
"f c #313C3F",
"g c #2C3740",
"h c #2D3740",
"j c #2A3840",
"k c #2E3841",
"l c #2E3B43",
"z c #2F3C43",
"x c #2F3C44",
"c c #303A42",
"v c #313D44",
"b c #303C45",
"n c #303D45",
"m c #343F48",
"M c #35424B",
"N c #36434B",
"B c #38464E",
/* pixels */
"4<<<<;;;w<<@wf<;wskh9k;kyyyjkkkksswe+<zyy0+0<ww<66;;;<ww<<+wish0",
"<<<;;<<<w<>O;s4;<sk06n-ykyyyjkkksw<<O6xkh0+0<we06>;<;<www<+<wsy0",
"<<<<>6>60>;+%->;<5yy6y@-cuwwuswwe44-X>kyw4o><wu0>><<<4www4o<8pw<",
";<;;>>>>::;++$%%%&&&&%%$>yw<<5ww4<0@XX#%$+X4>4uy6><<<<4ww<O<jjs<",
"<<<;;;;;;;-X++X+O+O++@o+o+@+O++++++.@;<*%OO0<<yyw<<<<<9jw;+<www<",
";;;;;;;;;-&%<>-&+6<*@$&&&&&;>;%%&&-@;Bnks-+-w<<ww<<<<wkjk&+<<www",
"<;;;;;;;;-%%;<;=&Mjy<<ww<4wewwws<;<+knyy<w+@;<<wy6666ykyy-O><wky",
"<w4;;;;;--%%<<;=%j994<<4<wwewwww<*;+kyyy;<++;<;0yyy9yky96;O><wy6",
"ww<<4;;<--$%--;&%ww<<<<<<4wuhhpw4;;Owwsu4<X+-y>ryyuhkky99;X<;<44",
"w44<33<<=&$@&->@$<w<<<<<<<wwjjpw4;;+<wssw>oX&y6y99ryy99ke%o;--;<",
"<>0<-;>;&&@%;>&X$;<<;<00000ykkjyw<<@<<ew6>+X@6yy<<<<00<;&XX+&&&-",
"@$%&%$@@++++@OOX%;>>;;0000yyykkks0<@;4;<w&X o&>>>;;;&@o++%$$%%%%",
";*&==@%X+=>6w*@.&-;;;;<4<<<<4wsnMy&-%4>;@XX..+@$$@OOX-4O-;;<<;;<",
"w4>;>;@X$---;;&O&<4;;;;<444<<4wsnk&;@@++%&&<;-&&>4<;%%&O&-<<4www",
"www<;;=+=;----;@&<<<;;;44<;<4wrykk&&&&--;<ew;<>ekyw4;=+X%><4yy44",
"<www;;%@3;----;%&<w<;;;<<<4<w4runy%%=0w<<;<;<;w<6><<;3-%+;<4yr<;",
"--<4;&+%w<;;;;;%%>wsy0<w4wwe4wknx4+&;;;--ww<;;<<60;<<;;=+><ww<<;",
"--<54-+;ww<<<;>-@<<466<<<<<<<4yyn=O>*e;=wew<<;;<66<<<-;%@&<w<;;;",
";;<5<-+><<;;;;--.+&;;-;;-;;;><;4;++;sw;;www<<<;<6>;;-;;@>+<4--*;",
";;<50;+44;;;;;;-XX .XoXXX++@@+oX@&X;e4-4sw<;;;;;;;;;;;-@&+;;;;;;",
";;<4<;@4w;---;--X++@++@+XX+%-;-&o++;<;;4sw<-<;;;;;;;;;&$X$<<<;;;",
";<ww;<+><;--;;;<+@0>>-%+XO&*kks<;@+;<;;4w<<;<;;;;;;--;;&@$<5<;;;",
">rsw;<O>;;;;;;;<$w<<06;&+&;*<<5ww;+-;;;;<;;;;<;;<>---;0&@%;5<;;;",
"6us<;<+<66<--;;;%0<wuy<;+&;;6wwssw@&<;;;;;;*;-;;----;4>@+@;w<<<<",
"6hs<<<@<<<<*;;;;@<yjjjh6@%66uswwws$%;;;;;-----;-;--;<<;+X$&5ww<<",
"0yw<<<@ww<<<;<;;&wk9yyur@%0yw<<<4d&&-<;;;----;-&-;;<;;&XX@%<www4",
"ryw<w;@mxkw4006;;sk9ykp4#@yh44<<wn--%<;;;;;--;==--;<-&%+X#%4wuww",
"yy4w4*+nxjw400y-;kkyyks4%#ykswwwws-;-;4<;;;*--;;--;<-&&#X@&0<www",
"ww4<>%Xuxjw<<e>%&nyyknk9%@;ysseees-%4<w4<<4=;;;;--;<;*&&+&&;<<<w",
"4<;<>+o-kyw<4<&@@yyyyjy>%+%6wwewww&%<wsw<<&&<ww4<<<<<;=&@*<w<www",
"0w>&@$O%%;0<;#+%+&esyy<&+;@&<yees;@@*004-%&&wdnsw4ws>;;=+&&*%#%&",
"+++@4-@@&&%@O++@O$@$%#$++;&X%=--&+&@+$%%&&&&;wwwwww<&=<%++$@@@@%",
"**&%O+&<<<ww<<y;<essew;*@XO++@%%--&%&%%@XO+Xo@@&&%&@@@++&%%%&&&&",
"wey>%+;ww<<4ww04<4wswwe4>O$$&<wnnwwwwnde-4-&;w4+-@&80w-@@$%-45is",
"4<6r&X;wh6yuyyw4<eykkky6s+@$;ynd<<swwsw<*sw<<44-XO-w4ww&+&ww4<we",
"sw>y>+;w0>6yy0w<wekkkkkyu$&%;sne<<44<<<<;;<<<440<O4w<<<-@-<4wwss",
"sw<ww+;<w<4w44<;;<6y6yyy0@%&wss<;;6600<<<<<<<<y6w+4;;;;-@&wwssse",
"sew<e@-;<;<<<<<<<<6y96kkw%%5ssw<;;60r6<<<<<<<<yye+w;;;-;@;wwdsww",
"wshrs$<;;;<;www<<<yyy9kk0%>kew<<<<<66686<<<;;;>u-%w;<;;-@;<wsw44",
"wshrs@<ey0wwees4<<yhjyy6>#kuw4<ww<<60y96<;;;<<;;%&<;<;-=+;<wzs44",
"0esww+-kwwww4wkckyyyyyy90%ky4<<<<4<<<<<<;;;;;;;&@&<;w;;&+;>unyww",
"4wsww+&ksee4es6uxkkkkjkk>%njw<;<<<4<<4www<<<;;:;+&;;<;;%+;6kky<<",
"4wsps@%-6sny;&%-&;;>kky;@=ny4;;;6yuryyww<<<<----X@---=;@@;<wew<<",
"4ws<s@%@%=&@+++OOo#&-&OXo$nk0>>>>>>>>>;;--;;---%XO;&&=;++&;4ew<<",
"<ws<5%sw;&++X%+++++X.XX%&+sn0y>06&&&;;663;;;;4=%++->>>%=o&;<w<<<",
"<4w>;;s<6yu&o+&>-%0<&@@%@@%&&#@@#&%&&@%;;;wwe;@-+XX+O+o+O%<ww;<<",
"444<;0k644i;@&<sw&w>;=&>rryy0wu0<;@@-XXX+%%&&&-=&-=%++@X+&4ee4<w",
"<ww4-<yyyyp-&>w<y;;w<@&;6069<406;<-%%X%&;;;;;>00yyyuu0<%X-<wss<<",
"4w0<;-<<8wp%;k44<4&4&<;<<<<;;4ww<<<-%X&>;;;<<44wewwwyksw+&<wnsw4",
"ww6<<-<<<8z&60ww<<-&4<44;-;;;;<<<<4;&X->4<;<<;<<<<<<6rwd=&sssw<4",
"rhw<0-4ww<c%uusw<4&$<;ww;--;;;;;<ww<;o;;<>---;;;;;;<666y;-www<<<",
"6yew0-4ww<u%kkw<<<@@w<s<---;;;;;;<w<4+>:<;=--;;;<<;<yyrk;-weww4<",
"wsee0;<<;<w@www4<<+@www;**--;;;;;;44<@;<4;;-;4wwy6<4wwyj>;yysspw",
"isns0>ww<4s$<www<<%+404;-->>;;;;;<w<>+-<4;;;4wweuy44wwyy;>ckwsky",
"ykny0>yyw<u$&uew<;%+;6r0;;<;r6>0<w4;<+=-<<;<ww<4w4<49yyy-4kx9xxk",
"jnxy04yyw<w%&-w4<;+%+&yr;;4<y6ryww;-;o&;w<;;<<<<www4yjjy*4Mkykzk",
"kky90<we4<<;&%=><-0k%.$<yy0yyys0<<;-&X&;w4;;;;<4wwy9<ww<&;Mnnkkn",
"jy6yw6<ww4<<&%&&&@==@@+@&&--;;-;;<-@+&@>ww<<<;;;<4yywww<%;Mnnkkx",
"y9yks;s<wwy-++%=;w4-&%+O&;;;--&==&&$.+X@><ueuw4<<wuuw0>&X&MMnxkk",
"nnkk;&;>;;;o&eu<<<6606+-6y06<,;><>40XO%%@+@++@%%%&*;>;;;-@&eMnnn",
"%%&&;;>;;&@o;w66yyyywwO4<<<<w<<<<;<wX&w;;<+o&:<<0ykxnk06e4%;&&&-",
";-sykkyyps&O>w00yyjjwe@u<<<wswww<<<wX-4;;>+%&--;66yjky0>;w&ku6yy",
"45<<<<;<<4>+<ww444w8<e@s66wskpweww<wO;w;66@%%&;<<<weukj6;4%wyyw<",
"<<<<<<;;;<6@4ww444w844@w6yssj9wwweww@;w;>6@%&;<w<;;;<rjy;<%wyr<w"
};
