/* XPM */
static char *_f914ff2da424d5394536fa97dfc77a2877Z52olvRcvogHT[] = {
/* columns rows colors chars-per-pixel */
"64 64 253 2 ",
"   c #1D0F0B",
".  c #2B1712",
"X  c #341B16",
"o  c #3C2219",
"O  c #1F1626",
"+  c #261B2C",
"@  c #2B1F36",
"#  c #2B1F38",
"$  c #3B2526",
"%  c #2D2135",
"&  c #2D2139",
"*  c #36273A",
"=  c #472419",
"-  c #44251B",
";  c #4C291D",
":  c #532C1E",
">  c #5B2C1E",
",  c #5A311E",
"<  c #69301E",
"1  c #562E23",
"2  c #5B3222",
"3  c #5D382A",
"4  c #472E32",
"5  c #4A343B",
"6  c #543737",
"7  c #662E21",
"8  c #633624",
"9  c #6A3A27",
"0  c #743B2B",
"q  c #783928",
"w  c #673B34",
"e  c #793E30",
"r  c #544C3F",
"t  c #75422A",
"y  c #7C432D",
"u  c #6D4637",
"i  c #7A4737",
"p  c #3C2C44",
"a  c #402F43",
"s  c #48344A",
"d  c #563B47",
"f  c #493651",
"g  c #4E3B55",
"h  c #533C54",
"j  c #563F56",
"k  c #5E414E",
"l  c #5B4255",
"z  c #564258",
"x  c #5B4259",
"c  c #694744",
"v  c #744B47",
"b  c #695849",
"n  c #664858",
"m  c #734E5A",
"M  c #745750",
"N  c #77565B",
"B  c #6E6653",
"V  c #756958",
"C  c #5B4860",
"Z  c #6E536C",
"A  c #7D6462",
"S  c #7A7566",
"D  c #843D29",
"F  c #83432D",
"G  c #89462D",
"H  c #99492D",
"J  c #874735",
"K  c #8B4C34",
"L  c #944532",
"P  c #9C4A33",
"I  c #984A36",
"U  c #8B5235",
"Y  c #9C5335",
"T  c #985539",
"R  c #A9512E",
"E  c #A34C34",
"W  c #A94E34",
"Q  c #A45737",
"!  c #AC5235",
"~  c #AC543B",
"^  c #AC5B3B",
"/  c #B45535",
"(  c #B65936",
")  c #B2563C",
"_  c #B45A3C",
"`  c #BC5C3B",
"'  c #AA633A",
"]  c #B3633C",
"[  c #BB633E",
"{  c #B7683C",
"}  c #C25E3D",
"|  c #C4633C",
" . c #CB653D",
".. c #C2683D",
"X. c #CC693E",
"o. c #CD6D3F",
"O. c #865749",
"+. c #965945",
"@. c #865959",
"#. c #9B5F50",
"$. c #A65D43",
"%. c #B85B41",
"&. c #9A614B",
"*. c #876555",
"=. c #986857",
"-. c #8F7055",
";. c #A96648",
":. c #B86845",
">. c #A76A55",
",. c #B46E50",
"<. c #AD7458",
"1. c #B67457",
"2. c #8B5D63",
"3. c #896865",
"4. c #916365",
"5. c #966B68",
"6. c #897767",
"7. c #96766A",
"8. c #936E74",
"9. c #9A7775",
"0. c #A87667",
"q. c #AD786B",
"w. c #B37B68",
"e. c #A77B75",
"r. c #A57D7B",
"t. c #C25F40",
"y. c #C46342",
"u. c #CC6442",
"i. c #C46C43",
"p. c #CC6B42",
"a. c #C96C4A",
"s. c #D36B43",
"d. c #D76C46",
"f. c #D96D45",
"g. c #D46D49",
"h. c #CA7348",
"j. c #D37243",
"k. c #DB7345",
"l. c #DC734A",
"z. c #D8784A",
"x. c #CD6D50",
"c. c #C67957",
"v. c #D87952",
"b. c #E17647",
"n. c #E2764B",
"m. c #E57B4B",
"M. c #EA7C4D",
"N. c #F07E4F",
"B. c #E57952",
"V. c #EC7D51",
"C. c #F17E50",
"Z. c #C97F62",
"A. c #9D835C",
"S. c #A3885B",
"D. c #888678",
"F. c #998671",
"G. c #A78569",
"H. c #B78669",
"J. c #B59769",
"K. c #A9837B",
"L. c #B88779",
"P. c #AB9272",
"I. c #BA9B76",
"U. c #BDA172",
"Y. c #D5845A",
"T. c #EA824D",
"R. c #F2864E",
"E. c #E78855",
"W. c #F38352",
"Q. c #F98654",
"!. c #F58955",
"~. c #FC8C55",
"^. c #FD8C59",
"/. c #E99159",
"(. c #FC9356",
"). c #FE935B",
"_. c #FE9B5D",
"`. c #FEA15F",
"'. c #D08C6C",
"]. c #C58C7A",
"[. c #C6967A",
"{. c #EA8C64",
"}. c #F69A65",
"|. c #FD9D62",
" X c #D0AB76",
".X c #FEA363",
"XX c #FEAA65",
"oX c #FCA369",
"OX c #FEAC6A",
"+X c #FEB46C",
"@X c #FEBA6E",
"#X c #FDAB73",
"$X c #FEB475",
"%X c #FEBD72",
"&X c #FEC375",
"*X c #FECA7B",
"=X c #FED07E",
"-X c #959287",
";X c #97968A",
":X c #B68B82",
">X c #AD968F",
",X c #BA9688",
"<X c #9FA297",
"1X c #B5A087",
"2X c #A6A79C",
"3X c #B9A597",
"4X c #B9ACA2",
"5X c #B2B6AB",
"6X c #C79887",
"7X c #D59A87",
"8X c #C09E91",
"9X c #C6A699",
"0X c #D2AE94",
"qX c #E8B18B",
"wX c #CAB8A7",
"eX c #CFB6AD",
"rX c #D8B9A9",
"tX c #CBBBB2",
"yX c #E2BEAE",
"uX c #BBC1B7",
"iX c #FED483",
"pX c #F0C794",
"aX c #EDD29B",
"sX c #C7C4B7",
"dX c #D8CAB2",
"fX c #D6C8B8",
"gX c #EDD0AD",
"hX c #E5D3B8",
"jX c #F5E4BC",
"kX c #D1D1C7",
"lX c #DAD4C9",
"zX c #EDD6C6",
"xX c #E5D9C8",
"cX c #E4DBD3",
"vX c #EADCD3",
"bX c #DDE0D4",
"nX c #E9E0C6",
"mX c #F8E9C5",
"MX c #FCF5CB",
"NX c #E9E6D8",
"BX c #EBE5DB",
"VX c #F5EBD6",
"CX c #FCF7DA",
"ZX c #EBEAE3",
"AX c #F3EDE4",
"SX c #EEF2E9",
"DX c #FDFCE3",
"FX c #F4F3EC",
"GX c #F8F5E8",
"HX c #FCF4EB",
"JX c #F7F6F2",
"KX c #FDFDF4",
"LX c #FEFEFB",
/* pixels */
"< q q D H W / / :.'.[.c.a.g.n.m.W.Q.^.).oX).).|.Q.W.m.b.k.k.p.p.X.X. . .X.k.m.T.T.R.R.R.R.R.R.!._.}..XOXOX#X$X$X%XiX%X&X=XiXiXiX",
"< < D 1./ ` ( ` c.Y.:.c.z.m.V.W.Q.^.^.).^.).^.}.m.k.k.z.p.X. . . .X. .X.s.j.k.m.m.m.T.R.!.T.T.E.}.}..X_._.XXXXOX+X@X%X&XiXiXiXiX",
"Q q G :.E.l.` [ y.y.p.p.l.M.W.Q.Q.Q.Q.W.V.M.n.k.j.p.p. . . .|  .X.X.X.p.s.j.Y.Y.k.k.k.m.E.z.E././.R.(.(._.`.XXOX@X%X&X&X=XiXaXiX",
"G G P ) g.s.y.p.g.B.B.n.V.T.W.W.W.V.V.m.l.d.s.p.u. .|  .| | | |  . .X.p.p.p.qXqXj.o.j.z.z.z.E.E.T.R.(.(..X$XOX+X@X&X&X*X*X=XiX=X",
"D P ! Z.y.i.a.g.l.l.B.B.V.T.V.V.m.W.#XW.a.y.y.| | y.| | | | | | | | X.X.X.X.X.p.h.j.s.j.z.z.z.T.R.!.(._.`.OX+X@X%X&X&X*X*X*X*X*X",
"L E _ y.i.c.].rXzX7Xv.B.m.m.n.l.g.W.qXW.y.| } y.[ [ ` ` ` | | | | | |  . .h.v.X.X.p.p.j.k.k.m.T.R.^.)._..XOX%X%X%X&X&X&X&X&X&X&X",
"P Q _ c.[.I.6X6XxXLXBX7Xl.l.g.s.a.s.g.u.| y.` [ ` ` ` ( ` | | | | | | | |  . .X.p.j.j.j.k.k.T.R.^.)._..XXX+X@X%X%X&X&X&X%X%X%X@X",
"Y ~ ~ %.:.y.g.l.x.vXLXKXfXg.p.p.p.u.y.y.y.} ` ` c.Y.` ` ` } | | | | | | | | | ..h.j.j.k.k.m.R.~.)._..X.XXX+X@X%X%X%X@X@X%X&X@X+X",
"^ ^ Q ,.w.L.9X6X0XwXAXLXBXp.p.'.rXyX0X7Xa.| } ` [ [ ` ` ` ` ` u.l. .| | | | | X.p.s.j.k.M.W.^.)._._..X.XXX+X@X%X@X+X+X+X+X@XOXOX",
":.%.q.tXlXcXlXsXkXkXfXKXxXeXfXxXrXc.y.y.a.` } ` ` ( / ` ` ` ` p.l. .| | | | ..X.p.d.k.m.W.Q.).)._..X.X.XXXXXOXOXOXXXXXXXXXXXOXXX",
"%.H.SXbXkXkXlXkXFXlXfXBXlXcXcXBXJXvXa.y.y.| ` / ` ( ( ` ` ` ` ` | [ [ | | i.'.v.d.l.M.W.~.)._._.OX$X.X.X.X.X.X.X.X.X.X.X`.`.OXXX",
">XsXkXkXbXkX5XZXJXFXBXFXKXBXLXLXLXKXFXlXrX0XL.` ` ` ` ` ` ` ` ` ` ` ` [ i.h.Y.z.l.M.W.~.)._..X.XOX$X.X.X.X.X.X.X|._._._._.oX#X_.",
"<X5X5XsX5X5X5XSXJXKXKXFXJXBXLXLXxXxXBXBXwX,.` ` ` ` / / ( ` ` ` ` ` ` i.h.p.d.l.M.W.~.).|.|.|..X.X.X.X|.|._._._.).).(.(.(.(._._.",
"2X2X5X5XkXkXkXSXFXJXKXLXLXLXLXLXAXhXxXdXhXfXH.( / / / / / / ` ` ` ` c.Y.p.d.l.M.W.~.).).|.|.|.|.|.|.|._.).).).).^.^.~.~.~.~.(.).",
";X<X2XkXkXkXSXBXuXSXKXKXLXLXLXKXxXhXxXdXfXBX%.].1.W W / / / [ [ ` y.Y.g.d.k.M.W.~.).).|.|.|.|._.|.).).).^.^.^.~.W.R.R.R.R.~.^.(.",
"-X2X2XkX2X5XZXsX5XBXSXAXAXBXBXBXGXxXhXdXxXdX,./ w.>.W ! ! ! / ` ` i.h.s.l.m.W.Q.^.).).).).).).).).^.^.~.Q.W.R.T.M.M.M.T.T.W.~.~.",
";XuX2XuX5XkX2X5X;XbXZXBXlXcXGXGXFXGXdXdXwXdXBXw.! ,.W W W ! / ` | h.d.l.n.M.W.Q.^.^.^.^.^.^.~.~.~.Q.Q.W.W.M.m.b.b.b.E.qX{.R.W.R.",
";XuX<X2X5XuX2X;X= 2XsXkXSXJXJXAXlXBXfXwXfXwX9XBX<.! W ! ! / / ` p.g.l.n.V.C.W.Q.Q.Q.Q.Q.Q.Q.Q.Q.W.W.N.M.m.b.k.E.v.k.{.v.z.b.W.m.",
"-X<X;X<X2X;X-XD.= b V <X3XwXsXwXfXlXBXwXwXBXwXL.tX! ! ) ( ` } u.g.l.n.B.V.V.C.V.C.C.N.C.C.C.N.M.M.M.m.b.k.s.s.s.s.s.k.b.m.M.M.k.",
"D.D.-X<X-X-XS 6.8 F.3X-X7.M ;XP.wXxXlXwXI.lX,XE w.$.) _ ` y.u.s.l.n.n.m.m.n.n.n.n.n.n.m.M.M.M.n.n.b.k.s.s.X. . .X.s.k.k.b.b.b.j.",
"S -XD.;Xr 2Xu *.t *.fXfXfXI.u 7.wXfX[.0XA.fX$.Q ~ ) ` ` y.u.g.l.l.l.n.l.l.l.l.l.l.l.l.b.b.b.b.l.l.d.s. . . . . . .s.s.k.k.k.k.X.",
"D.D.D.6.3.K.J t t wXCXfXhX X<.F.P.P.0X X0.$.0._ ) _ ` y.u.g.v.l.l.l.f.g.d.s.d.d.d.f.l.l.l.l.f.d.s. . .| } |  . . .X.s.s.s.s.s.X.",
"D.D.S -.&.+.T J O.VXCXVX9XF.G.H.,.<.nXVXrX~ ~ ~ _ ` t.u.g.g.l.g.d.s.s.u.p.u.u.s.d.d.f.f.l.d.s.p. . .| | } |  . . . . .s.s.s. . .",
"S 6.B -.;.;.+.T G.mXCXDXDXVXgXqXrXVXVXDXnX_ ) ) _ y.y.y.a.Y.g.a.u.u.u.u.u.u.p.p.s.s.d.d.s.p.u.| | } | | |  . . . . . .X. . . . .",
"V V V -.,.;.;.T ;.6XgXnXmXDXDXCXDXDXGXDXCX^ ~ %.%.%.%.` y.a.y.y.y.y.y.y.u.u.u.u.p.p.p.p. .p.p.i.i.j.j.h.i.i.|  . .X.X.X. . . . .",
"*.B S -.;.,.;.;.$.;.gXdXdXCXDXGXGXGXDXVXnX%.%.%.%.^ %.%.^ _ %.` ` ` } y.y.u.u.u.u.u.| ( y.z.p.v.j.` E H ` [ z... .s.s. . . . . .",
"$.M B 6.,.,.;.;.;.,.gXCXCXBXAXGXFXGXBXGXwX%.%._ ~ P I ;.E E ) _ _ ` } t.y.y.u.y.a.i.~ i.p.X.X.X.W ! / '.dXc.0Xp.p.s.u. . . . .X.",
";.$.O.*.-.1.,.;.;.;.[.mXCXCXDXDXDXDXDXDX0.~ %.~ P D q y e L Q ) ) ` } t.t.t.} ` _ ! :.i..... .R G ..( ( [.c.MX0Xg.p.| u.s.s.s.s.",
"7.H.H.<.=.*.H.,.;.;.;.0XVXCXCXDXDXDXDXnXQ Y P I G y U 0 q G ~ _ %.%.t.t.} _ ~ ) :.I P _ i.[ ) D ' K F T h.'.MXjXY.s.s.s.s.s.f.f.",
"c 6.B V 6.$.;.<.>.;.$.;.rXCXCXCXCXDXDX1XK J D q 9 9 0 0 q L ) %.%.%.%.` ( P ~ ) 1.F G $.h.^ Q R ] xXhXxX:. XqXm.z.d.s.d.d.f.f.k.",
"w D.S B 6.+.,.$.I +.T T ;.hXCXCXCXCXVX9 9 e e 0 9 e F D F L ~ %.%.%._ _ P W ! ! E q D Y ^ G Y ( ~ ;.hXpX..| 7XqXaXd.d.d.d.f.b.b.",
"w v D.V b i ;.,.$.I G F y U wXxXnXnX-X; 8 e e 0 0 e F F G L Q _ %.%.) ) P W W W L < D G I F H [ Q jXMX Xz.o.[.jXCXp.s.d.d.f.b.n.",
"w w S S M t Q ,.;.T K F e 0 P.hXhXVXu 2 9 e e 0 0 y G J J I ~ %.%.) ~ ~ W E E E q q 7 q D P P ..Q rXgXjXaXgXMXMXMXi.s.d.d.f.f.b.",
"w 3 V 6.O.K K :.;.$.T K F J hXVXnXVX6.0 9 9 9 e F K I I L I Q ~ ~ P I P E E E D L 7 7 7 7 Y ] _ ..I.gXhXVXVXVXxXmXy. .u.s.d.d.f.",
"3 1 b c Y Y J ;.;.+.T J y y [.VXzXVXK.0 0 e J J +.&.&.&.&.+.i I +.+.+.+.K P L E L D 7 7 7 G i.Y [ [ qXmXjXMXMXmXhX` }  .u.u.u.u.",
"4 1 4 v K.5.7.e.r.r.K.cXHXGXBXBXxXzX3X4X*.K O.>.>.>.>.>.+.i O.>X+.+.+.+.w.L P P E G q 7 7 t T :.Q ( [ qXjXMXMXMX6X` } } u.} } } ",
"o $ 4 K.r.r.r.r.r.r.r.eXHXHXHXcX2XAXBXBXlX*.>.<.<.>.>.#.i M cX9X+.+.+.>.L.I P P P P L 7 > > q ! Q Q R !  XmXMXmX%.} } u.u. . .` ",
"X * 5 9.9.r.r.r.r.r.r.9XHXHXHX4X3.BXKXJXZXcXfX0.<.<.=.O.@.BXKXwX+.+.=.L.q.D L L P P P D > q 8 Q ( R H G +.0XjX6X} u.u.u.p.'.rXxX",
"5 * s m 3.9.r.r.r.r.r.3XHXHXHX>X*.cXFXLXJXvXrX6X<.&.O.9.ZXKXKXlX+.=.L.L.O.D G L L L P P 9 q 8 / ( H G.dXMXMXMXrXu.u.x.rXAXLXLXJX",
"6 6 * g d N 3.9.r.r.r.3XHXHXlXD.6.tXvXcXcXdXfX9X=.=.4XJXLXKXKXAX0.L.L.0.i J U +.G D L L L 8 K P Q 1.jXmXMXMXMXmX6XyXFXLXLXLXJX[.",
"% c 4 g h n 8.8.9.9.r.9XGXtXe.e.3XfX6XcX0XvXxXcXBXFXLXJXBXGXKXKX3XL.L.O.J J J U i w w w : *.9X^ W  XjXjXmXMXMXMXrX7XqXzXLXJX7Xd.",
"% 6 c g h h Z 8.3.9.9.>X>XK.:X:Xe.=.3XlX6XrXJXLXJXSXlX>.>.>.BXKXtX6X].O.L L L L L L D q > :X8XBXfXrXmXjXqXjXCXgXnXw.qXHXJX7Xg.p.",
"% $ -.g g h h Z 9.5.e.K.K.:X:X:X,XL.lXcX0.fXvXSXJXLX3Xw.w.>.lXKXfX0.].=.L I I P G G G 0 O.L.w.xXHXHXAXBXjXqXpXaXgXwXG.JX6XqXpXqX",
"% + I.g g h h j Z r.K.tXwX5.4.5.0.tXAXBX=.L.AXLXLXLX6X7X6X].HXLXkX#.>.w.K I I I G 0 : : 0.L.L.6.<XD.6.3XBXxXCXCXgXVXVXvXE._.(./.",
"% +  Xg g h j j l Z :X:XfXFXfX4.tXBXsXGX:X6X9XKXLXLXwXL.6X6XKXKX4X=.@.#.w.#.K 0 2 : , 3 L.q.w 0 w 9.wXJXAXLXBXBXVXCXVXAXrX(.(.z.",
"% %  Xg g h j l x n m K.K.4XeX:XwX9.BXKXwXL.L.xXKXLXcXL.0.K.-X2Xc *.>.@.@.L.*.8 8 8 8 v O.9 y ' K >.tXGXBXyXVXAXFXvXVXzXBX1.Y.Q ",
"% @  Xg g h j x x x x l 7.5.5.K.e.>XKXHXKXlX:XeXKXKXKX8X0.w.:XN v v v >.@.@.q.@.w 8 8 2 9 y y ' ' T 0.GXFXFXFXBXLXVXvXBXJXdX:.Q ",
"& + I.g g h z x x l N 5.7.r.K.K.5.BXHXHXKXHXAXtXKXKXKXtX6X>.lXAX9.2.4.5.J.@.@.@.@.c 8 8 , y F ] ..' ^ ^ L.eXrX6XzXJXzXlXFXkXz.h.",
"& 5 P.g g h x x C n n 3.K.K.K.K.tXHXHXHXHXKXAXlXBXKXKXwXGX0.eXLXZX4.4.4.G.1X@.@.@.2.v 8 = y U Y t T Q ] { :.' :.i.Y.0XcXJX7Xi.z.",
"& b J.G.z h z x x x x x n 8.r.9XHXHXHXHXBX3XK.,X9XfXwXvXLX8X9XLXLX:X4.4.4.:X9X@.@.@.8.w o 9 9 , 9 U Q ^ ] T ] [ [ { ..i.'.z.:.z.",
"% -.I.7.7.h h z j j h h j h m tXcXcXcXlX>XK.:X,XBXlXGXKXLXfX9XLXLX3.4.4.4.4.5.3X7.@.@.M 9 2 , 9 ' { Y Q U ^ ] ] ] { [ { h.i.:.z.",
"% S.6.I.3.g h h h h h h h h h h h f s A K.e.e.:X,X9X9X9X0X6X6XyXeX4.4.4.4.4.2.2.I.P.@.v 8 2 9 F { { { K U Q Q ^ ^ ] [ [ ' :.h.i.",
"% J.G.P.N g g h h h g g g g g h h h h j n 8.@.e.:X:XK.e.6X6X6X].5.2.2.4.2.4.2.2.G. X XO.8 2 t t Q ] ] 0 Y Y Q Q ^ ^ ] :.^ i.h.z.",
"@  XP.N g g g g h g g g g g g g h h h h j x x c 4.e.e.5.e.L.0.e.N 8.8.2.2.2.2.2.@.P. X XS.9 9 t U ' ' 2 G Y Y Q Q ^ ] :.:.{ h.h.",
"+  Xg g g g g g h g g g g g g g l N 3.6.6.9.A n d c O.O.O.O.O.N G.U. XU.J.P.J.I.P.G.J. X X Xu 9 t ' ' 2 8 K K G G G J K U ^ i.i.",
"b  XP.6.l n A 3.6.G.G.I.J.J.A.A.*.b 6 4 $ $ 6 M *.*.V 6 c c 5 5 d d d d d d d 6 M V c 5 w t 2 8 8 Y T 2 2 2 8 8 9 9 t y K ^ :.:.",
"b J.U.J.S.A.A.-.-.B b % % * * h p a a s s f f h h j l Z Z x n n n n n m m m m m m N m n 5 3 : : : K U : > 2 2 2 8 9 9 F K ' :.{ ",
"% % % % % % & * p p s f f g g g g g h g g x j j j j l l l n n n n n m m m m m m m m m n 5 5 ; ; ; y 8 : ; ; ; 2 2 2 2 9 Y Q :.] ",
"@ % % % * % % p g g g g g g g g g C z g g Z j h j h j f s x x n n n n n n n n m n n n 5 k 5 = ; = 9 ; ; 1 : : : 1 = 8 y 8 y Y Q ",
"@ % % % % % % + p g h C g g g g g g g g h h h h h h h f * l l x x x l n n n n n n n n 5 n d $ = = ; ; ; ; ; : ; = : 1 2 y K Y Y ",
"@ @ @ @ & & & % + * g g g g g g g g f f s a a p * * a a % f j j l l l x x l n n n n n 5 n d $ = = o ; ; ; ; = X ; 1 9 K K y K U ",
"& @ @ @ @ & & % @ O & g f s a p * * % % % % % % % % + + % a j j h j j l l l l l l l d 5 d l d $ o X X = = o X X ; ; U J y y J K ",
"@ @ @ @ # * a & & @ + % & & & & & & % % % % % % % + O + a a h h h j h h j j j j j j d 5 d d d $ o . X . X . X = = 2 y F F F y G ",
"p * @ @ s * * # & & & & & & & * & & % % % % % @ + O + * g g g h h h h h h h h h h h g * d h d a X   . . . . X X = 0 y y F y t F "
};
