/* XPM */
static char *_eb60344d7c54133d99210d30e611307PJGuY06MlRJKQoPr[] = {
/* columns rows colors chars-per-pixel */
"64 64 222 2 ",
"   c None",
".  c #33281D",
"X  c #2B2B27",
"o  c #3D3425",
"O  c #3C352C",
"+  c #3E392C",
"@  c #343229",
"#  c #282D33",
"$  c #322F31",
"%  c #2B3335",
"&  c #2E343A",
"*  c #353535",
"=  c #3B3634",
"-  c #353936",
";  c #3A3935",
":  c #36363A",
">  c #3A363A",
",  c #36393C",
"<  c #39393A",
"1  c #45361E",
"2  c #553D1F",
"3  c #653B04",
"4  c #443425",
"5  c #42342B",
"6  c #43392B",
"7  c #4B3C2B",
"8  c #453924",
"9  c #513E2B",
"0  c #543F27",
"q  c #423532",
"w  c #433B32",
"e  c #443C3A",
"r  c #523D31",
"t  c #5E4D1C",
"y  c #634414",
"u  c #6B4A15",
"i  c #64461B",
"p  c #6A471B",
"a  c #654B1D",
"s  c #694A1D",
"d  c #6E4712",
"f  c #714D1B",
"g  c #68501D",
"h  c #6B4812",
"j  c #4D432F",
"k  c #554325",
"l  c #5C4C24",
"z  c #54422C",
"x  c #5C4C2C",
"c  c #5A462A",
"v  c #5B5029",
"b  c #4D4334",
"n  c #49433B",
"m  c #534332",
"M  c #5C4632",
"N  c #5B4B33",
"B  c #59453B",
"V  c #564A3B",
"C  c #5A5237",
"Z  c #654B22",
"A  c #6B4B22",
"S  c #634B2A",
"D  c #644725",
"F  c #695126",
"G  c #745122",
"H  c #765A2C",
"J  c #7C5E2C",
"K  c #74562A",
"L  c #634B35",
"P  c #61543B",
"I  c #6A5537",
"U  c #7C5F33",
"Y  c #7C5F3B",
"T  c #745B37",
"R  c #7E612C",
"E  c #7E6127",
"W  c #7D6233",
"Q  c #7B613C",
"!  c #776338",
"~  c #3A3541",
"^  c #353940",
"/  c #3A3A41",
"(  c #323741",
")  c #413840",
"_  c #3F4348",
"`  c #424343",
"'  c #4D4948",
"]  c #534C44",
"[  c #524E4A",
"{  c #544645",
"}  c #5B544C",
"|  c #59544A",
" . c #555556",
".. c #5B5653",
"X. c #5B5954",
"o. c #5D5D5D",
"O. c #595859",
"+. c #504F50",
"@. c #6D5D43",
"#. c #675648",
"$. c #735F43",
"%. c #615A53",
"&. c #655E5C",
"*. c #604E44",
"=. c #766146",
"-. c #69635B",
";. c #756A59",
":. c #6E604C",
">. c #5F6164",
",. c #6E6E6E",
"<. c #616161",
"1. c #726E6E",
"2. c #73706E",
"3. c #727273",
"4. c #7C7C7C",
"5. c #747778",
"6. c #A2611D",
"7. c #825E2C",
"8. c #86592A",
"9. c #895C38",
"0. c #945334",
"q. c #A95B27",
"w. c #B45C2C",
"e. c #B55628",
"r. c #A75D33",
"t. c #B05E3A",
"y. c #81612C",
"u. c #826126",
"i. c #816133",
"p. c #81613D",
"a. c #A4622A",
"s. c #A56436",
"d. c #805D4B",
"f. c #9B6744",
"g. c #836F5E",
"h. c #9C7C5A",
"j. c #987854",
"k. c #8E6D4F",
"l. c #A97A5D",
"z. c #937D6E",
"x. c #907964",
"c. c #897C77",
"v. c #937E71",
"b. c #81766C",
"n. c #A67D62",
"m. c #AA8659",
"M. c #87817B",
"N. c #948075",
"B. c #9A8069",
"V. c #A98B74",
"C. c #AA8E7A",
"Z. c #A68B77",
"A. c #AB917B",
"S. c #B68F72",
"D. c #CD9654",
"F. c #C1996D",
"G. c #C29C72",
"H. c #CAB578",
"J. c #D5BC75",
"K. c #CBA875",
"L. c #F2C578",
"P. c #FAD476",
"I. c #F4CF6C",
"U. c #7C7C81",
"Y. c #877D81",
"T. c #838383",
"R. c #8B8B8B",
"E. c #868689",
"W. c #93918C",
"Q. c #948F95",
"!. c #949494",
"~. c #9C9C9C",
"^. c #999796",
"/. c #948C8B",
"(. c #AA9789",
"). c #A49489",
"_. c #BBA28D",
"`. c #B9A596",
"'. c #9D9EA0",
"]. c #9CA0A4",
"[. c #A5A5A5",
"{. c #A6A6A9",
"}. c #A9A6A8",
"|. c #AAAAAA",
" X c #A9A7A8",
".X c #BCACA4",
"XX c #B4ACAB",
"oX c #B3A9A4",
"OX c #B4B1AC",
"+X c #B3AFB1",
"@X c #B4B3B3",
"#X c #BEBEBE",
"$X c #AEB4AE",
"%X c #D7B58C",
"&X c #DDBB9C",
"*X c #D7B996",
"=X c #C8A693",
"-X c #E5B98C",
";X c #EABA8C",
":X c #E7B787",
">X c #E4BB94",
",X c #E5BC99",
"<X c #C2AAA2",
"1X c #DFBAA1",
"2X c #EBC59B",
"3X c #FAD482",
"4X c #E7C8A4",
"5X c #FCD4AC",
"6X c #FFD8AD",
"7X c #FED5A6",
"8X c #FCD5B3",
"9X c #FCD9B4",
"0X c #FAD5BB",
"qX c #FAD9BB",
"wX c #F3D6BA",
"eX c #E8D3B5",
"rX c #BDBFC2",
"tX c #C2BFC0",
"yX c #BEC1C5",
"uX c #C1C1C1",
"iX c #EFDCC5",
"pX c #F3DAC2",
/* pixels */
"                                                                                                                                ",
"                                                                                                                                ",
"                                                                                                                                ",
"                            > = < > > ~ ~ < < < -       - < ;                                                                   ",
"                            < = = = ) ~ ) = = ; <       < = ;                                                                   ",
"                            + + 8 6 5 q 5 6 8 6 =       = w 6                                                                   ",
"                : : < : < = b C l x N N L l v c V O ; O :.@.:.b = - ,                                                           ",
"                : : < : < = b v t Z Z Z Z a l x N O = o :.$.=.z + - ,                                                           ",
"                < : - < = q m S t a a Z a a a S M 6 O 6 =.Y =.k o - ,                                                           ",
"                * = O O 5 5 z S a s s A s s Z D M 4 o 8 T p.Y 2 4 O :                                                           ",
"          * = @ n b m z z z D Z a u s s u G H H T I I F W U i.K I P | n ; <                             - - - < < - < < <       ",
"          < = w V N S D Z S Z a a s u s p G i.R W W W W y.J R R W Q =.j O ;                             < < - < - < < - < <     ",
"          = O 6 M S A p u s a a a A A A s K W R y.y.y.R J R R y.y.U Q 9 = ,                             < - < - < - < < < <     ",
"          = = 6 S A s f u u s a Z Z A A A K J J E 7.7.y.R W J y.7.y.Q 9 = ,                             o.o.o. . . .' < - <     ",
"          < ; o D Z A s u u u Z Z a H 7.y.H a a s 7.7.u.u.R i.y.u.y.Q 9 = :                     < < < ` #X#XuX|.[.|.3.- - <     ",
"          > > O S s Z a u u a Z Z a H y.y.H Z a g y.y.E E W U W R R ! b = :                     - < < ` uXuXuX|.[.|.3.- < <     ",
"          e = 6 D s Z Z a a a Z Z a K 7.7.K Z Z s R R y.R W U W R R T z q =                     - * * < uX#XuX|.[.|.3.- < <     ",
"    - * w m c k a s Z a a a Z Z Z a f G G A Z Z A i.i.J G G G J 7.y.W T I I m ; <         < < ' [.|.|.[.R.R.R.@X@X#X4.- < <     ",
"    < ; 6 S a a u a Z a a a Z Z Z s p p p s a Z A i.i.7.f d d 7.y.y.i.U W W N < < -       < < ` #XuXuXuX3.,.,.@XtXuXT.- - <     ",
"    ; < w S a s a a a Z A a a Z s s p p s s s A s i.R J p p u 7.7.J R R R W N = < <       - - < uX#X#X#X3.3.,.@XtX#XT.- - -     ",
"    ; : w S Z A s a a a A a k.h.h.h.h.h.h.h.h.h.j.J R H G A A J i.R R y.y.W N - < <       ,.,.,.|.@X@X@XT.4.4.[.|.|.4.< <       ",
"    ; : w S Z A s a a a A y %X6X7X6X6X5X9X6X6X6X2Xh a a i.U W R R R R y.y.W N ; < < < < <.uXuX#X3.,.,.3.[.[.|. .* *             ",
"    ; < 6 S a a u a a a s y %X7X7X6X8X9X9X9X6X7X2Xh s A W U W J y.y.y.R y.W N < < < < - <.uXuX#X3.,.,.3.[.[.|. .< -             ",
"    = - w x S a s s Z a u y %X7X7X5XqXwXwXqX8X7X2X3 s y W Q Q W R y.y.J W ! N * - - * - o.uX#X#X3.3.3.3.[.|.|. .< <             ",
"          e 7 7 Z s Z Z s y G.;X2X4XA.g.g._.9X9X5X2X2X4Xx k z T W R U x z b w < < 4.@X|.|.E.E.E.~.~.~.~.o.o.o.                  ",
"          > > 5 S s Z Z A s F.-X-X&Xz.4 4 C.qX8X5X9X9XeXz 6 o @.! W Y z = , , - - T.uXuX@X,.3.3.[.|.|.[.< < <                   ",
"          < < + S s Z a a y G.-X>X&Xz.5 5 C.wX9X8X9X0XwXm 6 o @.W i.Y r = , , < - T.uXuX@X,.,.3.[.|.[.[.< < -                   ",
"          , < o l a s s s i F.:X-X&Xv.= O ).qX5X8X8X0XpXb + o @.U 7.Y 9 = , , * * T.uXuX@X,.3.3.[.[.|.[.` < <                   ",
"          / > 6 l g u u A i F.;X;X&Xv.@ O C.9X5X9X8X0XpXb = o @.U i.9.0 O & 5.R.R.^.[.[.~.R.R.R.T.E.T.T.` - <                   ",
"          / > w x t a p A i G.:X;X1Xv.q o C.0X8X8X8X8XwXm 6 o @.Q i.p.0 = % ].uXuX[.,.,.4.|. X[.< * * -                         ",
"          : < O N l Z A A D G.;X-X,Xv.5 6 A.qX9X8X8X8X0Xz 8 4 @.=.Y =.7 ; % '.#XuX|.,.3.4. X|.[.` < < <                         ",
"          > > = V N l Z Z i G.:X;X,XB.m M V.8X5X5X6X5X8XI M V @.$.=.:.] ' _ '.#X#X[.,.3.4.[.[.[.` < - <                         ",
"                = 6 1 S a i G.:X:X-X&X&X*X%X-X-X2X5X6X8XwXeXeX;.8 8 o XX#X#X!.3.3.R.[.[.~.< ' `                                 ",
"                e = 8 k Z i G.:X:X:X*X&X*X>X:X:X>X6X5X8XwXpXiX;.6 + @ @XuXuX!.,.,.R.[.[.~.- - -                                 ",
"                > > 5 x x l S.>X>X,X&X&X&X&X,X>X,XqXqXqXpXpXiX;.@ @ X @XtXuX^.,.,.R.|.|.~.- < <                                 ",
"                ~ > = C P P x.V.V.V.C.C.C.C.V.V.C._._._.(.(.(.^.^.!.~.~.~.^.^.!.!.E.4.4.3.                                      ",
"                ~ ~ = | #.%.| B B B *.#.#.V B B { #.#.| 4 . . OXuXyXuXT.1.1.!.|.[.R.* * -                                       ",
"                , > < | } o.[ ] ] ] } %.%.| ] ] [ X.%.| O = * @XrXyXyXT.1.1.^.{.|.R.- < <                                       ",
"                < < * &.-.-...[ ' [ } } } | [ [ [ ..X.X.< ; X @XyXyXrXE.5.3.!.~.[.E.- < -                                       ",
"                : - > ~.OXOXM.X.X...] ] ] [ ..X.X.[ [ ' = - : ~.{.{.[.{.{.{.3.< ` <                                             ",
"                < < * [.XXXXM...%.%.| V V ] %.%.} { ] [ ; < * '.}.|.}.}.{.|.5.- - -                                             ",
"                - ; * }.|.XXv.#.#.@.L M L N C P L L B B @ $ # ~.}. X[.|.|.|.5.- < <                                             ",
"                < < * [.XXXXv.9.9.9.9.9.9.m.H.H.K.8.9.d.).!.!.5.3.2.1.3.3.3.>.                                                  ",
"                < < * [.XX.XV.s.r.s.r.t.r.D.3XP.L.a.s.f.=X.X+XO., * = * < :                                                     ",
"                : - - [.XX<XV.r.q.w.w.e.e.D.P.I.L.6.q.f.=X`.XXO., < < = * <                                                     ",
"                < < - '.XX<Xn.s.a.q.w.w.w.D.P.P.L.a.a.f.=X<XXXO., : < > < <                                                     ",
"                : : - E.~.).Z.n.l.l.f.0.0.m.J.J.K.f.f.k.(.).^. .: : > = < <                                                     ",
"                - < - < % # /..X.X.Xb.5 5 O X @ b z.z.c.= $ * , : < =                                                           ",
"          < < < < < < < , & Q.}.@X|.3.: , , ^ < ' Y.c.Y./ ^ ^ , < = = < < ,                                                     ",
"          < < < < < < < < : Q.+X|.$X5., ^ ( , ~ ' Y.T.U./ ( , ^ , > > > < :                                                     ",
"          < < < < < < < : : +.O...O.` , / - < < O.XXoX}.) / ^ ^ , < > > > ;                                                     ",
"          < < < < < < < < / < < @ ; < > < = ; ; O.oX.XoXn > , , , , < > = ;                                                     ",
"          < < < < < < < > , / > = e > ~ > = = = o.XX.XoXe * < < < > < > < ;                                                     ",
"          < < < < < < < < < , ~ > = > > > ; < : +.W.W./.e > < > > > < < : ,                                                     ",
"          < < < < < < < - - , ^ : < < < - < , ^ - % % & , < = < > > < , , ,                                                     ",
"                < < : : < - : < < < : : : : , , : : , , < : < > > > <                                                           ",
"                < - - < - : : < - < > > < < < < < : < : < < < : < : <                                                           ",
"                < < - < < < < < < < : > < < < < < < < < < : - < < < :                                                           ",
"                - - - < : - - < : < : < < < < < < < : < < < < < : < :                                                           ",
"                            - : < - < < < < < < < : < :                                                                         ",
"                            : < < < < < < < < < < < : <                                                                         ",
"                            < : < : < < < < < < < < < <                                                                         ",
"                                                                                                                                ",
"                                                                                                                                "
};
