/* XPM */
static char *_7976a1263d2477cf9c48e6b8ddf2e39MttefqwEITz5dFa8[] = {
/* columns rows colors chars-per-pixel */
"64 64 219 2 ",
"   c None",
".  c #1B1B1B",
"X  c #291F18",
"o  c #26211E",
"O  c #3E2F1D",
"+  c #1C1C20",
"@  c #1F2428",
"#  c #242525",
"$  c #2C2D2D",
"%  c #252729",
"&  c #322E2C",
"*  c #362A25",
"=  c #2C332E",
"-  c #34332D",
";  c #3C352D",
":  c #3E392C",
">  c #3F3425",
",  c #2B2E33",
"<  c #352F31",
"1  c #2D3234",
"2  c #343434",
"3  c #3B3534",
"4  c #363A35",
"5  c #3B3935",
"6  c #363639",
"7  c #3A363B",
"8  c #36393B",
"9  c #39393B",
"0  c #472C17",
"q  c #43351D",
"w  c #623D00",
"e  c #423525",
"r  c #453925",
"t  c #42352B",
"y  c #423A2D",
"u  c #4B3B2C",
"i  c #4B3723",
"p  c #523E29",
"a  c #413632",
"s  c #433D3B",
"d  c #433936",
"f  c #5F470C",
"g  c #5F4B19",
"h  c #644309",
"j  c #654B16",
"k  c #6A4A16",
"l  c #64461C",
"z  c #6A471C",
"x  c #654B1C",
"c  c #6A4A1C",
"v  c #664514",
"b  c #5E4C24",
"n  c #54432C",
"m  c #5C4B2D",
"M  c #59472B",
"N  c #4E4235",
"B  c #4B443A",
"V  c #47453D",
"C  c #524333",
"Z  c #5C4B33",
"A  c #554C3B",
"S  c #5A4D3C",
"D  c #574637",
"F  c #644C23",
"G  c #6B4B23",
"H  c #624C2C",
"J  c #664A28",
"K  c #714E23",
"L  c #675126",
"P  c #725424",
"I  c #73562A",
"U  c #7D5E2C",
"Y  c #795A25",
"T  c #624D33",
"R  c #64463A",
"E  c #6A533B",
"W  c #645438",
"Q  c #7C5E33",
"!  c #765F39",
"~  c #7E6226",
"^  c #7E622C",
"/  c #7D6133",
"(  c #7B623C",
")  c #7A6536",
"_  c #3B3642",
"`  c #3B3B41",
"'  c #353741",
"]  c #444344",
"[  c #4D4C45",
"{  c #4D4B4B",
"}  c #534C43",
"|  c #524B4B",
" . c #564744",
".. c #56524C",
"X. c #5B544C",
"o. c #5D564B",
"O. c #535354",
"+. c #5C5954",
"@. c #5C5B5C",
"#. c #585756",
"$. c #625A4D",
"%. c #665745",
"&. c #715F49",
"*. c #615A52",
"=. c #7B6343",
"-. c #746346",
";. c #6F655D",
":. c #606060",
">. c #6D6D6D",
",. c #686561",
"<. c #776F68",
"1. c #6F706B",
"2. c #73706D",
"3. c #737373",
"4. c #7C7B7B",
"5. c #74787A",
"6. c #6E7276",
"7. c #815E2B",
"8. c #805E27",
"9. c #825E32",
"0. c #8C5B3C",
"q. c #8A573B",
"w. c #925B36",
"e. c #A45E2F",
"r. c #A35E36",
"t. c #82612D",
"y. c #826227",
"u. c #816132",
"i. c #806338",
"p. c #9B623C",
"a. c #A3662D",
"s. c #A46133",
"d. c #A2603A",
"f. c #B37E3D",
"g. c #875E43",
"h. c #876644",
"j. c #996A46",
"k. c #9C794E",
"l. c #946E55",
"z. c #9C7C53",
"x. c #826D58",
"c. c #A27C4E",
"v. c #A27958",
"b. c #AB774C",
"n. c #997867",
"m. c #847C7B",
"M. c #8C7B7A",
"N. c #887366",
"B. c #AC7F6C",
"V. c #85817F",
"C. c #9B8378",
"Z. c #A68979",
"A. c #A6917C",
"S. c #A9917A",
"D. c #AC9176",
"F. c #CAB677",
"G. c #F5D578",
"H. c #F6CE76",
"J. c #857D81",
"K. c #7F8584",
"L. c #848483",
"P. c #8B8A8A",
"I. c #888983",
"U. c #988D87",
"Y. c #868C93",
"T. c #959394",
"R. c #9B9B9B",
"E. c #9A9A99",
"W. c #93928E",
"Q. c #A89E9A",
"!. c #AF9785",
"~. c #A5A09D",
"^. c #BAA795",
"/. c #BFA489",
"(. c #9C9FA3",
"). c #A29FA1",
"_. c #9EA3A8",
"`. c #A5A4A5",
"'. c #A9A6A5",
"]. c #AAA9A5",
"[. c #A6A9AB",
"{. c #AAAAAA",
"}. c #A6A7A7",
"|. c #B2ACAC",
" X c #B9ABA6",
".X c #AAACB0",
"XX c #B1ADB1",
"oX c #B4B4B4",
"OX c #BDBDBD",
"+X c #B9B7B5",
"@X c #B7B3AF",
"#X c #D3B38D",
"$X c #C5A89A",
"%X c #CDB195",
"&X c #CEB499",
"*X c #C4B29C",
"=X c #D4B596",
"-X c #C0B2A4",
";X c #DEC786",
":X c #EBC59F",
">X c #F1D188",
",X c #D3C7B4",
"<X c #EDCAA3",
"1X c #E8CAA7",
"2X c #FDD4AC",
"3X c #FCD8AB",
"4X c #FBD4A7",
"5X c #E6CDB4",
"6X c #EED3BB",
"7X c #F7D3B3",
"8X c #FCD6B2",
"9X c #FDD8B2",
"0X c #F2D5BC",
"qX c #F8D8B8",
"wX c #F0CFAF",
"eX c #C3BFC2",
"rX c #BEC1C7",
"tX c #C1C1C1",
"yX c #F1D8C3",
/* pixels */
"                                                                                                                                ",
"                                                                                                                                ",
"                                                                  % , $         $ = 6 7 7 8 ` 2 2 -                             ",
"                                                                  $ 9 &         - 5 9 _ _ _ 7 9 3 -                             ",
"                                                                  * ; ;         5 ; ; 7 7 7 3 : y -                             ",
"                                                                  t u e         y e r t a a e r > :                             ",
"                                                            $ & N &.&.%.: 5 6 3 S m M m Z Z m m Z B 7 6 2 2 & 2 2               ",
"                                                            - : p =.! -.e 5 3 : Z F x L b b F F H C 3 7 3 3 a 3 5               ",
"                                                            : e p =.( ! q > t e H x c x x x x x F n t t t t t ; :               ",
"                                                          A S T H Q / ( H T T H I I Y z c c z j x b p p n n n C N               ",
"    $ 2 2 2 2 2 2 2 2 $ .                           + 2 ; A -.=./ / u.i.( ( ( / / ^ t.z z c z x c F J H T T m Z A ; 3 6         ",
"    2 9 9 2 9 2 9 2 9 2 $                           @ - : Z =.Q u.U Q Q / u.u.u.^ ^ u.K z z c x x x x G l F F H Z t 5 6         ",
"    9 9 9 9 ] ] ] ] { { 2                           # 5 ; Z ( ^ U U u.u.t.8.7.t.U / U K z G c x x x z c G x x L n t 3 9         ",
"    2 9 9 2 P.}.}.{.tX+X>.2 2 #                     = 3 a Z / ^ t.^ U t.t.y.t.t.c x c U 9.7.P F F x z z c x x b Z e 5 7         ",
"    6 9 9 2 P.}.}.oXtX,XoX2 6 2                     - 5 t Z / ~ ~ ^ ^ t.y.t.t.u.c x x U t.t.P F b F z G z c x L m t 3 7         ",
"    2 2 9 2 P.}.}.oXtXOXoX$ 2 2                     - 3 t T Q t.^ ^ / U t.7.t.U c c x U t.t.I F J F z G c c x F M e 3 3         ",
"    9 6 6 2 T.+X+X{.E.E.E.T.E.5.] 9 2           $ - A %.W E ( / / I I I 9.9.t.^ x G x I P P K x F F c G c c x F H n C B s 5 9   ",
"    9 9 9 2 `.tXtX{.>.3.4.tXtX+X] 9 2         # 2 ; W -.( / ^ U U l l c U t.t.U c l G l z c z c l x x x x x x x F H Z S : 3 2   ",
"    9 2 9 2 R.OXtX}.>.3.L.tXtXOX9 9 9         2 2 : E ! / ^ ^ t.Q z z P t.t.~ t.x G G x z z z z K c x x x F G c c x F Z t 5 6   ",
"    9 9 2 2 E.+X+X}.3.3.L.+X+XOX@.#.O.        2 9 t E ) ~ ~ t.9.Q G c G I ^ ^ Y h.h.h.h.h.h.h.h.h.Q g x x G G c k j x m e 5 6   ",
"            2 9 9 3.}.}.`.>.3.3.OXOXoX#.2 9 2 9 2 ; E / ~ y.u.9.9.9.i.Q G j j I wX9X9X2X3X2X2X2X2X#Xf x x F G c k k x H e 3 6   ",
"            2 9 9 3.{.{.`.>.3.3.OXtXtX:.2 9 9 2 9 t E / ~ y.t.9.9.9.u.Q x x j I 2X9X2X2X3X3X2X9X9X#Xf x x G G c k k x H e 5 6   ",
"            2 9 6 3.{.}.(.>.>.3.OXtXtX:.2 9 9 9 2 3 E ( ^ ^ ^ 7.7.t.^ / x x F I 2X2X2X2X2X2X9XqXqX=Xh c x G G z G x F Z t 5 6   ",
"            2 9 6 3.{.{.`.>.3.3.OXOXtX@.9 2 2 9 6 3 W -.( / / 7.y.Y Y / F b m W 2X2X2X2X2X2XqX0XyX&Xw v v G l G F F m S y 3 2   ",
"                    #.@.>.R.R.R.L.L.L.{.{.oXoX#.2 3 B N n H Q 7.k.<X<X1XM r u Z 2X2X2X2X3X2X/.N.<.!.<X:X=Xv G F H i u d         ",
"                    2 9 #.{.{.}.3.3.>.+XtXtXtX@.9 2 3 3 a Z ( 9.z.2XqX6XC a 3 N 7X2X2X9X9X9XS.: 2 A.9X2X<Xh x F M t 3 3         ",
"                    2 9 #.}.{.`.3.>.>.+XtXOXtX:.2 2 4 9 7 D ( t.c.2XqXyXN 3 9 B qX2X2X7X7X8XS.3 8 !.8X9X<Xh x F Z 3 7 9         ",
"                    6 9 #.T.P.T.L.L.L.}.{.{.{.L.5.5.#.6 5 Z ( U c.4X7X0XN 7 ' B 7X2X2XqX7XqXA.2 ' A.8X9X<Xh x b Z 3 9 8         ",
"                          $ 2 9 }.}.{.5.>.3.>.+XtXtXK.4 : Z ( 7.c.4X9X0XB 6 8 B 7X2X2X7X9X9XA.3 8 A.9X2X:Xh x b Z : 9 7         ",
"                          2 9 9 }.{.{.4.>.3.>.+XOXtXL.2 : Z ( / c.3X7X6XN 7 6 B 7X2X2X9X3X9XS.3 7 A.9X2X<Xv F m A : 3 2         ",
"                          $ 9 9 }.`.{.5.3.>.>.+XtXeXV.3 : S -.( z.3X9X0XD t y C 8X2X2X2X3X9XD.e t S.3X2X:XF m S B ; - #         ",
"                                O.O.{ E.R.}.`.L.4.4.'.+X+XW.y u x.qXqX7X<X1X5X5X9X2X2X9X2X2XwX5X5XwX2X3X1X0 u a s               ",
"                                2 9 2 E.{.{.}.5.3.>.'.tXrX_.2 3 ;.yXqX2X2X2X7XqX9X2X2X2X3X2X9XqXqX8X2X7X1XO d s 6               ",
"                                $ 9 2 E.}.}.{.4.>.>.{.rXrX(.$ 3 ;.yX0X7X9X2X2X2X9X9X9X9X2X2X9X9X9X9X2XqX,X* 7 _ 8               ",
"                                . 2 2 L.P.P.P.P.P.P.R.}.[.R.L.L.U.-X*X%X%X=X%X=X%X%X%X&X&X%X%X%X%X%X&X*X^.< _ ' `               ",
"                                      $ 2 2 $ E.].].I.1.>.T.tXtX@XX * * o.o.o.o.V V V ....X.} N N } X.X.} 3 _ 8 9               ",
"                                      $ 9 2 9 E.{.].I.1.>.T.eXeXoX2 3 5 +.*.*.*.[ [ [ +.@.+...} A ..+.+...7 6 6 4               ",
"                                      . $ 2 2 E.`.}.I.3.1.T.tXeXXX2 7 9 +.+.+.o.} [ } #.+.+...} } ..:.@.@.3 9 4 2               ",
"                                              ] { ] Y._.}.}.].].~.- 3 3 | | | | X.o.X...| | ..o.o.m.'.|.R.2 2 4 9               ",
"                                              2 6 2 Y..X}.`.].'.E.- 5 3 { | { { *.$.*.| | | X.+.+.L.XXXX`.- 5 5 9               ",
"                                              $ 9 2 P.'.'.'.}.}.R.6 6 5 } } | | $.%.$.} |  .o.$.+.V.|.XX`.2 3 5 6               ",
"                                              # 2 2 P.].'.'.{.[.R., $ ; D Z R S W W W T R R E E %.M.XXXX`.2 5 9 6               ",
"                                                    ,.2.2.3.3.6.5.T.U.Z.g.q.0.g.F.F.F.j.q.0.w.w.0.C.|..X`.2 9 2 9               ",
"                                                    1 6 2 9 6 8 @.XX X^.l.p.s.a.G.G.>Xb.s.r.e.e.r.Z. X|.`.2 9 9 9               ",
"                                                    , 8 8 6 8 8 @.oX X$Xh.j.a.a.H.G.H.f.a.s.s.e.r.B.$X|.`.2 6 9 6               ",
"                                                      , 8 6 9 9 O.`.Q.^.l.l.j.j.;X;X>Xk.0.0.j.v.v.Z.Q.Q.E.2 9 9 9               ",
"                                                            3 7 9 7 3 d N.n.n.n.i O q i i 0 Z.$X$XU.- 9 2 9 6 6 9               ",
"                                                          3 3 9 7 6 7 s m.M.M.M.s 6 9 3 3 - U. X XU.= 4 6 9 6 9 2               ",
"                                                    o & - 5 3 7 7 7 9 9 J.m.m.J.9 8 8 6 9 2 T.|.|.T.= 9 9 9 6 6 6 9 9 9         ",
"                                                    o 2 9 3 5 2 2 9 9 ` `.).~.Q.9 6 8 9 6 9 @.>.>.@.6 2 9 6 9 9 9 6 2 2         ",
"                                                    $ 2 6 9 9 9 9 2 9 ] {.|.|.|.V 9 2 9 9 8 7 7 7 7 8 9 9 9 9 2 9 6 9 9         ",
"                                                    @ ' 1 8 6 6 3 3 3 s |.|.|.].] 9 9 9 6 9 7 7 7 _ _ 7 2 6 6 9 9 9 9 2         ",
"                                                    % 6 8 ` 6 9 7 9 3 s E.~.`.T.] 6 7 7 9 7 7 7 7 7 7 7 9 9 9 6 6 9 2 9         ",
"                                                    # 2 9 6 8 8 9 2 9 3 9 < 1 9 7 7 9 6 9 7 5 4 4 9 7 7 6 6 9 9 9 2 9 2         ",
"                                                          8 9 6 6 9 6 8 6 8 8 8 6 9 6 8 8 6 4 4 4 6 9 9 6 9 6 9 9               ",
"                                                            2 9 6 9 9 9 6 9 6 6 6 6 6 6 6 6 4 4 9 6 6 6 9 6 9 2 6               ",
"                                                            9 2 9 2 2 9 6 9 9 9 9 9 9 9 6 9 9 9 2 2 9 2 9 9 2 9 9               ",
"                                                            2 9 2 ] 2 9 2 2 9 9 9 9 9 9 9 6 6 9 9 9 6 9 9 2 9 9 $               ",
"                                                                        9 9 9 9 9 6 9 9 9 9 2 9 2 6                             ",
"                                                                        2 2 9 9 9 9 9 9 9 6 9 9 9 9                             ",
"                                                                        2 2 9 9 9 9 9 9 9 9 9 9 9 9                             ",
"                                                                        2 2 9 9 9 9 9 9 9 9 9 6 9 9                             ",
"                                                                                                                                ",
"                                                                                                                                "
};
