/* XPM */
static char *_d5b7212615c4cdedb34c2776ddad1cb43wBwqOXOmTmWD3N[] = {
/* columns rows colors chars-per-pixel */
"64 64 187 2 ",
"   c None",
".  c #54533F",
"X  c #545D3E",
"o  c #554E45",
"O  c #5C4C45",
"+  c #544E4A",
"@  c #5C4D49",
"#  c #4D544A",
"$  c #545343",
"%  c #5B5445",
"&  c #565D40",
"*  c #585846",
"=  c #54524C",
"-  c #5D524C",
";  c #5D594B",
":  c #4F5151",
">  c #5D5351",
",  c #614D47",
"<  c #614E4B",
"1  c #605147",
"2  c #60514C",
"3  c #60594C",
"4  c #635452",
"5  c #5F725A",
"6  c #5F7859",
"7  c #6A675F",
"8  c #666C5E",
"9  c #696C5E",
"0  c #70645F",
"q  c #65725C",
"w  c #69755B",
"e  c #6D6663",
"r  c #666C62",
"t  c #6C6964",
"y  c #636B6A",
"u  c #6E6969",
"i  c #716564",
"p  c #706B64",
"a  c #706168",
"s  c #6D7065",
"d  c #897E79",
"f  c #1F974F",
"g  c #1D9A4F",
"h  c #179755",
"j  c #1D9655",
"k  c #1D9954",
"l  c #16965D",
"z  c #1C955C",
"x  c #16995D",
"c  c #1B985A",
"v  c #22994F",
"b  c #258E5F",
"n  c #2E8B5F",
"m  c #229655",
"M  c #299255",
"N  c #219853",
"B  c #21955B",
"V  c #2B925D",
"C  c #219858",
"Z  c #2FAC4D",
"A  c #35AB47",
"S  c #37A74B",
"D  c #3BA54E",
"F  c #33AA4D",
"G  c #3CAA4E",
"H  c #2EAB52",
"J  c #2FA859",
"K  c #34A754",
"L  c #3CA553",
"P  c #32A952",
"I  c #3CAA52",
"U  c #33A75A",
"Y  c #3CA45A",
"T  c #32A958",
"R  c #3DA959",
"E  c #0E8B65",
"W  c #0E8A6A",
"Q  c #108B64",
"!  c #108A69",
"~  c #179561",
"^  c #1B9461",
"/  c #1C9861",
"(  c #179469",
")  c #1A9269",
"_  c #238D61",
"`  c #239261",
"'  c #2B9163",
"]  c #499C57",
"[  c #459E5D",
"{  c #4A9E5C",
"}  c #43A64E",
"|  c #48A34E",
" . c #42AA4E",
".. c #48A94E",
"X. c #43A553",
"o. c #48A652",
"O. c #43AA51",
"+. c #49A853",
"@. c #45A45B",
"#. c #828C76",
"$. c #85857C",
"%. c #8C837E",
"&. c #858A7F",
"*. c #88897E",
"=. c #81917A",
"-. c #868481",
";. c #8C8583",
":. c #848B83",
">. c #8C8885",
",. c #8D8688",
"<. c #828B8A",
"1. c #858B88",
"2. c #868B8A",
"3. c #848C8A",
"4. c #838C8C",
"5. c #848C8D",
"6. c #858C8B",
"7. c #8A8989",
"8. c #8F8988",
"9. c #888C8C",
"0. c #8B8989",
"q. c #908383",
"w. c #918387",
"e. c #918586",
"r. c #918584",
"t. c #908987",
"y. c #918688",
"u. c #908988",
"i. c #918989",
"p. c #BAAFAB",
"a. c #BAAFAD",
"s. c #BBAFAF",
"d. c #BAADAD",
"f. c #BCAFAE",
"g. c #BCAEAD",
"h. c #BBAEAD",
"j. c #A7BAA9",
"k. c #B3B4A6",
"l. c #B1B6AD",
"z. c #B5B3AD",
"x. c #BAB0AB",
"c. c #BBB0AF",
"v. c #B9B1AE",
"b. c #B9B1AD",
"n. c #B1B8AC",
"m. c #BAAFB0",
"M. c #BDAFB0",
"N. c #BBAFB2",
"B. c #ADB7B5",
"V. c #AFB4B0",
"C. c #ACB9B6",
"Z. c #ABBABA",
"A. c #AEB9B9",
"S. c #B6B2B1",
"D. c #B3B5B2",
"F. c #B2B6B6",
"G. c #B5B5B5",
"H. c #B4B4B3",
"J. c #BAB1B0",
"K. c #BBB1B2",
"L. c #BBB3B1",
"P. c #BDB1B1",
"I. c #B9B4B3",
"U. c #BBB2B4",
"Y. c #BDB2B4",
"T. c #BBB1B2",
"R. c #B2B8B7",
"E. c #B6B4B8",
"W. c #B9B3B9",
"Q. c #C1ACB0",
"!. c #8EDF8E",
"~. c #95DE86",
"^. c #99DF87",
"/. c #95DE8B",
"(. c #99DD8C",
"). c #9CD790",
"_. c #93DE90",
"`. c #9CDB93",
"'. c #A3D78D",
"]. c #A1D88D",
"[. c #A3D494",
"{. c #A1DA92",
"}. c #8DE287",
"|. c #8EE18B",
" X c #92E186",
".X c #93E08A",
"XX c #99E08B",
/* pixels */
"                                                            H.P.Y.I.P.W.                                                        ",
"                                                            B.U.K.P.K.B.                                                        ",
"                                        4.1.1.9.F.H.> + + = e.8.>.;.;.i.F.U.- O o #                                             ",
"                                        <.;.;.8.K.f.< O O O ;.;.;.;.;.;.K.M.2 O @ =                                             ",
"                            A.S.- = 7.1.8.;.;.;.K.f.- O O @ ;.;.;.;.8.8.S.v.- @ ;.;.0.0.H.S.= =                                 ",
"                            C.f.4 2 %.;.;.-.w.0.S.m.4 - O @ ;.8.e.8.8.e.d.x.- @ ;.;.8.8.v.f.- o                                 ",
"                    = = 1.6.e.e.d.p.- - u t ;.8.;.>.v.d.@ O ;.;.-.7.;.%.- - O @ ;.8.-.>.v.d.- O + @ 7.5.                        ",
"                    $ @ ;.;.%.7.S.d.< O i t -.;.q.;.K.d.- O ;.;.;.8.,.;.@ O @ = ;.8.>.8.d.p.2 O % - ;.1.                        ",
"                # o O O t u ;.0.;.e.@ O O , u u 8.8.K.M.< O e i t u e t O @ %.;.8.8.v.d.4 < O @ ;.8.;.7.H.Z.                    ",
"                - < O O 7 u ;.;.8.;.> @ @ O t u ;.;.l.l.; $ 8 r r 9 8 r @ @ ;.;.;.e.f.f.2 @ @ @ 8.;.8.;.K.H.                    ",
"            6.1.m.v.- O O O e e ;.;.v.d.< O O , u q [ L D D L L L L K { 8 i ;.7.K.d.4 - %.%.%.;.;.>.$.e.K.d.> :                 ",
"            1.>.K.f.2 @ - - e e 8.e.N.m.; $ . $ u w X.G G G G G G I G o.6 s &.:.S.k.2 @ %.;.;.;.;.;.>.t.v.f.> =                 ",
"        + = ;.;.;.;.;.8.N.d.> @ -.8.;.#.] D D o.).(./.(.(.(.(.(.(.(.(.(.{.(.X.L L [ $ O u u 0.>.K.K.P.d.4 > ;.e.F.A.            ",
"        + @ *.;.;.q.8.8.N.f.* $ :.:.:.=.@.G I +.}./.(.(.(.(.(.(./..X/.(.(..XO.I G X.& ; r 8 0.:.d.d.f.f.2 @ ;.>.Q.F.            ",
"        o O t u t e ;.;.K.n.{ L X.X.`.{./.^.(./. .G G G G G G G  .G G I G  ./.(.^.(.(.(.X.{ l.M.4 2 2 2 %.;.-.>.-.y.H.A.        ",
"        o o e e e e ;.>.d.k.L F I  ./..X(..X(.(.I P F P P P P P P F F F F I /.(.(.(.(./.+.o.j.v.; $ O @ ;.;.;.;.>.;.v.S.        ",
"    # o O O O O @ @ t u 2 ; L G /./.+.I G I G I m z j z z z z z z z z z z z I I G G G  ./.(.@.X.L X.9 e ;.;.;.;.;.;.2 -         ",
"    o O O O @ O - @ 0 i % X X.O././.I K L F P T k z z z z z z z z z z z z f P P F P P I /..X+.G G o.r e -.;.;.;.%.d O +         ",
"    o O O @ ;.;.v.f.2 ; [.{..X(...L k c z C z C T F P F F P P P F F F F F T C z z B j N I  ./.(..X`.p t 0.;.;.%.- @ @ +         ",
"    o O O @ ;.>.S.d.4 3 (.(.(./.I U h z z h x k I  .G G G G G G G G G G G I m h z z z z U R /..X(.`.w w ;.8.;.%.@ O @ =         ",
"    + O e t ;.8.8.t.v.l.+.G G P C B z z T P P I /.(.(.(.(.(.(.(.(.(.(.(.(.|.I F P P z z m v L G G ..`.[.t e @ @ O @ %.;.H.R.    ",
"    + O e i ;.;.8.;.v.l.X.S L H z ^ z k R G I O._.(..X/./././././././././..X..G I I m z l z U Z S G |.(.9 9 @ @ O < ;.>.K.H.    ",
"    + O t i t t 8.;.;.&.L Z k z z j U I /././.}.+.G G G G G G G G G G I I ../.(.(./.G P j z B M P S G o.$ , q.;.>.;.8.;.P.H.    ",
"    = - t u u i ;.-.;.&.Y T h z z N T O././.(.~.G F K F F F F F P F F F S G /.(.(./.+.R m c z z U F F L $ @ 1.-.;.;.8.;.d.V.    ",
"0.1.;.%.@ O O , @ - , = B c T F P  .~./...G I G P T m z z z z z z z z j P S G  .G  ././.I P F F k N P D 8 i 7.;.e.;.8.-.4 >     ",
"8.;.>.;.- @ O o O O $ # b z F A G +./._.I A F F F P j z z z z z c z ^ z T L T P F G .X.XO.G F P ^ c T L 5 9 ;.;.;.$.;.%.4 >     ",
"i e -.;.;.%., O O $ ' b x z P O.^./.+.G A P k z z z z z ^ z z z ^ z z c j z z m P F G  ././. .F z z B N Y [ 8 i @ @ @ 4 p.v.F.E.",
"e u ;.;.;.;.- - 2 = ' z z j R O./.|.L T P T c z z z z z z z z z z z z z ^ ^ c z P P P I  X/.O.I m z ^ z T L 9 a @ @ @ > d.K.K.P.",
"O @ u e ;.8.K.K.M.z.' z U I /./.+.I m h m z z z ^ z U F F F F F F F P T z ^ ^ ^ z z C m I O..X/.G U z ^ B V $ @ ;.;.;.;.8.8.K.P.",
"O O i e ;.;.v.K.Y.z.V j I  ..X(.I P z ~ ^ ^ z z j k  .G G G G G G G G R k h z ^ z z z c H G /./...L g h z _ $ O 8.;.;.8.;.8.m.f.",
"O O O @ u u ;.;.U.k.Y R /..X..I S P z ^ z l z z P T .X(.(.(.(.(.(./.(./.X.U z ^ ^ z ^ C F G G O..X/.R U B ' r i ;.;.7.;.;.;.> 2 ",
"O O O O e u ;.;.N.k.X.G /.(.G F P T C ^ z l z ^ G O./.(.(.(.(.(.(./.(./.+.R m z ^ z ^ z T F Z G (.(.G P m B r u ;.;.;.;.;.;.@ O ",
"O @ O O O @ @ @ 2 * D G (./. .P c z z ^ ^ z K I ~./.O.G G G I G G I G +./.~.I T z ^ ^ z z z Z I (./.G K C ` y t 8.8.;.;.= @ O O ",
"@ @ @ @ @ @ - - O $ |  ./..XI P c z ^ ^ z N G O./.(.G S F P F F P K A G |./.+.G N z ~ z z z F G ^./...I g M y e ;.;.;.;.2 - 2 - ",
"e e ;.;.;.;.v.p.< % /..X..G F D z z ^ c J I /./. .G F T N z z z c m F P I +././.T U z z z z F S G +././.I R $ O @ O @ 2 p.f.d.d.",
"e e ;.;.;.8.v.d.4 ; (./.G F Z P ` ^ z k R +././.G F P P z ^ z ^ l c T P S G _.~.O.I j c ^ z T F F G /.(.G D $ @ @ @ @ - v.P.K.P.",
"O @ ;.8.8.8.-.8.v.z.{./.G L N c z k T L |..XO.G D F C z W W ^ ^ W W z m T S P .././.R P z ^ z m D G (./.G D 8 u ;.%.;.;.;.0.U.P.",
"O @ ;.;.;.;.;.0.K.b.{.(.G P z ^ ^ z P  .(.(.G F P H z ) E W z c W E ~ z P P F G /./.G F z ^ z z F G (.(.G L r u ;.;.;.;.;.>.K.Y.",
"O O u e ;.8.8.;.P.b.`.(.G P z z z z P G (.(.I F N z Q E ^ ^ U K ^ ~ W ! z z F G /.(.G P B ^ ^ z F G (./.G L t u ;.8.8.8.;.;.K.Y.",
"O O e e ;.%.;.;.d.x.`.(.G P z z z z P G (.(.I P z ~ W W c k G G C c W W ~ z F I /.(.G F C z z z F G (./.G L 9 i ;.;.-.;.;.;.d.d.",
"O @ u e @ @ i e - ; (.(.G P z z z z P G (.(.G F c z ~ z T L  X/.I P z ^ h z P I /.(.G P C z ^ z F G (./.G D $ @ u u e i @ @ @ < ",
"O @ e e @ @ 0 e O * (.(.G P z z z z P G (.(.G F z z l z P L  X/.I Z ^ ~ ^ z F G /.(.G P C z ^ z F G (./.G L = @ e e e i - 2 2 2 ",
"O O O O O O @ @ O % (.(.G P z z z z F G (.(.I F ^ ^ E W z c I I C c ! E ^ z H G (.(.G F z ^ z z F G (./.G L *.%.= O @ > d.f.d.d.",
"@ @ @ @ < - 2 - O * (.(.G P z ^ z z F G (.(.I S c z E W ( z P T z ~ E W c C F I (./.I F z ^ z z F G (./.G L &.;.= @ @ - v.K.K.P.",
";.;.%.;.c.v.f.d.- % (.(.I T z z z z F I /.^.I S P T z ~ W Q z z E E ~ z P T S G (./.G F j ^ z z F G (./.G L &.8.;.;.;.;.8.8.K.P.",
";.;.;.8.v.K.P.m.4 ; (.(.G F N j z z T R |..X+.I S S k c ! E ^ ^ W W c m P F G +././.R T j ^ j z F G (./.G L &.8.;.;.-.;.;.;.d.f.",
"e u ;.8.>.>.e.i.d.z.(.(.G S T T z z k m } ../.!.G F P P z ~ ^ z z ^ H P S G .X/.+.G C z z z H F F G (./.G L r u u e ;.;.= @ - 2 ",
"e u ;.;.;.;.%.8.d.k.(./.O.G F F z ^ z ^ P I /./...G S F j z z z z B F P I  ././.I H z z z z F S G  ././.I L 8 e u e ;.%.@ O 2 < ",
"e u u e ;.%.- O < ; X.O././.G K z c ^ z z c G O.(./.G F F F P P P F F G /./...G C c c ^ ^ z P G /./.O.G C V $ @ @ @ @ @ O @ d.m.",
"e e t e ;.;.@ O O $ L I /.(.G S m j ^ ^ z z F P  X X..G G G G G G G I O..X|.R J B c z z j k P G /./.G F z b = @ @ @ - @ @ 2 p.c.",
"O @ t e @ @ O O O $ D G /.(.G S T T z z z z z C I +.(.(.(./.(.(.(.(.(./...G N z z c ^ z T T F G (.(.G P z ' :.;.;.q.d.p.< @ @ - ",
"O O 7 0 O @ @ - 1 * Y I .X/.O.G S P z c c ^ ^ c T I  X(.(.(./.(.(./..X.XI U z z ^ l ^ z F F G +././.I T z V :.;.8.;.v.d.4 2 O O ",
"O O O O O - d.K.v.D.V m L ...X/.G P z z z ^ ^ z C C I G I G G G G I G G C z ^ z ^ l ^ z F  .|./.+.X.k j z V :.;.;.8.;.8.d.f.< O ",
"O O @ @ @ 2 M.K.P.F.' z U G .X(.+.R j z z z ^ z z z T F F F F F P F F P c z ^ z c c z c I +././.R T c ^ ^ M :.;.;.;.;.8.K.d.4 2 ",
"O @ ;.;.;.;.y.;.K.F.' c z C I ...X/.I F P H j ^ ^ ^ z z z z z z z C B z z z ^ c H K P  .~..X+.I N j c z H R r e 8.8.8.8.>.>.K.P.",
"O @ ;.8.;.;.8.;.K.D.' c z ^ F G ~./. .G G F j ^ z z ^ z z z z z z z z z z z z j P S G O././.G P z z z m I o.8 e ;.8.;.;.;.;.d.K.",
"O @ ;.8.;.;.8.-.8.>.Y P N B P P I O././.G S P T F P C z z z z z z z z z T P P F F G /.~.+.G G P / j T I |.(.* @ e t ;.;.= @ < , ",
"O @ ;.;.;.;.;.%.;.$.L H k m P F F G (./.O.G G G F H k z z z z z z z z C F S G G I O..X/.I P G P z m T  ./.'.* O i t ;.%.- 2 2 - ",
"O O @ O @ @ @ @ @ $ D F K U k z z k R o./.(.~./. .S F P P P P P P F P T F G /.(.(.~. .I k C c z P F F G /.].* O O O O 2 p.v.v.S.",
"@ @ @ @ @ O < - O % } G F K N z ^ z T L |..X.X.XO.G G G G G G G G G G G G +./.(._.~.I P m j z j F S G O./.^.* @ @ O @ - d.K.K.K.",
"%.%.;.;.;.;.v.d.2 % (.~.G F P K c z c m R G G +./.(.(.(.(.(.(.(.(.(.(.(.(./.+.G I I k z z k T F F G /..XO.o.8 t ;.;.;.8.8.8.K.P.",
";.;.;.;.;.;.K.M.- * (./.O.G G G C z ^ c P F P I /.^./.(.(.(.(.(.(.(.(.(.(.~.P F K T c z z k R O.G O.(./.I Y r t ;.;.;.;.;.8.m.M.",
"e e e e ;.8.e.;.O $ X.+./.(.(./.G T z z z z c k I G I G G G G G G G G G G L c B B z ^ B U I /..X(./. .F N M = O u i ;.;.8.;.> @ ",
"u u u e ;.-.;.-.@ % D G (.XX(.(.G F j c z z ^ B P G F F F F F F F F F F F F ^ ^ l z c z F G (.(.(.(.G P z B + O e i 7.;.;.%.@ O "
};
