/* XPM */
static char *_0a65bb0a0fa4ac5bea527b1361b4443eMI6IAXHY67UFqfu[] = {
/* columns rows colors chars-per-pixel */
"64 70 214 2 ",
"   c #050505",
".  c #080506",
"X  c #060509",
"o  c #09060C",
"O  c #070808",
"+  c #0A0A0B",
"@  c #10100F",
"#  c #0D0712",
"$  c #0D0914",
"%  c #110C15",
"&  c #130D1A",
"*  c #141415",
"=  c #16111C",
"-  c #19141E",
";  c #1C1B1C",
":  c #20211F",
">  c #160F20",
",  c #1B1424",
"<  c #1C1625",
"1  c #1D142A",
"2  c #21172B",
"3  c #231B2D",
"4  c #261C33",
"5  c #231834",
"6  c #291E36",
"7  c #2B1E3B",
"8  c #252525",
"9  c #28262A",
"0  c #292929",
"q  c #2A2236",
"w  c #2D2933",
"e  c #2D233C",
"r  c #302E33",
"t  c #31253D",
"y  c #322A3D",
"u  c #353434",
"i  c #373539",
"p  c #3A393B",
"a  c #41403E",
"s  c #2F1F40",
"d  c #332543",
"f  c #352945",
"g  c #362649",
"h  c #36294A",
"j  c #392A49",
"k  c #3B2C4D",
"l  c #3C3348",
"z  c #3D2C52",
"x  c #3D2A54",
"c  c #3F3053",
"v  c #412E55",
"b  c #432E5B",
"n  c #423255",
"m  c #45325C",
"M  c #49335F",
"N  c #473958",
"B  c #472E61",
"V  c #473162",
"C  c #4B3464",
"Z  c #4C3963",
"A  c #4E366A",
"S  c #4E396A",
"D  c #503B67",
"F  c #51366D",
"G  c #52396D",
"H  c #553A73",
"J  c #553976",
"K  c #593C76",
"L  c #5C3E7D",
"P  c #603D7E",
"I  c #3F4141",
"U  c #474548",
"Y  c #4D4D4E",
"T  c #4E4955",
"R  c #524C59",
"E  c #535255",
"W  c #58565A",
"Q  c #5B5A5B",
"!  c #574A67",
"~  c #5C5465",
"^  c #5E5868",
"/  c #5B4675",
"(  c #5D417D",
")  c #62576B",
"_  c #634A7D",
"`  c #665977",
"'  c #676767",
"]  c #72746E",
"[  c #6C6576",
"{  c #746D7A",
"}  c #737373",
"|  c #777479",
" . c #7C7B7C",
".. c #81807F",
"X. c #5E3E81",
"o. c #603D81",
"O. c #5E4180",
"+. c #624382",
"@. c #654A83",
"#. c #694D85",
"$. c #694E88",
"%. c #6D5887",
"&. c #6D538A",
"*. c #70558C",
"=. c #725A8D",
"-. c #765D91",
";. c #766689",
":. c #7D7783",
">. c #7B6593",
",. c #7C6795",
"<. c #7D6995",
"1. c #827C86",
"2. c #837C8A",
"3. c #806796",
"4. c #816C96",
"5. c #836D9A",
"6. c #867992",
"7. c #86729B",
"8. c #89759D",
"9. c #8C7B9E",
"0. c #8771A0",
"q. c #8A76A1",
"w. c #8D7BA3",
"e. c #917DA4",
"r. c #947FAA",
"t. c #848485",
"y. c #868489",
"u. c #888889",
"i. c #8C8B8C",
"p. c #8F8F90",
"a. c #93899B",
"s. c #939394",
"d. c #97939A",
"f. c #9C9C9C",
"g. c #A1A29E",
"h. c #8E80A3",
"j. c #9483A5",
"k. c #978AA5",
"l. c #9A8CA6",
"z. c #9684A9",
"x. c #9986AA",
"c. c #9B8BAC",
"v. c #9C93A7",
"b. c #9E9AA4",
"n. c #9D8BB1",
"m. c #9F91B1",
"M. c #A18EAD",
"N. c #A19DA2",
"B. c #A497AE",
"V. c #A28EB2",
"C. c #A494B3",
"Z. c #A69AB3",
"A. c #AA9DB6",
"S. c #A896B9",
"D. c #AC9DBB",
"F. c #B09FBB",
"G. c #A3A3A4",
"H. c #A8A9A7",
"J. c #A6A3A9",
"K. c #A9A4AD",
"L. c #ABABAD",
"P. c #AEB0AE",
"I. c #B1B1AE",
"U. c #ACA4B5",
"Y. c #AEABB5",
"T. c #AEA1BB",
"R. c #B1ABB6",
"E. c #B1A5BC",
"W. c #B4ABBC",
"Q. c #AFB0B2",
"!. c #B2B2B3",
"~. c #B6B2B9",
"^. c #BAB6BB",
"/. c #BCBCBD",
"(. c #C0BFBE",
"). c #BEC0BB",
"_. c #B0A1C1",
"`. c #B6ABC1",
"'. c #B9ADC2",
"]. c #BCB4C4",
"[. c #BEBDC1",
"{. c #BEB7C9",
"}. c #C1BDC3",
"|. c #C1B6CB",
" X c #C3BBCB",
".X c #C7BFD0",
"XX c #BFC0C2",
"oX c #C4C4C5",
"OX c #C8C8C7",
"+X c #C6C3CB",
"@X c #CAC5CC",
"#X c #CBCBCC",
"$X c #C5C0D0",
"%X c #CBC3D2",
"&X c #CECAD3",
"*X c #D1C7D0",
"=X c #D1CCD5",
"-X c #D3CDDA",
";X c #D4D4D4",
":X c #D8D6D6",
">X c #D6D2DA",
",X c #D9D5DC",
"<X c #DDDDDD",
"1X c #E0DFDE",
"2X c #DFE1DD",
"3X c #E0E0DE",
"4X c #DBD6E1",
"5X c #DFDEE1",
"6X c #E1DFE1",
"7X c #DEE0E0",
"8X c #E1E1E2",
"9X c #ECECEC",
"0X c #F4F4F4",
"qX c #FEFEFE",
/* pixels */
"O W Q Q Q u * Q Q Q Q Q Q Q p + Q Q Q 8 8 Q Q Q O p Q Q Q Q Q Q Q U O E Q Q p + Q Q Q 8 8 Q Q Q + p Q Q Y O U Q Q Q Q Q Q Q p O ",
"' <X8X:X{.{ } 8X8X3X6X2X,X=X:.' <X=X=X^ i.&X&X].6 P.6X8X3X8X7X5X&Xv.E @X=X{.2.' <X8X3Xi.i.8X&X*Xy L.&X XU.i oX8X8X3X8X2X,X=X2.O ",
"f.6X X`.,.H P.1X<X5XT.>XU.q.K H.+XT.T.` ~.T.D.( v :X1X5X>XU.6X X8.@.y.W.D.7.K H.5X1X Xv./.].D.D.m }.T.C.O.^ <X<X5X@X].6XE.8.K o ",
"f. X=.F.&.x I.5X5X<XE.5.&.X.L H.>X,.=./ [.M.-.L 2 :X5X5X,Xj.8.-.X.X.y.|.=.%.b H.5X'.7./ ).%X;.-.m &X8.-.H E <X5X5X,X5.8.&.X.L X ",
"N.C.*.+.L Z J.>XT.D.A.,.L X.K H.E.C.X.S U.C.L L j &X{.E.E.D.L L X.X.y.C.8.X.D H.W.D.Z.A /.D.x.X.b Y.S.X.L R ,XU.E.E.S.L X.X.K o ",
"6.@.X.X.H d 2.U.x.A.m.X.X.X.K J.x.@.X.S a.L L G # W.x.j.D.8.o.X.X.X.{ >.L G k G.E.z.e.F K.n.L o.b x.L K S u {.x.z.A.=.X.X.X.K o ",
"b X.L X.m 1 U.T.o.5.$.o.L X.m J.+.L X.A S o.K z +  Xc.o.8.X.o.X.X.G g X.X.C 3 N.9.L q.A K.X.X.P b K o.K h Y  Xj.X.q.X.X.X.L C X ",
"z L L L g O [ D.X.X.L X.X.K k ` X.X.L S S X.K , o C.8.L X.L X.L L k k L X.x   N.@.o.X.F ` X.X.X.b K L H & w T.>.X.X.X.X.X.K k X ",
"o g b k o O l.C.+.X.L o.L K & d.O.X.X.S % b g   X B.C.X.X.X.o.X.L 2 o 7 C o O d.+.X.o.S l.X.X.X.b $ S 4 O U V.V.X.X.X.X.X.K > O ",
"O t.u.u.u.Y m X.X.X.X.X.X.L e b X.L X.b p u.u.u.+ K L X.X.L X.X.X.k O  .u.u.W [ +.X.X.A Z X.X.X.g E u.u. .1 ( L X.X.X.X.X.L e O ",
"| <X5X=X$X[ V P X.X.X.Z Z m 4 b L X.Z z f.1X X Xt K X.X.X.K z Z S t ' +X+X+X;.:.+.L X.S A X.X.L d ^.6X XT.t X.X.L X.G m S C q O ",
"f.6X6XE.x.K V X.X.X.L m z k - b L Z k 5 oXU._.T.m K X.X.L k o k k 3 t.E.S.C.K b X.X.X.A A X.X.L 1 :Xl._.D.z X.X.X.X.q & k k , O ",
"b.W.%Xw.+.x V X.o.K z 5 3 q O k z f , O oX%X%.@.b K X.o.S & O $ f O t.{.$.+.b b X.X.X.C F X.X.L o :X`.&.@.z L X.X.b o O 3 e O   ",
"N.x.%.c.X.C k L H g t O O O O o e O O O ^.A.e.X.b S K K e 4 O O O   u.c.5.X.Z b o.X.H g F L G G o @XA.,.X.k H G H e = O O X   O ",
":.+.X.X.Z g # k q o O O O O X O O O O O U.w.L X.b 4 d q O O O O O O ) *.X.S h b X.H k d A K k k   U.w.X.X.g e 6 6 O O O       O ",
"z X.L X.C = 0 XX}.[.U ' [.[./.[.[.(.}.W U.X.X.X.b  .[.}.L.o d.}.(.d.g L X.Z , v m z 4 O m C k 1   E.X.X.L g s.(.}.d.+ H.}.}.:.O ",
"f K K K 6 O H.,XE.E.Z oX<X6X5X=X<XW.D.S ` X.X.X.b #XT.9.#.~ =XE.>.@.h K L d O $ f # o   3 e + O O %.X.L X.~ &XT.;.@.:.}.E.=./ X ",
"X e z t O O !.].x.z._ OX<X5X<X4.|.@.( F k.L X.X.b ].C.M.L W ].c.c.K > 4 c X O O X O O O X O O O   x.X.X.X.^ ].x.n.H u.`.x.w.D O ",
"+ f.g.G.G.Q I. Xe.X.C OX>X%X%XD.( o.X.F A X.X.L e }.c.L K W  X9.X.H & s.G.G.G.G.G.G.G.U U G.G.N.- K X.X.K W  Xw.L H u.'.<.X.C X ",
"u.<X5X1X5X/.U.T.,.L C b.`.A.D.D.X.o.X.F F X.K C h T.,.X.H E Z.>.L S } :X5X<X5X<X<X X|.! H.].'.h.k K X.X.K W Z.>.L S t.j.*.L b O ",
"f.5X,X,X>Xj.J.@.X.X.C }.j.@.S.@.X.X.X.C S K x f $ _ L H z 3 @.X.C k t.5X1X<XU.T.-X=.@.S L.D.C.( z K X.X.H 3 @.X.C k l +.X.v f O ",
"f.-XA.D.4.H a.X.X.X.C b.S.X.( X.X.X.K e h k d X o K o.K 3 < X.o.H % t.5X&X=X%X<.( X.X.S ].C.( L 4 K X.X.H 1 X.o.H $ d X.X.C . O ",
"f.E.x.w.L K 2.L X.X.C v.C.L X.o.X.X.C q , 3 O O O k K x O & v L 7 O ' %XD.T.T.8.X.X.X.A K.w.X.L e K H S C % v ( e X 3 m K 3 X O ",
"N.<.@.X.X.H [ X.X.X.C ;.<.X.X.X.X.X.K < + * * * O + e < * O * y * % {  X3.w.S.X.X.X.X.S ;.o.L M # K K k d O * y * @ O < e * + O ",
"v.@.X.X.X.K V X.X.K 6 H X.X.o.L K K C $ ' #X@X X- i.;X#X~.= H.;X#Xb.:.S.7.+.@.X.X.X.L 7 A X.L f X z z j o * H.&X#Xb.8 ^.#X&X1.O ",
"` +.X.X.X.H M X.H k k H X.X.X.L z k k < ].A.S.O.n :X.XA.x.^ <X XD.7.~ E.*.X.X.X.X.X.C y z K F o O q - o   Y &XT.T.#.y.{.U.D.K X ",
":.+.L X.X.K b S z e O H X.X.L S e k d O ~.C.e.L e :XB.e.e.^ 5X9.w.e.[ 8.>.X.X.X.X.X.K , O t 4 O O O O O O Y  Xw.w.H y.'.8.5.C X ",
"z X.X.X.L v 3 k 1 o O G X.L b k O < $ O W.D.X.X.f ,XE.>.X.^ <XF.+.L x X.X.X.X.X.L L F & W /./.^.; | /./.H.Y ].c.X.J u.W.7.X.S O ",
"z o.L K v C X $ X O X t Z z $ $ O O O O Z.#.L K & E.S.+.X.^ T.C.X.L k X.X.X.X.x k z k < !.,XT.E.z @XU.T.j.~ m.#.L C :.q.@.K x O ",
"z K m z h o ;  . . .9 I  . .|   E  . .u D o.L z o E.( X.X.^ Z.O.X.L z L X.X.D o O z f O /.U.n.n.C ^.S.V.K d ( X.S f d L X.b e O ",
"q k 4 6 1 O ..%X@XE.T G.+X}.A.e /.+X`.! S L S 6 X 9.X.X.X.R 8.X.X.L x L L K k X O 4 & O (. X7.L B +Xx.L K e ( X.D # d X.X.m X O ",
"O 1 O O O O U.T.D.@.C W.E.D.X.N ].T.@.S 6 d < O X l.X.L X.! j.X.X.L 6 K m z 3 O O O O O Y.T.>.X.b E.5.o.K < g ( 4 O , z K < O O ",
"O u u u u ; Y.Z.#.+.6  Xj.#.L 9 =X;.X.s * u u u o _ X.X.L k #.X.L L , u i i 8 O u u i * K.$.X.X.b @.L H z O 0 p u u u i p u 8 O ",
"E <X5X3X6Xf.G.V.o.o.z K.V.X.L l U.V.X.n u.-X-X X3 K X.K H 4 ( L K Z U @X-X>X2.Q =X;X>X^ k.X.X.X.b K o.K 4 8 /.8X6X3X3X7X<X;X2.O ",
"f.2X1X5X<XW.6.L ( S 1 9.L K Z - w.L S 4 ~.D.A.X.b K X.m z e L X.z c y.`.D.Z.K G.T.T.x.S 6.X.X.X.b z K k O Y <X<X<X&X X<X`.e.K . ",
"f.6X].{.T.%.C P X.n $ H X.K j $ K C m & ;.5.4.C 3 m C z = 1 M m k + t.|.,.-.m G.E.,.@.g ;.X.X.L b + t , + Y <X5X5X>X7.x.*.X.K X ",
"f.].S.D.@.H n L K , X Z X.G $ # H k & O M K k % O y 1 &   o j & % O u.S.8.X.G N.S.$.L V A L X.K , u.#X#X~.Y <XE.W.`.S.L X.X.K X ",
"N.c.=.( X.K o j h O O o n 7 O O o o O O o o X O O X O   O O o O O O | >.( H k a.@.L K 6 S X.H z g :X%XA.x.N {.V.c.D.=.X.X.X.K o ",
"N.#.X.o.L H 3 f.f.f.u E f.f.d.  ' f.f.f.f.f.f.f.}   p.f.f.Q 8 f.f.| d K G z 4 b F G k , m G k q   :Xv.j.e.^  X8.L j.X.X.X.L C X ",
"[ +.L X.X.K s.6X X XN P.6X{.'.f OX2X5X1X6X<X<X X;.| +X Xx.` p. X X4.j K d 3 O v H 4 3 O e f 3 O   [.q.X.X.N T.4.X.X.X.X.X.K k X ",
"a.@.X.X.X.H Q.W.S.C.` OXv.D.S.N <X<X<X@Xj.,XZ.&.L d.A.C.7.G K.D.&.K 2 , $ O O & , O O X o $ O O O %.X.X.L ! C.V.o.X.L X.X.K & X ",
"n X.X.o.L S P.-X>.o.C OX X=.( N <X:X>X;Xx.( o.o.L d.].$.X.x L.A.O.A $ ' } } } } } } } u r } ] } + V.X.L X.x O.O.X.X.X.X.X.L e   ",
"v X.X.L F n L.D.j.X.C ^.D.5.X.n %XE.T.T.C.L X.L X.d.k.-.L m K.j.+.G Q ;X5X5X1X5X5X&X%X~ s.%X@X@Xy K X.X.K t X.X.L X.H C A Z 3 O ",
"z X.G C k e J.5.X.L C U.5.L X.n %X7.<.T.*.X.X.X.L ` #.X.C d ;.L S n t.<X<X2X]. X6X9.5.F Y.E.T.5.b K X.H S d L X.L X.t - z k 1 O ",
"k b k f q O B.L X.X.C Z.X.L X.N W.C.X.&.L X.X.X.b k X.X.C % C b D , t.<X<X4X=X=.>.O.L F /.c.&.L 1 K L k e 3 L X.X.C o   4 t O O ",
"o f o o o O ` X.X.L C ;.X.L X.v A.<.L X.X.X.X.L d d H L 4 O k Z $ O t.<XE.U.T.c.X.X.X.m K.C.X.X.h z j f O - K K K d =   X o O O ",
"  O   O O O 6.X.X.X.C 9.o.X.X.n e.j.X.X.X.X.X.L 6 O 3 j O O O X O O t.>XS.c.D.L X.X.X.j 6.L L S $ 4 & O O   d e e O   O O O O O ",
"+ L.!.!.!.' V X.X.L d G X.X.K 4 L X.X.X.X.L X.L 4   H.I.!.' 0 !.!.i.t.W.5.#.,.X.P X.X.h S C m k X X + + + O u.!.!.!.I.!.!.!.| O ",
"i.<X<X%XW./ V X.K v c G o.H m d L X.X.X.H 6 n n f t.<X5X<X}.N.W.`.%.T D.$.X.X.X.L X.S # C Z & =   u.#X#X~.U :X4X<X4X<X4X%X<._ X ",
"b.:X<XC.7.S m K b f o S K k t $ L X.X.K 4 O h k o s.7X*XA.v.H.D.@.K :.n.0.X.P o.L X.C O # # O     :X<X2X<Xp.=X;.%XA.;X5.( X.L o ",
"N.E.W.x.L b d k q o O f f q O # L L L V , O $ q O s.=Xk.x.a.H.D.+.G g X.P X.o.X.L X.A O a s.s.s.* ;X-X&XA.R w.j.8.j.z.L X.X.C X ",
"N.7.#.7.X.v o 3 O O X , = X O . C S C 3 > O O O O d.E.D.5.K K.5.+.S g L X.X.X.C C C d O G.5X<X<Xy.:XE.D.5.k ( O.7.L X.X.O.P S O ",
"! +.X.X.b t X 8 8 8 8 8 8 8 8 O 3 w w : O ; 8 8 ; s.5.%.$.K ) L C c g X.K K n > & j o   /.<X>X`.` ;X'.*.#.x L X.K c b b G C z O ",
"z X.o.o.m o Q <X<X<X<X<X<X=X@X, H.<X>XR.r /.<X>Xd.d.;.X.X.K m V Z & g K k S t O O o O O /.&X>.M.d.Y.e.5.X.x X.K z f m n 2 e o O ",
"e A H H 2 O !.<X<X5X{.,X,Xw.9.N <X].D.k.[ <X`.T.7.d.>.X.L H d n o   4 k e   O O O O O O ~.D.S.O.b Y.X.X.X.k c e o O X X O O   O ",
"O 3 e 3 O O !.<X6X6XA.x.x.X.X.N <XC.7.8.[ <Xj.5.7.[ #.X.X.b O o + X O . O O O O + + O O U.7.7.L b 4.X.X.X.g O + + X   O + + O O ",
"; oXOX+X+X| Y.<X'.W.D.>.X.X.X.N ,XA.=.X.[ >XD.L L 6.*.X.X.Z p OX+Xf.* !.+XOXOXOXOX+X+XW Z.X.X.X.v C.o.X.L f f.OX+X@XU ' +X+X1.O ",
"f.<X<X{.A.H ! B.C.B.C.X.L X.X.N U.C.( o.[ Z.x.X.L n X.X.L g L.<X>X%.t.4X=X<X:X5X&XE.@.S G X.X.L & ( X.X.H Y >X-X;.S.C /.U.z./ o ",
"f.=X,Xc.<.m V ( L X.X.o.X.X.L f j.X.X.X.^ 7.L o.X.x L X.X.g L.%XD./ y.U.z.`.E.%X_ X.X.S A X.X.L # K L o.K W ].j.r.@.k ~.C.X.Z X ",
"N.T.C.C.X.M C X.X.X.X.X.X.L m # L X.X.H t X.X.X.S x H Z C < U.T.7.K ) &.x.w.5.5.X.X.L k S C C C o K X.L z Y {.j.L L x !.S.X.Z O ",
"N.>.+.=.L k V X.X.X.X.X.G m k # L X.Z S f X.L m G z K k e O J.*.L C g X.@.&.L L L L L m C S k > O K X.G & Y C.*.X.L 6 Z.=.L z O ",
"n o.L X.v q V X.K X.o.L f d e # H K k 3 4 K H k % = k f . O Z K C k g L X.D z m c b C 3 6 g e O X G K k 4 3 +.K K x , H K b t   ",
"z X.X.X.n . V L z H G z X O O o z d e O , k e e O q & O O O m C m % g J H e e m e q & X e   O O O k d e O , K z d e O F m c X   ",
"4 C H Z , O 7 h 4 4 4 O O O O   3 # O   O 4 O O X O O O O O 6 h o O < e 4 O O O O O O   O O O O X 3 % O O & f 4 o O O d d X O O ",
"0 r y r 0 0 0 0 0 0 0 0 0 0 0 0 0 0 0 0 0 0 0 0 0 0 0 0 0 0 0 0 0 0 0 0 0 0 0 0 0 0 0 0 0 0 0 0 0 0 0 0 0 0 0 0 0 0 0 0 0 0 0 0 ",
"qXqXqXqXqXqXqXqXqXqXqXqXqXqXqXqXqXqXqXqXqXqXqXqXqXqXqXqXqXqXqXqXqXqXqXqXqXqXqXqXqXqXqXqXqXqXqXqXqXqXqXqXqXqXqXqXqXqXqXqXqXqXqXqX",
"qXqXqXqXqXqXqXqXqXqXqXqXqXqXqXqXqXqXqXqX0XqX0XqXqX0XqXqX0XqXqXqXqXqX0X0X0X0X9X9X9X9X9X9X0XqXqXqXqXqXqXqXqXqXqXqXqXqXqXqXqXqXqXqX",
"qXqXqXqXqXqXqXqXqXqXqXqXqXqXqXqXqXqXqX:X#X<X!.#X:XOX;X:XOX9X:X;X#X0X9X#X#XOX#X/.#X<X;X:X:XqXqXqXqXqXqXqXqXqXqXqXqXqXqXqXqXqXqXqX",
"qXqXqXqXqXqXqXqXqXqXqXqXqXqXqXqXqXqXqX;X:X#X#X;X8XOX;X#X#X<X:X:X;X0X<X8X<X:X<X<X<X8X:X;X<XqXqXqXqXqXqXqXqXqXqXqXqXqXqXqXqXqXqXqX",
"qXqXqXqXqXqXqXqXqXqXqXqXqXqXqXqXqXqXqXqXqXqXqXqXqXqXqXqXqXqXqXqXqXqXqXqXqXqXqXqXqXqXqXqXqXqXqXqXqXqXqXqXqXqXqXqXqXqXqXqXqXqXqXqX"
};
